tools/decompiled/apktool/res/raw/bright.cube
LUT_3D_SIZE 6
0.000110 0.000112 0.000718
0.439172 0.087256 0.087723
0.625163 0.125235 0.124990
0.710004 0.141407 0.141401
0.794282 0.157816 0.157844
0.878418 0.174271 0.174298
0.044358 0.317812 0.045161
0.245626 0.273685 0.030256
0.591496 0.258176 0.129237
0.718464 0.239170 0.153511
0.806030 0.239087 0.170051
0.890553 0.243315 0.185508
0.101150 0.672089 0.106633
0.164012 0.663323 0.100261
0.622996 0.639177 0.077182
0.790322 0.592689 0.114660
0.876611 0.566695 0.157955
0.955569 0.557123 0.188818
0.171443 0.779954 0.191522
0.207966 0.773655 0.151747
0.564040 0.789493 0.148237
0.787056 0.787876 0.256173
0.881300 0.781257 0.253884
0.968790 0.778538 0.247227
0.208347 0.873940 0.242229
0.223060 0.864404 0.206940
0.467229 0.874321 0.141641
0.779339 0.882641 0.266839
0.884398 0.885674 0.303137
0.972355 0.885690 0.303759
0.218971 0.962766 0.254924
0.244461 0.955069 0.231231
0.422686 0.959821 0.149050
0.773447 0.969960 0.258839
0.884966 0.973620 0.305781
0.972711 0.973905 0.305890
0.058145 0.058076 0.380663
0.399119 0.000087 0.395872
0.653765 0.119924 0.343131
0.745062 0.154035 0.288992
0.826635 0.168934 0.271637
0.909316 0.184501 0.273551
0.062754 0.280282 0.243604
0.202552 0.213058 0.218497
0.603833 0.224194 0.227757
0.725498 0.216551 0.218658
0.813996 0.224103 0.226729
0.897154 0.232235 0.234875
0.104344 0.666902 0.183848
0.180712 0.629188 0.194547
0.595703 0.595360 0.180321
0.785125 0.571468 0.197721
0.871444 0.548727 0.228854
0.950406 0.540899 0.249645
0.160231 0.776537 0.232817
0.224509 0.776131 0.242076
0.527016 0.788293 0.213767
0.784672 0.783937 0.326491
0.881878 0.779245 0.335903
0.969472 0.778032 0.333072
0.205647 0.869227 0.230379
0.262138 0.868055 0.245123
0.502537 0.876631 0.220012
0.776426 0.883519 0.350988
0.884778 0.885930 0.390565
0.972483 0.886012 0.390407
0.222321 0.958489 0.240020
0.285110 0.958286 0.253773
0.483839 0.963656 0.224806
0.771646 0.971132 0.344924
0.884985 0.973937 0.392132
0.972925 0.974036 0.391767
0.091078 0.088874 0.581160
0.331925 0.087605 0.659426
0.709889 0.000072 0.705739
0.805052 0.000203 0.691318
0.892154 0.000060 0.672331
0.979529 0.000225 0.659775
0.129828 0.213669 0.610221
0.174300 0.169365 0.605991
0.634472 0.123345 0.659440
0.802686 0.125167 0.599909
0.876118 0.167994 0.549759
0.947073 0.203627 0.532896
0.161469 0.602117 0.601475
0.191708 0.562776 0.561720
0.554437 0.569837 0.558010
0.782494 0.543104 0.531183
0.869687 0.530755 0.506429
0.951507 0.527392 0.502789
0.223646 0.763501 0.646055
0.244319 0.774250 0.527031
0.433468 0.791072 0.452260
0.795991 0.791883 0.466403
0.895658 0.778967 0.467598
0.983594 0.771015 0.464447
0.219802 0.857144 0.614565
0.275887 0.866571 0.532260
0.392875 0.877235 0.415132
0.780690 0.892792 0.480042
0.893902 0.892991 0.517749
0.981806 0.891850 0.514171
0.209566 0.948758 0.565068
0.266608 0.954385 0.496345
0.383268 0.963330 0.412963
0.770076 0.979874 0.466819
0.893924 0.981621 0.521157
0.982011 0.982181 0.522332
0.115060 0.104560 0.684517
0.305354 0.106041 0.730369
0.706653 0.000033 0.796687
0.805814 0.000051 0.797572
0.894005 0.000274 0.797528
0.982125 0.000056 0.797382
0.132569 0.178881 0.702024
0.205865 0.167250 0.710311
0.581388 0.130174 0.789568
0.803874 0.101076 0.804899
0.903337 0.085505 0.804794
0.992615 0.072817 0.801845
0.280422 0.558688 0.734525
0.295555 0.514933 0.727532
0.521409 0.524899 0.758422
0.814919 0.485211 0.805335
0.910420 0.488114 0.799745
0.999286 0.483862 0.797237
0.204298 0.756323 0.698292
0.273827 0.745536 0.744678
0.452722 0.770788 0.775422
0.788648 0.780113 0.773531
0.897066 0.774628 0.771010
0.976741 0.768939 0.777102
0.256403 0.846568 0.766866
0.315543 0.847969 0.761386
0.449437 0.871481 0.755489
0.758223 0.906774 0.746361
0.909442 0.909034 0.736866
0.997254 0.909368 0.740871
0.258342 0.934598 0.771859
0.322111 0.935769 0.770880
0.428088 0.954831 0.748520
0.743145 0.993539 0.741667
0.909870 0.997371 0.736864
0.998050 0.998209 0.753068
0.126413 0.116943 0.765770
0.301071 0.120126 0.807245
0.702868 0.000155 0.884327
0.805743 0.000102 0.885772
0.893946 0.000201 0.885703
0.982076 0.000228 0.885563
0.146951 0.177394 0.783863
0.216575 0.177197 0.791601
0.574758 0.195974 0.872334
0.801537 0.127731 0.895258
0.902681 0.075622 0.895109
0.992528 0.057308 0.895110
0.289576 0.543984 0.799974
0.300960 0.498367 0.801839
0.532194 0.520190 0.849408
0.811339 0.476258 0.908215
0.909662 0.453987 0.909698
0.999358 0.443389 0.909371
0.171224 0.760241 0.646902
0.276934 0.746512 0.769852
0.507162 0.757330 0.864958
0.783113 0.771550 0.892204
0.913435 0.758602 0.913420
1.000000 0.756109 0.910934
0.265915 0.851382 0.828520
0.329873 0.849357 0.838692
0.482534 0.867121 0.871716
0.764775 0.907497 0.906740
0.911899 0.908650 0.908222
0.991847 0.909519 0.909627
0.269629 0.938662 0.841231
0.334190 0.936293 0.852563
0.461662 0.951873 0.868794
0.750095 0.995372 0.906431
0.913179 0.999308 0.908174
1.000000 0.999470 0.913641
0.137707 0.129241 0.846443
0.302381 0.133255 0.885655
0.700903 0.000200 0.972232
0.805676 0.000088 0.973819
0.893887 0.000116 0.973644
0.982024 0.000244 0.973586
0.156782 0.184953 0.864943
0.223913 0.185767 0.872185
0.574014 0.218409 0.950621
0.800630 0.144301 0.983060
0.900920 0.084419 0.982950
0.991351 0.048157 0.983578
0.294416 0.544512 0.874793
0.302732 0.500002 0.879755
0.531673 0.508473 0.928579
0.807026 0.465008 0.993984
0.907532 0.439666 0.997247
0.997935 0.423242 0.998017
0.195372 0.758998 0.735787
0.338476 0.742610 0.841947
0.521382 0.751813 0.929014
0.781753 0.767750 0.967541
0.911056 0.753351 1.000000
1.000000 0.747325 0.999979
0.312833 0.849378 0.901348
0.357206 0.850373 0.896066
0.518942 0.863140 0.944427
0.783729 0.902012 0.975427
0.912699 0.909234 0.987021
0.999724 0.907219 1.000000
0.286958 0.939031 0.919375
0.348945 0.938004 0.928339
0.480081 0.950762 0.955760
0.766030 0.995042 0.995170
0.916907 0.998472 0.999098
0.999999 0.999744 1.000000
