tools/decompiled/apktool/res/raw/bright.cube
LUT_3D_SIZE 16
0.000110 0.000112 0.000718
0.090502 0.017853 0.017889
0.266401 0.052634 0.053067
0.439172 0.087256 0.087723
0.536855 0.107032 0.107365
0.592283 0.118300 0.118452
0.625163 0.125235 0.124990
0.653395 0.130694 0.130474
0.681731 0.136007 0.135922
0.710004 0.141407 0.141401
0.738073 0.146820 0.146861
0.766252 0.152335 0.152363
0.794282 0.157816 0.157844
0.822459 0.163321 0.163344
0.850463 0.168804 0.168841
0.878418 0.174271 0.174298
0.011468 0.084095 0.011526
0.050720 0.065494 0.006872
0.169253 0.065897 0.035481
0.316135 0.080555 0.064373
0.464209 0.103200 0.093646
0.558734 0.120842 0.112331
0.616394 0.131315 0.123659
0.652830 0.139045 0.130960
0.681229 0.143972 0.136427
0.709664 0.148009 0.141788
0.738005 0.152747 0.147232
0.766211 0.157856 0.152696
0.794186 0.163061 0.158134
0.822241 0.168345 0.163610
0.850437 0.173658 0.169116
0.878322 0.178940 0.174575
0.025815 0.187861 0.026162
0.043221 0.162608 0.022052
0.143497 0.157201 0.016442
0.276707 0.150710 0.055407
0.414246 0.159280 0.088671
0.527947 0.165647 0.111141
0.603613 0.170522 0.124951
0.650179 0.171796 0.133506
0.686475 0.172185 0.140808
0.719309 0.172031 0.148261
0.748539 0.173179 0.154464
0.776141 0.175575 0.159255
0.803402 0.179114 0.163864
0.831017 0.183354 0.168699
0.858175 0.187700 0.173551
0.885393 0.192057 0.178420
0.044358 0.317812 0.045161
0.054142 0.286583 0.040149
0.113251 0.280014 0.037490
0.245626 0.273685 0.030256
0.404256 0.261014 0.068060
0.516584 0.262435 0.109790
0.591496 0.258176 0.129237
0.646028 0.253314 0.140383
0.686265 0.245547 0.147905
0.718464 0.239170 0.153511
0.748600 0.238153 0.159256
0.777556 0.238766 0.164779
0.806030 0.239087 0.170051
0.834167 0.240199 0.175169
0.862403 0.241836 0.180328
0.890553 0.243315 0.185508
0.065737 0.457677 0.067648
0.074316 0.427250 0.062174
0.106269 0.420636 0.060214
0.202821 0.417978 0.055604
0.372884 0.407573 0.046616
0.532086 0.392389 0.064627
0.619414 0.384057 0.115154
0.666626 0.372914 0.137670
0.703465 0.362213 0.152359
0.733730 0.352158 0.161775
0.761651 0.344553 0.168491
0.788931 0.340147 0.174225
0.816067 0.338128 0.179518
0.843224 0.337196 0.184670
0.870354 0.336716 0.189577
0.897565 0.336122 0.194424
0.088023 0.594274 0.091639
0.098971 0.573364 0.088191
0.117611 0.567779 0.086730
0.175757 0.562794 0.080607
0.320336 0.550656 0.071237
0.507127 0.538420 0.063218
0.637652 0.518268 0.069635
0.699533 0.501991 0.096143
0.736794 0.489195 0.123998
0.767470 0.475989 0.143730
0.794638 0.463772 0.157765
0.820227 0.454163 0.168460
0.845823 0.449062 0.176927
0.871715 0.445935 0.184483
0.897604 0.444050 0.191296
0.923746 0.442235 0.197777
0.101150 0.672089 0.106633
0.111355 0.664908 0.101982
0.129275 0.664218 0.103819
0.164012 0.663323 0.100261
0.280217 0.656405 0.091403
0.458558 0.650354 0.081258
0.622996 0.639177 0.077182
0.708343 0.621994 0.085760
0.753223 0.606668 0.097870
0.790322 0.592689 0.114660
0.820950 0.581237 0.130849
0.849669 0.572870 0.145725
0.876611 0.566695 0.157955
0.902936 0.562191 0.168901
0.929181 0.559372 0.179188
0.955569 0.557123 0.188818
0.130262 0.713823 0.139531
0.143481 0.712491 0.132555
0.156445 0.710449 0.123588
0.190538 0.712156 0.122613
0.260704 0.714351 0.110390
0.428619 0.717177 0.098617
0.594248 0.713520 0.099014
0.698253 0.701946 0.128485
0.750723 0.691638 0.150405
0.790782 0.683164 0.166323
0.823353 0.675872 0.166053
0.853317 0.670834 0.161088
0.882299 0.667050 0.161306
0.910626 0.663223 0.165433
0.938879 0.660261 0.173102
0.966739 0.658117 0.182256
0.150106 0.746893 0.163055
0.167724 0.745903 0.157492
0.183516 0.744616 0.149158
0.206120 0.743692 0.136014
0.257052 0.746086 0.129301
0.407878 0.755256 0.123117
0.579430 0.758429 0.142250
0.687652 0.753715 0.178447
0.745961 0.746974 0.201567
0.789055 0.742635 0.220716
0.822162 0.739557 0.224654
0.851581 0.736586 0.218961
0.880590 0.734791 0.215321
0.909817 0.733313 0.212146
0.938964 0.731994 0.210719
0.967730 0.730988 0.213254
0.171443 0.779954 0.191522
0.188719 0.778990 0.184680
0.201704 0.777142 0.174106
0.207966 0.773655 0.151747
0.252434 0.775265 0.138044
0.372488 0.782903 0.129438
0.564040 0.789493 0.148237
0.676222 0.790994 0.199319
0.742908 0.790867 0.241084
0.787056 0.787876 0.256173
0.822899 0.785164 0.262557
0.852349 0.783156 0.258357
0.881300 0.781257 0.253884
0.910456 0.780108 0.250876
0.939642 0.779300 0.248729
0.968790 0.778538 0.247227
0.191755 0.812930 0.219334
0.210596 0.812103 0.214200
0.221280 0.809643 0.203110
0.209838 0.803489 0.169291
0.248756 0.804273 0.146433
0.348725 0.810647 0.133935
0.536493 0.818187 0.145436
0.667045 0.820352 0.192660
0.736885 0.822622 0.242155
0.785722 0.824279 0.276141
0.823596 0.823298 0.287812
0.853735 0.822048 0.284977
0.882858 0.821142 0.282243
0.912112 0.820394 0.280465
0.941139 0.820115 0.279138
0.970385 0.819779 0.278112
0.203398 0.844003 0.235484
0.224392 0.843555 0.233030
0.237686 0.841717 0.225957
0.215360 0.834070 0.190498
0.244833 0.833393 0.155554
0.332457 0.838816 0.139221
0.502177 0.846368 0.142778
0.658376 0.849573 0.186761
0.729872 0.851519 0.232638
0.782599 0.853729 0.272168
0.823357 0.855524 0.296396
0.854967 0.855839 0.300879
0.884128 0.855885 0.300851
0.913386 0.855826 0.300691
0.942751 0.855442 0.300173
0.971984 0.855541 0.299769
0.208347 0.873940 0.242229
0.230249 0.873689 0.240901
0.246230 0.872180 0.237254
0.223060 0.864404 0.206940
0.241834 0.862248 0.164531
0.321193 0.867187 0.145074
0.467229 0.874321 0.141641
0.647371 0.878448 0.180730
0.723481 0.880508 0.225084
0.779339 0.882641 0.266839
0.822431 0.884579 0.295063
0.855032 0.885286 0.302507
0.884398 0.885674 0.303137
0.913669 0.885671 0.303479
0.943014 0.885844 0.303627
0.972355 0.885690 0.303759
0.213615 0.903758 0.249584
0.235405 0.903562 0.247958
0.251176 0.902233 0.243383
0.230268 0.894621 0.216553
0.240907 0.891324 0.171217
0.314059 0.895710 0.150169
0.446828 0.902685 0.143203
0.637088 0.907498 0.176699
0.718395 0.909388 0.219733
0.776726 0.911612 0.262929
0.821551 0.913827 0.293255
0.855062 0.914607 0.303180
0.884558 0.914810 0.303846
0.913868 0.915076 0.304189
0.943174 0.914905 0.304308
0.972510 0.915036 0.304389
0.216827 0.933401 0.253121
0.239008 0.933213 0.252180
0.255379 0.931723 0.248574
0.236904 0.924838 0.224816
0.241171 0.920523 0.177970
0.308633 0.924407 0.155361
0.433455 0.931236 0.145945
0.627188 0.936834 0.173889
0.713818 0.938340 0.216152
0.774843 0.940721 0.260293
0.820622 0.943021 0.291956
0.855257 0.943907 0.304078
0.884753 0.944178 0.304822
0.914092 0.944236 0.305110
0.943447 0.944416 0.305108
0.972737 0.944406 0.305135
0.218971 0.962766 0.254924
0.241210 0.962532 0.254067
0.257933 0.961339 0.250903
0.244461 0.955069 0.231231
0.242050 0.949911 0.183236
0.304255 0.953242 0.159968
0.422686 0.959821 0.149050
0.618796 0.965976 0.172836
0.710824 0.967682 0.214368
0.773447 0.969960 0.258839
0.819985 0.972060 0.291324
0.855372 0.973378 0.305053
0.884966 0.973620 0.305781
0.914256 0.973686 0.306048
0.943471 0.973919 0.305958
0.972711 0.973905 0.305890
0.007678 0.007678 0.050317
0.072655 0.000016 0.085136
0.246574 0.050677 0.102812
0.429434 0.086676 0.118367
0.541648 0.109031 0.133155
0.599355 0.120702 0.149051
0.635244 0.127394 0.149294
0.665877 0.133303 0.151601
0.691989 0.138282 0.152170
0.716919 0.143009 0.152966
0.743105 0.148050 0.156232
0.770426 0.153351 0.160649
0.798137 0.158758 0.165610
0.826053 0.164212 0.170663
0.853907 0.169653 0.175733
0.881809 0.175103 0.180855
0.017243 0.081329 0.067524
0.041977 0.052508 0.054980
0.153553 0.051443 0.058096
0.296314 0.071092 0.074654
0.453501 0.099260 0.101957
0.556807 0.118892 0.120196
0.613971 0.129916 0.130519
0.654298 0.137880 0.138006
0.682570 0.143581 0.143045
0.710488 0.148102 0.147856
0.738341 0.152859 0.152821
0.766527 0.157969 0.158011
0.794612 0.163201 0.163269
0.822497 0.168453 0.168513
0.850473 0.173737 0.173781
0.878521 0.179030 0.179077
0.026000 0.180020 0.058246
0.040252 0.150693 0.047641
0.130924 0.138782 0.046197
0.256852 0.136835 0.070701
0.397182 0.146930 0.098295
0.519994 0.156623 0.121909
0.597601 0.163281 0.131332
0.647311 0.165791 0.139842
0.684033 0.168768 0.146888
0.716302 0.169811 0.153934
0.745792 0.171036 0.159770
0.773038 0.173688 0.163848
0.800442 0.177414 0.168264
0.828009 0.181780 0.172957
0.855563 0.186306 0.177748
0.882928 0.190790 0.182519
0.041618 0.295187 0.060759
0.051909 0.265925 0.055187
0.106641 0.258288 0.055034
0.232864 0.254190 0.054767
0.385768 0.245990 0.085902
0.500345 0.247835 0.122696
0.583124 0.244562 0.139574
0.641811 0.242396 0.148772
0.683815 0.238364 0.156269
0.717671 0.232641 0.162283
0.748255 0.230628 0.168142
0.777592 0.231609 0.173859
0.806372 0.232420 0.179151
0.834922 0.233994 0.184216
0.863007 0.235976 0.189059
0.891332 0.237766 0.194013
0.062782 0.436246 0.080591
0.072016 0.409760 0.076047
0.103267 0.400751 0.073752
0.196080 0.397559 0.071827
0.358965 0.389677 0.068313
0.515534 0.375312 0.088164
0.607626 0.368888 0.132127
0.657888 0.360041 0.151625
0.698317 0.351381 0.165815
0.731092 0.343436 0.176001
0.760335 0.335270 0.182656
0.788538 0.331156 0.188139
0.816020 0.329430 0.192680
0.843500 0.328884 0.197095
0.870695 0.328705 0.201342
0.897604 0.328208 0.205428
0.087208 0.581071 0.106122
0.097812 0.558462 0.102364
0.117012 0.548712 0.100658
0.172004 0.545417 0.094690
0.307929 0.533168 0.086627
0.492521 0.521472 0.083086
0.627817 0.503093 0.092183
0.693115 0.488557 0.119547
0.731803 0.476793 0.143548
0.762914 0.464586 0.160568
0.790284 0.452585 0.172829
0.816457 0.444152 0.182482
0.842272 0.439690 0.190226
0.868496 0.437139 0.197201
0.894638 0.435616 0.203482
0.920971 0.434109 0.209441
0.099905 0.668036 0.121449
0.111136 0.660173 0.117354
0.128715 0.657329 0.120203
0.160834 0.656487 0.117092
0.267707 0.647303 0.106197
0.443431 0.639612 0.098244
0.612301 0.628374 0.096543
0.703900 0.610892 0.104522
0.750675 0.596270 0.116299
0.788384 0.582480 0.139057
0.819320 0.571063 0.154911
0.847775 0.562608 0.167258
0.874580 0.556707 0.177248
0.900632 0.552062 0.186147
0.927151 0.550031 0.194793
0.953391 0.548078 0.202983
0.127314 0.713198 0.158470
0.139185 0.711366 0.150076
0.152264 0.709375 0.141065
0.184869 0.711309 0.143248
0.248827 0.712056 0.127253
0.409885 0.712804 0.114278
0.581993 0.709366 0.112567
0.694198 0.697559 0.139153
0.749374 0.686507 0.164089
0.790468 0.677027 0.182781
0.824473 0.669231 0.187395
0.854547 0.663665 0.183981
0.883218 0.659631 0.184989
0.911467 0.655650 0.188730
0.939478 0.652662 0.195074
0.967024 0.650413 0.202925
0.148457 0.746381 0.183481
0.166247 0.745533 0.178616
0.182532 0.744354 0.170533
0.205490 0.743497 0.158350
0.251306 0.745563 0.150911
0.394104 0.754362 0.143202
0.566708 0.757350 0.157409
0.681852 0.751892 0.192434
0.743994 0.744573 0.218920
0.787968 0.739864 0.239587
0.822336 0.736606 0.247509
0.851973 0.733665 0.242540
0.881037 0.732169 0.239105
0.910213 0.730622 0.235848
0.939156 0.729224 0.234858
0.967925 0.728136 0.237234
0.170034 0.779545 0.211306
0.187741 0.778507 0.205730
0.201635 0.776805 0.195959
0.208808 0.773783 0.175079
0.249326 0.774869 0.160639
0.362542 0.782327 0.151605
0.551032 0.789239 0.169145
0.671268 0.790593 0.220798
0.740726 0.789752 0.262283
0.785944 0.786578 0.278663
0.822669 0.784027 0.288128
0.852439 0.782080 0.284412
0.881438 0.780092 0.279482
0.910557 0.778794 0.276429
0.939621 0.777955 0.274257
0.968960 0.777346 0.272877
0.191979 0.812603 0.240569
0.210716 0.811778 0.236161
0.222135 0.809547 0.225478
0.212087 0.803902 0.194817
0.246900 0.804017 0.169427
0.341279 0.810062 0.155560
0.524414 0.818075 0.167134
0.662535 0.820354 0.215689
0.734589 0.822471 0.266665
0.784518 0.823957 0.301292
0.823171 0.822797 0.313929
0.853798 0.821353 0.311557
0.882716 0.820263 0.307837
0.911890 0.819498 0.305883
0.941078 0.819020 0.304607
0.970474 0.818602 0.303584
0.204852 0.843951 0.258530
0.225829 0.843552 0.256630
0.240178 0.841955 0.250358
0.220201 0.834640 0.218365
0.243752 0.833303 0.179256
0.328618 0.838405 0.160749
0.491985 0.846216 0.164378
0.654459 0.849424 0.210287
0.727858 0.851315 0.257408
0.781152 0.853587 0.297616
0.822686 0.855260 0.323280
0.854767 0.855621 0.328751
0.884060 0.855438 0.328507
0.913334 0.855348 0.327728
0.942560 0.855079 0.327227
0.971765 0.855003 0.326692
0.210245 0.874055 0.266016
0.232421 0.873769 0.265603
0.249425 0.872706 0.262911
0.229793 0.865394 0.236599
0.241116 0.862186 0.189036
0.318150 0.866848 0.166686
0.460130 0.874076 0.162839
0.643410 0.878415 0.204129
0.721555 0.880309 0.249893
0.777761 0.882364 0.292081
0.821548 0.884409 0.321111
0.854945 0.885323 0.330586
0.884430 0.885600 0.331469
0.913834 0.885680 0.331860
0.943036 0.885767 0.332015
0.972314 0.885860 0.332139
0.215211 0.903901 0.273024
0.237260 0.903724 0.272151
0.254144 0.902419 0.268838
0.237236 0.895743 0.245923
0.240723 0.891373 0.195918
0.310895 0.895329 0.171697
0.439951 0.902600 0.163685
0.632307 0.907425 0.199470
0.716110 0.909175 0.244358
0.775241 0.911453 0.288001
0.820420 0.913467 0.319048
0.855009 0.914631 0.331111
0.884623 0.914866 0.332148
0.913845 0.915017 0.332480
0.943181 0.914973 0.332654
0.972434 0.914964 0.332690
0.218564 0.933493 0.276989
0.240982 0.933426 0.276741
0.258399 0.932024 0.274182
0.243615 0.925717 0.254102
0.241164 0.920617 0.202993
0.305446 0.923997 0.176902
0.427602 0.931027 0.165969
0.621841 0.936708 0.196085
0.711524 0.938412 0.240286
0.773268 0.940540 0.285360
0.819347 0.942596 0.317493
0.855203 0.943892 0.331931
0.884676 0.944041 0.332984
0.913992 0.944247 0.333352
0.943330 0.944303 0.333363
0.972632 0.944423 0.333375
0.220601 0.962483 0.278830
0.243061 0.962599 0.278673
0.260696 0.961568 0.276263
0.250876 0.956002 0.259855
0.242163 0.950009 0.208102
0.301745 0.953010 0.181226
0.417649 0.959764 0.168592
0.612408 0.965775 0.194441
0.708322 0.967663 0.238203
0.772053 0.969744 0.283954
0.818763 0.971963 0.316883
0.855277 0.973202 0.332782
0.884910 0.973474 0.333891
0.914207 0.973642 0.334154
0.943535 0.973796 0.334124
0.972886 0.973904 0.334047
0.027150 0.027150 0.177926
0.067904 0.030759 0.204216
0.227875 0.000028 0.225083
0.426261 0.081532 0.214338
0.554199 0.114570 0.208572
0.606439 0.125074 0.217026
0.641910 0.131890 0.221211
0.675192 0.137968 0.216331
0.707018 0.143730 0.211427
0.732502 0.147892 0.199268
0.758609 0.152636 0.196280
0.785821 0.157802 0.198079
0.813600 0.163148 0.201544
0.841556 0.168539 0.205274
0.869213 0.173887 0.209052
0.897117 0.179303 0.212910
0.038008 0.067627 0.158401
0.039354 0.043326 0.138832
0.140350 0.031218 0.151676
0.290104 0.065761 0.144397
0.457527 0.100711 0.150637
0.566483 0.121420 0.158558
0.624293 0.132541 0.172943
0.663335 0.139392 0.177095
0.694418 0.144989 0.175627
0.723523 0.150454 0.177876
0.748503 0.154948 0.176110
0.774877 0.159818 0.177722
0.802193 0.164920 0.181419
0.829970 0.170117 0.185580
0.857705 0.175346 0.189904
0.885380 0.180573 0.194101
0.040477 0.191105 0.157371
0.047821 0.160368 0.138332
0.116884 0.122825 0.129873
0.243021 0.124249 0.129523
0.392879 0.134776 0.140022
0.525956 0.148721 0.155162
0.605577 0.154384 0.157113
0.649689 0.157448 0.161830
0.687177 0.160423 0.166525
0.718472 0.164259 0.169725
0.747251 0.168438 0.173812
0.775094 0.172515 0.177442
0.802907 0.176772 0.181431
0.830774 0.181336 0.185733
0.858488 0.186010 0.190130
0.886465 0.190704 0.194530
0.043733 0.283575 0.123707
0.053384 0.255958 0.114523
0.100578 0.229334 0.117720
0.218693 0.227104 0.120006
0.369075 0.228274 0.143858
0.491624 0.233705 0.168230
0.591039 0.233934 0.175624
0.645408 0.230129 0.172707
0.683623 0.227104 0.174926
0.716918 0.224409 0.177753
0.747611 0.223662 0.182149
0.776529 0.225069 0.186322
0.804563 0.226503 0.190080
0.832610 0.228556 0.194086
0.860530 0.231080 0.198378
0.888510 0.233312 0.202724
0.062588 0.424280 0.116206
0.071649 0.395193 0.108940
0.108848 0.380240 0.120944
0.194484 0.372581 0.133268
0.345901 0.366966 0.129525
0.497593 0.360022 0.153111
0.590687 0.356044 0.179910
0.651150 0.347550 0.186904
0.694673 0.340411 0.189888
0.728335 0.336079 0.193322
0.758365 0.330379 0.197655
0.786371 0.323383 0.201870
0.814163 0.320885 0.205854
0.841773 0.319979 0.209832
0.869217 0.320313 0.213839
0.896789 0.320221 0.217792
0.087811 0.575718 0.129540
0.099930 0.552076 0.125778
0.120416 0.532431 0.128840
0.181248 0.523684 0.137588
0.302627 0.511588 0.135136
0.480702 0.500330 0.132233
0.613686 0.487720 0.144716
0.685605 0.477600 0.162301
0.727603 0.464680 0.175311
0.759387 0.454444 0.185094
0.788616 0.447981 0.194082
0.815409 0.440916 0.203100
0.840976 0.435709 0.210126
0.866948 0.432839 0.216094
0.893476 0.431875 0.221593
0.919848 0.430499 0.226905
0.106144 0.671522 0.148055
0.120786 0.664001 0.141839
0.138822 0.651343 0.141932
0.174927 0.642888 0.148832
0.269157 0.632273 0.140208
0.437030 0.621255 0.131720
0.601833 0.609303 0.133117
0.696794 0.597172 0.140992
0.748256 0.587064 0.144715
0.785895 0.575773 0.161948
0.817526 0.563190 0.181613
0.845731 0.554276 0.193345
0.872064 0.548510 0.200759
0.898211 0.544572 0.207793
0.924422 0.542344 0.214785
0.950647 0.540599 0.221654
0.128430 0.713354 0.190583
0.143094 0.712258 0.181310
0.161069 0.710828 0.170073
0.185692 0.709894 0.176352
0.247760 0.708218 0.157820
0.395648 0.703947 0.140133
0.571936 0.697963 0.134367
0.689732 0.688137 0.150228
0.748963 0.679058 0.177611
0.789278 0.670942 0.196440
0.824924 0.662999 0.208532
0.856499 0.655444 0.212442
0.885508 0.649780 0.215482
0.913548 0.645602 0.218845
0.941136 0.642354 0.224061
0.968583 0.640272 0.230722
0.147197 0.745781 0.206391
0.165518 0.745356 0.203757
0.183828 0.744548 0.198927
0.207352 0.744451 0.198633
0.249486 0.745835 0.185227
0.377789 0.752789 0.166887
0.549660 0.752900 0.162196
0.675039 0.747048 0.194188
0.742343 0.740626 0.233592
0.786750 0.736320 0.257044
0.822436 0.733332 0.269834
0.852753 0.731059 0.268693
0.882453 0.730197 0.269033
0.911701 0.728649 0.266471
0.940528 0.727469 0.266475
0.969186 0.726311 0.268769
0.167382 0.778377 0.220143
0.186160 0.777726 0.219431
0.201920 0.776692 0.216592
0.213023 0.774414 0.205814
0.248610 0.775222 0.192991
0.354652 0.782192 0.181759
0.538926 0.788972 0.191939
0.663839 0.789217 0.235415
0.737949 0.788213 0.280757
0.784734 0.785511 0.302152
0.822684 0.783727 0.316099
0.852920 0.782422 0.314970
0.882310 0.780926 0.311899
0.911466 0.779936 0.309511
0.940634 0.779303 0.307805
0.969672 0.778664 0.306683
0.190342 0.811081 0.238038
0.210377 0.810817 0.241247
0.224252 0.809444 0.240562
0.218860 0.804805 0.221854
0.247880 0.804470 0.199489
0.336879 0.810055 0.184501
0.514789 0.818046 0.191965
0.656692 0.820327 0.238927
0.732425 0.822470 0.292132
0.783367 0.824049 0.328227
0.823313 0.823747 0.345681
0.854360 0.823175 0.346641
0.883348 0.821209 0.341157
0.912637 0.820123 0.337317
0.941763 0.819323 0.335586
0.971036 0.818992 0.334522
0.206005 0.842884 0.253750
0.228163 0.842880 0.260148
0.245643 0.842095 0.264463
0.231464 0.836121 0.244799
0.246563 0.833771 0.209022
0.330824 0.838791 0.188706
0.495637 0.846937 0.191692
0.650558 0.849651 0.235358
0.726165 0.851487 0.283895
0.779934 0.853575 0.324178
0.822240 0.855275 0.350503
0.854954 0.855741 0.358266
0.884403 0.855958 0.358490
0.913622 0.855541 0.357737
0.943023 0.855465 0.356932
0.972005 0.855183 0.356410
0.212902 0.873112 0.263051
0.236375 0.873469 0.270006
0.256201 0.873046 0.277613
0.243235 0.867239 0.262792
0.245171 0.863007 0.219503
0.325839 0.867756 0.194456
0.482181 0.875661 0.192388
0.643273 0.878659 0.231628
0.720914 0.880259 0.277846
0.776795 0.882612 0.319361
0.818985 0.883967 0.344364
0.854274 0.885047 0.357610
0.884396 0.885617 0.360017
0.913867 0.885656 0.360886
0.943189 0.885856 0.361099
0.972526 0.885923 0.361242
0.218180 0.903241 0.270018
0.241166 0.903266 0.275264
0.260775 0.902725 0.283644
0.251439 0.897696 0.271440
0.245182 0.892049 0.226431
0.318429 0.896348 0.199366
0.466429 0.904304 0.192931
0.634429 0.907825 0.227870
0.716143 0.909508 0.272834
0.774756 0.911675 0.316126
0.817583 0.913321 0.341783
0.853680 0.914156 0.356372
0.884397 0.914833 0.360272
0.913837 0.915004 0.361056
0.943209 0.914920 0.361203
0.972506 0.915033 0.361410
0.221989 0.932811 0.275602
0.245249 0.932922 0.280094
0.265177 0.932513 0.289712
0.259001 0.927917 0.278946
0.246128 0.921413 0.233828
0.313197 0.925136 0.204855
0.455174 0.933008 0.194471
0.625775 0.937039 0.224888
0.711992 0.938469 0.268820
0.772899 0.940847 0.313844
0.816459 0.942475 0.340346
0.853407 0.943521 0.356210
0.884536 0.944094 0.360922
0.913912 0.944325 0.361629
0.943283 0.944269 0.361834
0.972683 0.944380 0.361825
0.224012 0.962126 0.278873
0.247122 0.962153 0.282699
0.267129 0.962094 0.292534
0.265305 0.957924 0.283854
0.247116 0.950611 0.238543
0.308571 0.954060 0.209065
0.443953 0.961835 0.196275
0.617704 0.966221 0.223428
0.709152 0.967568 0.266680
0.771851 0.970096 0.312489
0.816206 0.971740 0.340077
0.853244 0.972794 0.356604
0.884702 0.973268 0.361722
0.914069 0.973748 0.362345
0.943505 0.973689 0.362465
0.972759 0.973777 0.362407
0.058145 0.058076 0.380663
0.079408 0.060297 0.394910
0.197055 0.054557 0.403723
0.399119 0.000087 0.395872
0.555324 0.008224 0.370916
0.621773 0.097384 0.355770
0.653765 0.119924 0.343131
0.683007 0.136662 0.322951
0.715796 0.147541 0.306706
0.745062 0.154035 0.288992
0.772128 0.158856 0.276482
0.799086 0.163775 0.271838
0.826635 0.168934 0.271637
0.854244 0.174126 0.272046
0.881890 0.179339 0.272938
0.909316 0.184501 0.273551
0.051244 0.063335 0.316401
0.055215 0.054397 0.288275
0.124145 0.050439 0.283881
0.281015 0.016508 0.281430
0.461143 0.086402 0.255097
0.579127 0.125554 0.244485
0.632732 0.136648 0.246656
0.670088 0.143580 0.254658
0.701448 0.149051 0.245308
0.734750 0.155169 0.244227
0.761639 0.159463 0.230033
0.788191 0.164041 0.225236
0.815470 0.169015 0.225922
0.843182 0.174149 0.228612
0.870902 0.179311 0.231580
0.898742 0.184518 0.234399
0.092703 0.172658 0.269299
0.082876 0.145364 0.238545
0.096278 0.103921 0.222026
0.229043 0.095677 0.240424
0.397006 0.114357 0.225845
0.539568 0.141809 0.224763
0.616503 0.151076 0.221092
0.660885 0.156652 0.224589
0.695645 0.161008 0.224429
0.726986 0.165178 0.221494
0.756892 0.170375 0.220967
0.784986 0.175137 0.220064
0.812307 0.179569 0.220456
0.840155 0.184110 0.223052
0.867850 0.188730 0.226140
0.895936 0.193251 0.229032
0.062754 0.280282 0.243604
0.067182 0.253560 0.223428
0.097063 0.211857 0.213574
0.202552 0.213058 0.218497
0.358038 0.215795 0.219257
0.502834 0.220275 0.225147
0.603833 0.224194 0.227757
0.656364 0.221821 0.223994
0.693148 0.219122 0.221759
0.725498 0.216551 0.218658
0.756060 0.217396 0.219628
0.785734 0.221079 0.223961
0.813996 0.224103 0.226729
0.841850 0.226923 0.229439
0.869581 0.229803 0.232300
0.897154 0.232235 0.234875
0.065127 0.401284 0.200940
0.073177 0.375625 0.188198
0.104448 0.357762 0.191311
0.182205 0.351936 0.199319
0.330171 0.351199 0.196182
0.491168 0.347994 0.217001
0.588721 0.346717 0.236211
0.654154 0.339118 0.237252
0.699334 0.329873 0.234968
0.733337 0.325402 0.233883
0.764214 0.321466 0.234793
0.793565 0.314481 0.238478
0.821590 0.311208 0.241663
0.849529 0.309849 0.244758
0.876738 0.310543 0.247403
0.903916 0.310814 0.249673
0.085310 0.553622 0.192450
0.095685 0.533153 0.183794
0.118595 0.514099 0.183459
0.183157 0.506456 0.196585
0.292045 0.494737 0.191996
0.471662 0.485080 0.186230
0.608900 0.475261 0.202311
0.680139 0.467964 0.218059
0.725337 0.456250 0.226175
0.758164 0.447102 0.231384
0.788404 0.443533 0.236676
0.815906 0.437252 0.244351
0.842015 0.431587 0.250789
0.868094 0.427580 0.255914
0.894470 0.425865 0.259857
0.921145 0.424559 0.263051
0.104344 0.666902 0.183848
0.118499 0.657840 0.178463
0.139686 0.643372 0.180418
0.180712 0.629188 0.194547
0.266974 0.618050 0.191488
0.429920 0.605660 0.178670
0.595703 0.595360 0.180321
0.693408 0.588287 0.188887
0.748156 0.580950 0.190261
0.785125 0.571468 0.197721
0.816575 0.562570 0.208356
0.845013 0.554788 0.219264
0.871444 0.548727 0.228854
0.897763 0.545151 0.236876
0.924194 0.542686 0.243889
0.950406 0.540899 0.249645
0.129190 0.713235 0.212320
0.145380 0.712419 0.206614
0.167535 0.711006 0.196634
0.191810 0.705914 0.203836
0.251215 0.701976 0.199415
0.390589 0.693899 0.182001
0.564989 0.685798 0.173959
0.685452 0.679259 0.181722
