tools/decompiled/apktool/res/raw/burke.cube
LUT_3D_SIZE 6
0.000000 0.000000 0.000000
0.112025 0.013925 0.018421
0.274701 0.027807 0.033488
0.456632 0.042119 0.047636
0.645207 0.056842 0.061262
0.832328 0.071928 0.074544
0.014943 0.150516 0.125285
0.155670 0.168305 0.142074
0.327118 0.185830 0.157827
0.509476 0.203185 0.172828
0.692764 0.220479 0.187291
0.869925 0.237648 0.201264
0.041890 0.315249 0.254713
0.202632 0.333202 0.270183
0.380192 0.350792 0.284883
0.561208 0.368127 0.298994
0.737803 0.385156 0.312542
0.900684 0.398576 0.325278
0.076701 0.479766 0.381472
0.252219 0.496430 0.395093
0.433455 0.512709 0.408088
0.601951 0.526018 0.420604
0.760746 0.537058 0.433337
0.922996 0.548221 0.446304
0.117461 0.638259 0.502139
0.294211 0.651282 0.514302
0.455761 0.663023 0.527553
0.616069 0.674884 0.541038
0.778905 0.687080 0.554894
0.946966 0.699579 0.569085
0.142470 0.787450 0.620616
0.307226 0.800499 0.634985
0.468426 0.813647 0.649551
0.631170 0.827248 0.664569
0.798613 0.840944 0.679742
0.972890 0.855122 0.695353
0.001413 0.040216 0.089281
0.120216 0.050630 0.097895
0.284836 0.062458 0.107350
0.466963 0.075256 0.117349
0.654646 0.088817 0.127769
0.840006 0.102989 0.138518
0.019434 0.186653 0.200385
0.164552 0.202623 0.212769
0.337389 0.218758 0.225121
0.519612 0.235073 0.237494
0.701725 0.251459 0.249808
0.876971 0.267957 0.262127
0.048107 0.348482 0.322313
0.212097 0.365233 0.335016
0.390513 0.381875 0.347529
0.571120 0.398468 0.359918
0.746197 0.414918 0.372144
0.904986 0.426318 0.385378
0.084198 0.510664 0.444025
0.262086 0.526516 0.455864
0.443784 0.542150 0.467480
0.604629 0.553881 0.480773
0.764086 0.565272 0.494353
0.927463 0.576849 0.508108
0.125970 0.667137 0.561135
0.296791 0.679384 0.574624
0.458232 0.691443 0.588705
0.618953 0.703771 0.603021
0.782596 0.716242 0.617464
0.951844 0.728958 0.632106
0.145801 0.816422 0.682163
0.309684 0.829734 0.697212
0.470884 0.843346 0.712515
0.634230 0.857000 0.727862
0.802707 0.871182 0.743620
0.978054 0.885292 0.759321
0.003770 0.069934 0.153155
0.128543 0.080446 0.160913
0.294972 0.092258 0.169621
0.477275 0.105042 0.179039
0.663995 0.118627 0.189071
0.847307 0.132868 0.199600
0.024310 0.217753 0.263652
0.173549 0.233477 0.275277
0.347696 0.249434 0.287082
0.529715 0.265655 0.299101
0.710565 0.282016 0.311261
0.883673 0.298526 0.323557
0.054603 0.379366 0.384446
0.221650 0.395933 0.396722
0.400858 0.412473 0.409001
0.580941 0.429038 0.421354
0.750325 0.443804 0.434040
0.909243 0.454950 0.447516
0.091910 0.541012 0.505320
0.272019 0.556766 0.517060
0.448221 0.571197 0.529306
0.607303 0.582584 0.542960
0.767622 0.594102 0.556708
0.932115 0.605654 0.570443
0.131401 0.696313 0.622862
0.299340 0.708321 0.636978
0.460643 0.720594 0.651294
0.621790 0.732888 0.665589
0.786366 0.745460 0.680059
0.956884 0.758198 0.694607
0.149047 0.845845 0.744972
0.312123 0.859340 0.760150
0.473434 0.872889 0.775360
0.637300 0.886817 0.790800
0.806678 0.900638 0.806125
0.983539 0.914986 0.821802
0.006769 0.097273 0.210975
0.137008 0.108360 0.219187
0.305155 0.120664 0.228403
0.487525 0.133918 0.238409
0.673193 0.147965 0.249105
0.854780 0.162689 0.260403
0.029543 0.247351 0.323327
0.182677 0.263313 0.335359
0.357973 0.279583 0.347717
0.539773 0.296066 0.360330
0.719283 0.312791 0.373237
0.890357 0.329724 0.386423
0.061355 0.409637 0.445152
0.231253 0.426446 0.458007
0.411210 0.443300 0.471008
0.590739 0.460137 0.484116
0.753558 0.472918 0.497326
0.913444 0.483918 0.510486
0.099817 0.571523 0.567067
0.282032 0.587581 0.579587
0.450582 0.600401 0.592665
0.610060 0.611713 0.606060
0.771120 0.623071 0.619413
0.936698 0.634546 0.632804
0.135007 0.725743 0.686398
0.301864 0.737717 0.700293
0.463101 0.749797 0.714189
0.624740 0.762164 0.728251
0.790263 0.774549 0.742243
0.961742 0.786962 0.756184
0.152216 0.875583 0.808254
0.314565 0.888890 0.823030
0.475918 0.902451 0.837903
0.640474 0.915994 0.852701
0.810909 0.929922 0.867705
0.988812 0.943837 0.882627
0.010303 0.123625 0.266102
0.145618 0.135567 0.275545
0.315367 0.148658 0.286012
0.497772 0.162635 0.297252
0.682373 0.177428 0.309286
0.861880 0.192876 0.321946
0.035112 0.276423 0.381709
0.191940 0.292945 0.394864
0.368308 0.309741 0.408390
0.549781 0.326805 0.422263
0.727992 0.344145 0.436507
0.895998 0.360914 0.450843
0.068364 0.439917 0.505884
0.240961 0.457221 0.519926
0.421535 0.474606 0.534209
0.598899 0.491479 0.548504
0.756886 0.502250 0.561157
0.917912 0.513058 0.573695
0.107919 0.602553 0.630038
0.291206 0.618834 0.643758
0.452971 0.629885 0.656614
0.612829 0.640894 0.669311
0.774748 0.652058 0.682074
0.941444 0.663202 0.694717
0.138541 0.755478 0.750538
0.304368 0.767243 0.763830
0.465577 0.779132 0.777123
0.627673 0.791194 0.790458
0.794097 0.803218 0.803637
0.966898 0.815508 0.816945
0.155310 0.905222 0.871429
0.316979 0.918368 0.885596
0.478504 0.931537 0.899636
0.643642 0.944980 0.913801
0.815033 0.958493 0.927908
0.994422 0.972282 0.942123
0.014308 0.149667 0.320181
0.154355 0.162656 0.331386
0.325592 0.176683 0.343516
0.507947 0.191623 0.356552
0.691415 0.207309 0.370312
0.869031 0.223687 0.384844
0.040986 0.305436 0.439915
0.201254 0.322715 0.454716
0.378659 0.340273 0.469861
0.559757 0.358126 0.485479
0.736472 0.376214 0.501428
0.900145 0.390782 0.515673
0.075602 0.470540 0.567389
0.250736 0.488542 0.583109
0.431911 0.506644 0.599052
0.601541 0.521219 0.613259
0.760193 0.531693 0.625081
0.922214 0.542017 0.636635
0.116221 0.634212 0.694569
0.293807 0.648662 0.708592
0.455457 0.659355 0.720592
0.615629 0.670065 0.732435
0.778453 0.680818 0.744249
0.946145 0.691627 0.755930
0.141969 0.785223 0.814760
0.306846 0.796672 0.827161
0.468052 0.808319 0.839645
0.630716 0.819885 0.851901
0.798107 0.831687 0.864266
0.972000 0.843466 0.876435
0.158350 0.934808 0.934288
0.319426 0.947448 0.947353
0.481023 0.960459 0.960631
0.646907 0.973380 0.973663
0.819351 0.986714 0.986936
1.000000 1.000000 1.000000
