tools/decompiled/apktool/res/raw/burke.cube
LUT_3D_SIZE 16
0.000000 0.000000 0.000000
0.026479 0.004843 0.007224
0.065838 0.009381 0.013019
0.112025 0.013925 0.018421
0.162985 0.018505 0.023591
0.217495 0.023132 0.028602
0.274701 0.027807 0.033488
0.333951 0.032529 0.038278
0.394733 0.037299 0.042989
0.456632 0.042119 0.047636
0.519224 0.046986 0.052228
0.582199 0.051887 0.056760
0.645207 0.056842 0.061262
0.708028 0.061836 0.065727
0.770462 0.066861 0.070148
0.832328 0.071928 0.074544
0.003030 0.046237 0.040555
0.035458 0.051715 0.046669
0.077857 0.057112 0.052458
0.126170 0.062470 0.058022
0.178595 0.067808 0.063413
0.234192 0.073130 0.068655
0.292080 0.078456 0.073787
0.351686 0.083786 0.078818
0.412563 0.089128 0.083770
0.474352 0.094469 0.088638
0.536591 0.099810 0.093430
0.599038 0.105185 0.098181
0.661388 0.110567 0.102873
0.723251 0.115974 0.107525
0.784641 0.121385 0.112126
0.845201 0.126795 0.116677
0.008237 0.097298 0.082508
0.045322 0.103097 0.088408
0.090491 0.108837 0.094106
0.140722 0.114544 0.099642
0.194535 0.120224 0.105042
0.251057 0.125885 0.110326
0.309576 0.131542 0.115518
0.369470 0.137180 0.120609
0.430362 0.142822 0.125631
0.491975 0.148442 0.130566
0.553816 0.154058 0.135436
0.615628 0.159684 0.140255
0.677182 0.165294 0.145008
0.738165 0.170920 0.149722
0.798446 0.176539 0.154382
0.857801 0.182137 0.158985
0.014943 0.150516 0.125285
0.056001 0.156478 0.131020
0.103675 0.162417 0.136616
0.155670 0.168305 0.142074
0.210764 0.174162 0.147418
0.268117 0.180025 0.152683
0.327118 0.185830 0.157827
0.387306 0.191652 0.162918
0.448138 0.197429 0.167908
0.509476 0.203185 0.172828
0.570842 0.208993 0.177731
0.632044 0.214705 0.182511
0.692764 0.220479 0.187291
0.752813 0.226203 0.191990
0.811895 0.231895 0.196623
0.869925 0.237648 0.201264
0.022890 0.204903 0.168410
0.067417 0.210987 0.174018
0.117385 0.216987 0.179470
0.170996 0.222965 0.184825
0.227219 0.228923 0.190089
0.285321 0.234839 0.195249
0.344766 0.240743 0.200342
0.405090 0.246610 0.205344
0.465843 0.252471 0.210288
0.526868 0.258300 0.215159
0.587740 0.264105 0.219963
0.648215 0.269909 0.224723
0.708133 0.275680 0.229419
0.767104 0.281438 0.234061
0.825036 0.287177 0.238656
0.881703 0.292919 0.243219
0.031915 0.259968 0.211643
0.079515 0.266016 0.217051
0.131586 0.272055 0.222378
0.186657 0.278054 0.227606
0.243898 0.283979 0.232713
0.302668 0.289936 0.237786
0.362450 0.295831 0.242758
0.422876 0.301689 0.247652
0.483577 0.307535 0.252489
0.544119 0.313365 0.257268
0.604417 0.319176 0.261994
0.664158 0.324915 0.266626
0.723119 0.330650 0.271219
0.781043 0.336412 0.275801
0.837871 0.342071 0.280264
0.893077 0.347761 0.284726
0.041890 0.315249 0.254713
0.092265 0.321252 0.259946
0.146221 0.327237 0.265103
0.202632 0.333202 0.270183
0.260791 0.339100 0.275159
0.320117 0.344929 0.280031
0.380192 0.350792 0.284883
0.440625 0.356621 0.289665
0.501036 0.362350 0.294330
0.561208 0.368127 0.298994
0.620880 0.373864 0.303592
0.679838 0.379485 0.308061
0.737803 0.385156 0.312542
0.794618 0.390832 0.316996
0.848182 0.395066 0.321194
0.900684 0.398576 0.325278
0.052735 0.370468 0.297470
0.105577 0.376415 0.302540
0.161266 0.382256 0.307474
0.218924 0.388096 0.312358
0.277867 0.393912 0.317177
0.337691 0.399640 0.321885
0.397955 0.405381 0.326561
0.458302 0.411082 0.331166
0.518457 0.416764 0.335722
0.578164 0.422353 0.340173
0.637155 0.427977 0.344618
0.695269 0.433552 0.349000
0.749386 0.437766 0.353131
0.801934 0.441343 0.357265
0.854799 0.444966 0.361454
0.908105 0.448480 0.365574
0.064357 0.425341 0.339738
0.119443 0.431161 0.344609
0.176708 0.436913 0.349381
0.235460 0.442542 0.354014
0.295112 0.448226 0.358649
0.355315 0.453844 0.363196
0.415691 0.459419 0.367672
0.475967 0.464948 0.372080
0.535769 0.470457 0.376443
0.594924 0.475914 0.380728
0.649821 0.480229 0.384897
0.702287 0.483833 0.389050
0.754951 0.487432 0.393218
0.808052 0.491042 0.397409
0.861485 0.494689 0.401646
0.915428 0.498339 0.405901
0.076701 0.479766 0.381472
0.133810 0.485366 0.386086
0.192493 0.490925 0.390630
0.252219 0.496430 0.395093
0.312535 0.501892 0.399487
0.373035 0.507326 0.403823
0.433455 0.512709 0.408088
0.493520 0.518039 0.412287
0.549265 0.522395 0.416438
0.601951 0.526018 0.420604
0.654667 0.529688 0.424822
0.707535 0.533363 0.429065
0.760746 0.537058 0.433337
0.814334 0.540709 0.437591
0.868400 0.544474 0.441948
0.922996 0.548221 0.446304
0.089703 0.533497 0.422516
0.148639 0.538850 0.426864
0.208596 0.544197 0.431171
0.269202 0.549497 0.435412
0.330049 0.554750 0.439583
0.390763 0.559947 0.443684
0.447555 0.564331 0.447808
0.500673 0.567954 0.451968
0.553600 0.571675 0.456229
0.606565 0.575409 0.460514
0.659630 0.579193 0.464853
0.713011 0.582983 0.469211
0.766636 0.586799 0.473603
0.820794 0.590626 0.478018
0.875520 0.594431 0.482432
0.930826 0.598308 0.486911
0.103307 0.586388 0.462777
0.163894 0.591442 0.466832
0.225033 0.596569 0.470911
0.286379 0.601608 0.474889
0.344340 0.605994 0.478968
0.398224 0.609783 0.483260
0.451643 0.613515 0.487524
0.504841 0.617346 0.491881
0.558015 0.621101 0.496197
0.611253 0.624999 0.500636
0.664703 0.628937 0.505119
0.718496 0.632821 0.509578
0.772765 0.636767 0.514094
0.827498 0.640768 0.518669
0.882785 0.644748 0.523237
0.938814 0.648692 0.527788
0.117461 0.638259 0.502139
0.179556 0.643151 0.506009
0.238999 0.647434 0.509968
0.294211 0.651282 0.514302
0.348571 0.655169 0.518685
0.402354 0.659069 0.523088
0.455761 0.663023 0.527553
0.509085 0.666964 0.532024
0.562498 0.670987 0.536571
0.616069 0.674884 0.541038
0.669917 0.678916 0.545618
0.724182 0.682980 0.550238
0.778905 0.687080 0.554894
0.834271 0.691231 0.559605
0.890320 0.695447 0.564370
0.946966 0.699579 0.569085
0.130365 0.688751 0.540875
0.187915 0.692711 0.545286
0.243806 0.696689 0.549738
0.298611 0.700555 0.554118
0.352731 0.704567 0.558624
0.406441 0.708656 0.563207
0.460004 0.712777 0.567826
0.513443 0.716886 0.572450
0.567066 0.721092 0.577164
0.620979 0.725255 0.581854
0.675253 0.729297 0.586471
0.730011 0.733571 0.591269
0.785340 0.737839 0.596073
0.841298 0.742172 0.600941
0.897989 0.746488 0.605802
0.955403 0.750813 0.610682
0.136555 0.737939 0.580590
0.193194 0.742020 0.585132
0.248498 0.746215 0.589776
0.302957 0.750360 0.594398
0.356878 0.754494 0.599026
0.410568 0.758674 0.603706
0.464170 0.762973 0.608485
0.517826 0.767265 0.613275
0.571728 0.771610 0.618115
0.625992 0.775946 0.622958
0.680742 0.780271 0.627811
0.735965 0.784667 0.632720
0.791914 0.789163 0.637722
0.848450 0.793577 0.642663
0.905832 0.798107 0.647702
0.964132 0.802673 0.652784
0.142470 0.787450 0.620616
0.198329 0.791775 0.625373
0.253086 0.796133 0.630170
0.307226 0.800499 0.634985
0.360988 0.804803 0.639768
0.414690 0.809215 0.644649
0.468426 0.813647 0.649551
0.522287 0.818192 0.654558
0.576495 0.822751 0.659579
0.631170 0.827248 0.664569
0.686364 0.831861 0.669650
0.742135 0.836298 0.674611
0.798613 0.840944 0.679742
0.855828 0.845720 0.684974
0.913925 0.850412 0.690156
0.972890 0.855122 0.695353
0.000312 0.016878 0.038053
0.028149 0.020336 0.041676
0.068119 0.024074 0.045429
0.114743 0.027999 0.049253
0.165977 0.032064 0.053113
0.220728 0.036251 0.057002
0.278098 0.040541 0.060911
0.337396 0.044929 0.064840
0.398221 0.049401 0.068780
0.460076 0.053946 0.072725
0.522584 0.058566 0.076683
0.585456 0.063255 0.080650
0.648387 0.068000 0.084623
0.711084 0.072808 0.088606
0.773349 0.077662 0.092579
0.834915 0.082576 0.096569
0.003905 0.061325 0.073305
0.037307 0.066131 0.077793
0.080279 0.070977 0.082241
0.128957 0.075866 0.086659
0.181665 0.080796 0.091051
0.237454 0.085757 0.095406
0.295489 0.090762 0.099747
0.355156 0.095806 0.104070
0.416012 0.100888 0.108379
0.477773 0.105996 0.112661
0.539927 0.111147 0.116941
0.602235 0.116300 0.121174
0.664417 0.121511 0.125424
0.726204 0.126743 0.129656
0.787436 0.131993 0.133866
0.847737 0.137276 0.138073
0.009433 0.111355 0.112467
0.047339 0.116666 0.117204
0.093010 0.121988 0.121889
0.143596 0.127326 0.126532
0.197716 0.132675 0.131132
0.254373 0.138041 0.135699
0.312965 0.143429 0.140236
0.372919 0.148819 0.144729
0.433852 0.154238 0.149206
0.495374 0.159653 0.153647
0.557106 0.165088 0.158064
0.618806 0.170547 0.162466
0.680165 0.176002 0.166827
0.741067 0.181490 0.171193
0.801110 0.186959 0.175514
0.860249 0.192454 0.179826
0.016397 0.163782 0.153179
0.058159 0.169365 0.158008
0.106301 0.174978 0.162811
0.158621 0.180551 0.167528
0.213933 0.186135 0.172215
0.271455 0.191756 0.176887
0.330552 0.197332 0.181485
0.390766 0.202955 0.186077
0.451578 0.208535 0.190607
0.512853 0.214102 0.195085
0.574137 0.219730 0.199584
0.635160 0.225324 0.204029
0.695675 0.230945 0.208464
0.755603 0.236529 0.212844
0.814507 0.242112 0.217199
0.872380 0.247742 0.221564
0.024561 0.217520 0.194663
0.069713 0.223307 0.199546
0.120114 0.229025 0.204334
0.174012 0.234754 0.209089
0.230437 0.240472 0.213795
0.288691 0.246178 0.218448
0.348202 0.251883 0.223068
0.408559 0.257579 0.227655
0.469255 0.263269 0.232201
0.530220 0.268943 0.236703
0.590959 0.274607 0.241170
0.651280 0.280270 0.245612
0.711014 0.285943 0.250033
0.769808 0.291580 0.254407
0.827562 0.297215 0.258755
0.884075 0.302852 0.263086
0.033781 0.272047 0.236555
0.081936 0.277840 0.241352
0.134401 0.283644 0.246123
0.189730 0.289424 0.250840
0.247168 0.295174 0.255497
0.306048 0.300912 0.260112
0.365906 0.306641 0.264690
0.426318 0.312347 0.269215
0.486970 0.318043 0.273708
0.547442 0.323735 0.278172
0.607618 0.329428 0.282611
0.667169 0.335031 0.286958
0.725903 0.340709 0.291339
0.783659 0.346353 0.295676
0.840230 0.351916 0.299929
0.895158 0.357363 0.304213
0.043927 0.326854 0.278484
0.094806 0.332624 0.283198
0.149109 0.338421 0.287891
0.205767 0.344191 0.292523
0.264104 0.349912 0.297098
0.323531 0.355600 0.301615
0.383628 0.361310 0.306119
0.444040 0.366991 0.310576
0.504425 0.372612 0.314961
0.564499 0.378233 0.319322
0.624054 0.383888 0.323689
0.682832 0.389423 0.327943
0.740562 0.395022 0.332226
0.797047 0.400497 0.336474
0.849434 0.404093 0.340714
0.902176 0.407666 0.344953
0.054932 0.381657 0.320268
0.108230 0.387384 0.324882
0.164239 0.393063 0.329422
0.222128 0.398740 0.333929
0.281205 0.404441 0.338430
0.341109 0.409979 0.342779
0.401387 0.415626 0.347184
0.461734 0.421200 0.351513
0.521829 0.426768 0.355813
0.581447 0.432245 0.360026
0.640267 0.437766 0.364250
0.698130 0.443261 0.368457
0.750387 0.446811 0.372666
0.803028 0.450443 0.376944
0.855998 0.454128 0.381281
0.909372 0.457800 0.385610
0.066700 0.436139 0.361688
0.122195 0.441787 0.366175
0.179734 0.447433 0.370634
0.238705 0.452920 0.374946
0.298494 0.458446 0.379263
0.358782 0.463930 0.383524
0.419159 0.469396 0.387750
0.479364 0.474835 0.391933
0.539115 0.480235 0.396067
0.598184 0.485601 0.400159
0.650748 0.489278 0.404428
0.703251 0.492936 0.408729
0.756069 0.496598 0.413039
0.809130 0.500285 0.417381
0.862752 0.503994 0.421758
0.916780 0.507704 0.426140
0.079175 0.490231 0.402693
0.136653 0.495688 0.406985
0.195585 0.501099 0.411216
0.255494 0.506476 0.415396
0.315915 0.511839 0.419547
0.376452 0.517149 0.423633
0.436895 0.522452 0.427698
0.496890 0.527683 0.431687
0.550107 0.531467 0.435980
0.602840 0.535163 0.440309
0.655639 0.538839 0.444631
0.708498 0.542580 0.449019
0.761792 0.546354 0.453436
0.815459 0.550116 0.457861
0.869681 0.553901 0.462306
0.924376 0.557716 0.466783
0.092300 0.543615 0.443065
0.151566 0.548864 0.447153
0.211759 0.554113 0.451217
0.272515 0.559307 0.455220
0.333434 0.564391 0.459118
0.394201 0.569517 0.463028
0.448303 0.573399 0.467345
0.501486 0.577140 0.471703
0.554452 0.580932 0.476117
0.607465 0.584728 0.480537
0.660659 0.588568 0.485004
0.713993 0.592366 0.489458
0.767735 0.596232 0.493964
0.822010 0.600113 0.498499
0.876868 0.604017 0.503049
0.932232 0.607920 0.507609
0.106010 0.596179 0.482733
0.166896 0.601212 0.486614
0.228254 0.606234 0.490465
0.289732 0.611149 0.494223
0.345158 0.615135 0.498557
0.399032 0.618881 0.502923
0.452442 0.622755 0.507393
0.505647 0.626617 0.511864
0.558903 0.630559 0.516416
0.612185 0.634483 0.520951
0.665758 0.638455 0.525549
0.719585 0.642358 0.530086
0.773855 0.646300 0.534664
0.828692 0.650308 0.539314
0.884165 0.654401 0.544024
0.940263 0.658441 0.548712
0.120277 0.647727 0.521556
0.182610 0.652517 0.525214
0.239938 0.656579 0.529556
0.295058 0.660497 0.534047
0.349389 0.664452 0.538577
0.403159 0.668420 0.543131
0.456542 0.672345 0.547661
0.509959 0.676388 0.552297
0.563399 0.680409 0.556919
0.617018 0.684497 0.561598
0.670959 0.688579 0.566292
0.725356 0.692700 0.571011
0.780127 0.696775 0.575719
0.835516 0.700960 0.580505
0.891617 0.705106 0.585270
0.948547 0.709325 0.590107
0.131598 0.697851 0.560423
0.188961 0.701876 0.564992
0.244731 0.705910 0.569586
0.299455 0.709966 0.574201
0.353543 0.714106 0.578892
0.407251 0.718238 0.583594
0.460783 0.722279 0.588230
0.514287 0.726435 0.592965
0.567983 0.730642 0.597742
0.621986 0.734902 0.602581
0.676336 0.739187 0.607430
0.731166 0.743410 0.612247
0.786638 0.747748 0.617165
0.842584 0.751976 0.621998
0.899428 0.756295 0.626911
0.957008 0.760750 0.631928
0.137715 0.747139 0.600416
0.194200 0.751348 0.605148
0.249392 0.755604 0.609930
0.303779 0.759794 0.614668
0.357673 0.764111 0.619515
0.411363 0.768425 0.624365
0.464978 0.772778 0.629256
0.518686 0.776976 0.634041
0.572676 0.781356 0.638967
0.627022 0.785739 0.643909
0.681846 0.790233 0.648934
0.737245 0.794660 0.653914
0.793241 0.799197 0.658990
0.849826 0.803659 0.664011
0.907292 0.808053 0.668995
0.965643 0.812647 0.674123
0.143592 0.797064 0.640934
0.199291 0.801269 0.645689
0.253949 0.805678 0.650602
0.308041 0.810097 0.655529
0.361809 0.814628 0.660553
0.415485 0.819089 0.665533
0.469234 0.823659 0.670608
0.523167 0.828156 0.675629
0.577464 0.832573 0.680592
0.632207 0.837199 0.685734
0.687480 0.841837 0.690874
0.743418 0.846501 0.696058
0.800043 0.851181 0.701243
0.857455 0.855885 0.706453
0.915411 0.860501 0.711611
0.974558 0.865225 0.716850
0.000805 0.029175 0.065188
0.029862 0.032484 0.068229
0.070433 0.036039 0.071407
0.117471 0.039785 0.074697
0.169005 0.043678 0.078050
0.223964 0.047702 0.081472
0.281468 0.051846 0.084951
0.340831 0.056086 0.088466
0.401648 0.060421 0.092021
0.463521 0.064840 0.095612
0.525985 0.069344 0.099240
0.588776 0.073926 0.102902
0.651554 0.078562 0.106575
0.713978 0.083279 0.110288
0.776027 0.088048 0.114021
0.837335 0.092878 0.117776
0.004851 0.073655 0.099575
0.039188 0.078235 0.103488
0.082711 0.082877 0.107412
0.131776 0.087575 0.111334
0.184740 0.092327 0.115268
0.240722 0.097137 0.119213
0.298871 0.101986 0.123155
0.358568 0.106887 0.127107
0.419467 0.111836 0.131071
0.481196 0.116828 0.135038
0.543300 0.121857 0.139007
0.605521 0.126916 0.142981
0.667540 0.132012 0.146955
0.729031 0.137158 0.150953
0.790033 0.142330 0.154942
0.850172 0.147530 0.158936
0.010682 0.123408 0.137758
0.049379 0.128535 0.142012
0.095550 0.133671 0.146233
0.146487 0.138838 0.150446
0.200838 0.144029 0.154646
0.257666 0.149240 0.158830
0.316366 0.154490 0.163021
0.376443 0.159753 0.167191
0.437254 0.165054 0.171370
0.498785 0.170359 0.175525
0.560449 0.175680 0.179667
0.622051 0.181052 0.183833
0.683289 0.186408 0.187963
0.743977 0.191820 0.192124
0.803722 0.197218 0.196249
0.862594 0.202660 0.200398
0.017893 0.175570 0.177613
0.060347 0.180971 0.182003
0.108945 0.186412 0.186390
0.161591 0.191848 0.190747
0.217130 0.197271 0.195066
0.274789 0.202772 0.199419
0.333972 0.208214 0.203700
0.394211 0.213722 0.208008
0.455023 0.219187 0.212264
0.516248 0.224678 0.216515
0.577430 0.230206 0.220782
0.638356 0.235711 0.225004
0.698733 0.241259 0.229243
0.758428 0.246779 0.233452
0.817019 0.252333 0.237662
0.874546 0.257843 0.241834
0.026274 0.229044 0.218324
0.072037 0.234658 0.222812
0.122848 0.240229 0.227245
0.177038 0.245817 0.231663
0.233681 0.251409 0.236056
0.292043 0.256999 0.240429
0.351636 0.262593 0.244781
0.412003 0.268171 0.249103
0.472810 0.273762 0.253410
0.533584 0.279355 0.257701
0.594213 0.284939 0.261976
0.654402 0.290526 0.266227
0.713939 0.296118 0.270476
0.772611 0.301699 0.274688
0.829979 0.307273 0.278893
0.886155 0.312849 0.283088
0.035681 0.283292 0.259501
0.084399 0.288944 0.263968
0.137224 0.294616 0.268425
0.192825 0.300269 0.272842
0.250436 0.305898 0.277225
0.309430 0.311527 0.281583
0.369349 0.317157 0.285919
0.429750 0.322809 0.290260
0.490339 0.328383 0.294519
0.550783 0.334005 0.298806
0.610829 0.339596 0.303049
0.670275 0.345172 0.307265
0.728915 0.350772 0.311492
0.786379 0.356317 0.315650
0.842663 0.361873 0.319829
0.896443 0.366530 0.324069
0.046007 0.337850 0.300812
0.097366 0.343473 0.305206
0.152008 0.349154 0.309629
0.208952 0.354813 0.314008
0.267401 0.360445 0.318355
0.326914 0.366025 0.322636
0.387079 0.371639 0.326926
0.447501 0.377247 0.331199
0.507810 0.382789 0.335405
0.567808 0.388365 0.339628
0.627252 0.393939 0.343830
0.685850 0.399478 0.348000
0.743514 0.404937 0.352088
0.798251 0.409633 0.356299
0.850770 0.413326 0.360695
0.903480 0.416926 0.365013
0.057159 0.392369 0.342000
0.110892 0.398010 0.346373
0.167212 0.403575 0.350663
0.225311 0.409183 0.354966
0.284558 0.414747 0.359226
0.344511 0.420301 0.363454
0.404835 0.425758 0.367608
0.465158 0.431283 0.371784
0.525205 0.436814 0.375947
0.584698 0.442180 0.379991
0.643407 0.447679 0.384109
0.699154 0.452401 0.388292
0.751594 0.455986 0.392595
0.804241 0.459703 0.397000
0.857304 0.463426 0.401437
0.910903 0.467127 0.405847
0.069067 0.446629 0.382917
0.124966 0.452216 0.387213
0.182793 0.457706 0.391410
0.241921 0.463137 0.395554
0.301867 0.468574 0.399681
0.362203 0.473993 0.403778
0.422599 0.479376 0.407847
0.482759 0.484745 0.411876
0.542448 0.490087 0.415891
0.599171 0.494810 0.420004
0.651645 0.498512 0.424394
0.704344 0.502214 0.428807
0.757205 0.505929 0.433219
0.810443 0.509648 0.437657
0.864136 0.513393 0.442113
0.918352 0.517136 0.446565
0.081684 0.500487 0.423467
0.139515 0.505855 0.427559
0.198703 0.511185 0.431606
0.258784 0.516505 0.435638
0.319322 0.521792 0.439623
0.379898 0.527031 0.443571
0.440315 0.532262 0.447491
0.498103 0.536975 0.451538
0.550956 0.540705 0.455961
0.603710 0.544440 0.460382
0.656554 0.548209 0.464844
0.709651 0.551984 0.469314
0.763033 0.555779 0.473807
0.816802 0.559628 0.478355
0.871091 0.563390 0.482825
0.926082 0.567246 0.487390
0.094918 0.553667 0.463438
0.154517 0.558815 0.467331
0.214924 0.563966 0.471215
0.275839 0.569090 0.475079
0.336860 0.574191 0.478902
0.395670 0.578903 0.482900
0.449110 0.582677 0.487346
0.502301 0.586502 0.491846
0.555294 0.590256 0.496285
0.608339 0.594125 0.500824
0.661597 0.597960 0.505352
0.715101 0.601852 0.509921
0.768937 0.605771 0.514531
0.823385 0.609691 0.519132
0.878276 0.613592 0.523727
0.933863 0.617547 0.528371
0.108739 0.606056 0.502760
0.169934 0.610985 0.506463
0.231485 0.615888 0.510152
0.291461 0.620479 0.513988
0.345995 0.624390 0.518536
0.399824 0.628229 0.523047
0.453215 0.632181 0.527634
0.506509 0.636088 0.532216
0.559744 0.639990 0.536779
0.613097 0.643935 0.541387
0.666703 0.647933 0.546057
0.720665 0.651980 0.550755
0.775114 0.655977 0.555425
0.830076 0.659998 0.560117
0.885724 0.664123 0.564892
0.942027 0.668106 0.569562
0.123098 0.657414 0.541259
0.184586 0.661948 0.544996
0.240887 0.665828 0.549533
0.295926 0.669811 0.554139
0.350181 0.673886 0.558831
0.403949 0.677890 0.563473
0.457356 0.681914 0.568128
0.510791 0.685953 0.572819
0.564268 0.690054 0.577554
0.617945 0.694089 0.582246
0.671983 0.698232 0.587024
0.726373 0.702371 0.591803
0.781408 0.706533 0.596605
0.836940 0.710705 0.601420
0.893215 0.714984 0.606320
0.950254 0.719186 0.611160
0.132803 0.707251 0.580506
0.189989 0.711315 0.585185
0.245643 0.715405 0.589875
0.300300 0.719452 0.594549
0.354335 0.723625 0.599331
0.408030 0.727785 0.604099
0.461597 0.731958 0.608895
0.515141 0.736167 0.613713
0.568888 0.740432 0.618582
0.622919 0.744682 0.623445
0.677381 0.748884 0.628277
0.732265 0.753160 0.633168
0.787883 0.757507 0.638118
0.844097 0.761901 0.643105
0.901073 0.766316 0.648116
0.958744 0.770706 0.653101
0.138886 0.756760 0.620797
0.195211 0.760975 0.625607
0.250297 0.765235 0.630444
0.304610 0.769557 0.635349
0.358493 0.773758 0.640150
0.412161 0.778033 0.645021
0.465833 0.782412 0.649975
0.519542 0.786786 0.654931
0.573587 0.791285 0.659986
0.627982 0.795696 0.664976
0.682861 0.799969 0.669870
0.738360 0.804503 0.674964
0.794498 0.809068 0.680079
0.851332 0.813536 0.685131
0.908976 0.818122 0.690277
0.967535 0.822705 0.695412
0.144702 0.806638 0.661402
0.200272 0.811040 0.666359
0.254832 0.815478 0.671343
0.308863 0.820029 0.676426
0.362609 0.824321 0.681314
0.416288 0.828816 0.686362
0.470084 0.833405 0.691482
0.524045 0.837929 0.696560
0.578376 0.842557 0.701719
0.633153 0.847208 0.706898
0.688571 0.851876 0.712096
0.744562 0.856367 0.717163
0.801298 0.861057 0.722381
0.858763 0.865875 0.727696
0.917122 0.870606 0.732949
0.976377 0.875356 0.738222
0.001413 0.040216 0.089281
0.031599 0.043477 0.092023
0.072759 0.046962 0.094899
0.120216 0.050630 0.097895
0.172038 0.054444 0.100968
0.227194 0.058389 0.104118
0.284836 0.062458 0.107350
0.344292 0.066624 0.110624
0.405125 0.070896 0.113965
0.466963 0.075256 0.117349
0.529354 0.079693 0.120773
0.591993 0.084219 0.124254
0.654646 0.088817 0.127769
0.716969 0.093477 0.131324
0.778871 0.098205 0.134910
0.840006 0.102989 0.138518
0.005860 0.084916 0.123332
0.041103 0.089375 0.126914
0.085150 0.093907 0.130526
0.134600 0.098508 0.134178
0.187845 0.103165 0.137840
0.243997 0.107888 0.141540
0.302265 0.112649 0.145244
0.362024 0.117465 0.148965
0.422962 0.122352 0.152737
0.484620 0.127270 0.156503
0.546625 0.132244 0.160311
0.608687 0.137253 0.164116
0.670547 0.142291 0.167936
0.732043 0.147389 0.171794
0.792796 0.152516 0.175656
0.852670 0.157680 0.179545
0.011982 0.134624 0.161034
0.051451 0.139619 0.164970
0.098111 0.144651 0.168922
0.149383 0.149721 0.172874
0.203988 0.154818 0.176829
0.260983 0.159951 0.180802
0.319804 0.165119 0.184777
0.379887 0.170312 0.188761
0.440751 0.175538 0.192744
0.502171 0.180770 0.196716
0.563738 0.186074 0.200748
0.625149 0.191358 0.204734
0.686239 0.196673 0.208751
0.746734 0.202037 0.212777
0.806443 0.207387 0.216784
0.865010 0.212794 0.220833
0.019434 0.186653 0.200385
0.062562 0.191956 0.204515
0.111602 0.197301 0.208663
0.164552 0.202623 0.212769
0.220319 0.208021 0.216924
0.278118 0.213386 0.221026
0.337389 0.218758 0.225121
0.397687 0.224213 0.229277
0.458472 0.229612 0.233361
0.519612 0.235073 0.237494
0.580694 0.240530 0.241607
0.641480 0.245975 0.245695
0.701725 0.251459 0.249808
0.761127 0.256948 0.253915
0.819662 0.262477 0.258051
0.876971 0.267957 0.262127
0.028025 0.239972 0.240631
0.074383 0.245488 0.244883
0.125599 0.250992 0.249116
0.180075 0.256494 0.253318
0.236921 0.262010 0.257538
0.295400 0.267529 0.261727
0.355063 0.273050 0.265903
0.415461 0.278574 0.270085
0.476214 0.284103 0.274251
0.536923 0.289646 0.278419
0.597459 0.295177 0.282561
0.657500 0.300724 0.286718
0.716810 0.306282 0.290862
0.775262 0.311827 0.294999
0.832539 0.317353 0.299111
0.888475 0.322918 0.303247
0.037617 0.294082 0.281394
0.086878 0.299658 0.285667
0.140057 0.305236 0.289916
0.195921 0.310811 0.294150
0.253723 0.316381 0.298376
0.312827 0.321955 0.302584
0.372780 0.327515 0.306781
0.433229 0.333115 0.310986
0.493779 0.338653 0.315133
0.554086 0.344190 0.319283
0.614013 0.349779 0.323451
0.673265 0.355281 0.327560
0.731669 0.360854 0.331706
0.788964 0.366395 0.335823
0.844989 0.371909 0.339916
0.897876 0.375867 0.344293
0.048107 0.348482 0.322313
0.099947 0.354104 0.326593
0.154946 0.359643 0.330786
0.212097 0.365233 0.335016
0.270721 0.370826 0.339228
0.330330 0.376326 0.343359
0.390513 0.381875 0.347529
0.450949 0.387440 0.351686
0.511204 0.392941 0.355806
0.571120 0.398468 0.359918
0.630364 0.404000 0.364035
0.688847 0.409519 0.368137
0.746197 0.414918 0.372144
0.799340 0.418982 0.376538
0.851955 0.422688 0.380982
0.904986 0.426318 0.385378
0.059413 0.402872 0.363188
0.113586 0.408422 0.367376
0.170206 0.413912 0.371504
0.228522 0.419459 0.375684
0.287906 0.424993 0.379834
0.347932 0.430500 0.383963
0.408290 0.435891 0.387985
0.468578 0.441368 0.392063
