tools/decompiled/apktool/res/raw/cinema.cube
LUT_3D_SIZE 6
0.000000 0.001860 0.002217
0.113285 0.020542 0.016443
0.251737 0.045471 0.027889
0.443146 0.069476 0.038063
0.617802 0.075165 0.050116
0.743888 0.078023 0.059742
0.028968 0.129993 0.035746
0.137303 0.142889 0.044142
0.298524 0.170455 0.052897
0.509846 0.199713 0.060895
0.681663 0.214129 0.070531
0.801213 0.229190 0.080552
0.026368 0.274011 0.071425
0.137769 0.299000 0.073619
0.356721 0.341143 0.080130
0.586076 0.379756 0.083854
0.754231 0.402869 0.090083
0.870329 0.428199 0.098541
0.034678 0.453122 0.118676
0.132414 0.496673 0.107390
0.422348 0.562595 0.096508
0.670545 0.615154 0.075460
0.835357 0.643427 0.072833
0.946373 0.664634 0.064196
0.046174 0.609183 0.154253
0.133301 0.664859 0.126074
0.481913 0.735788 0.108618
0.727963 0.787368 0.083874
0.883683 0.810934 0.075999
0.977263 0.824008 0.145143
0.059429 0.738577 0.191170
0.244952 0.799028 0.177732
0.537248 0.862085 0.190026
0.758017 0.905232 0.203927
0.901565 0.926315 0.224141
0.988798 0.935553 0.273376
0.006229 0.013761 0.109536
0.117875 0.026857 0.121994
0.261739 0.050440 0.133429
0.460928 0.073819 0.144914
0.637073 0.076000 0.157993
0.762220 0.077373 0.171483
0.026584 0.136750 0.139342
0.140496 0.150799 0.150640
0.310737 0.179126 0.164236
0.527456 0.207809 0.177178
0.700460 0.221646 0.190857
0.817831 0.237592 0.205594
0.030297 0.285389 0.179577
0.136388 0.311978 0.190430
0.367325 0.354950 0.204609
0.604063 0.395563 0.217748
0.772231 0.419536 0.230738
0.885476 0.445883 0.248559
0.048891 0.470069 0.236573
0.125236 0.516253 0.240320
0.432602 0.586623 0.246912
0.687165 0.638407 0.257530
0.848387 0.664764 0.272189
0.956201 0.686948 0.292303
0.060079 0.626364 0.286073
0.138382 0.682025 0.289076
0.482712 0.756884 0.296554
0.735376 0.808262 0.311846
0.888481 0.831208 0.329142
0.979503 0.842971 0.361949
0.069604 0.758751 0.349116
0.195807 0.820837 0.361243
0.534532 0.884428 0.385419
0.759015 0.925963 0.406114
0.901844 0.946099 0.425963
0.991039 0.955703 0.459569
0.012024 0.032216 0.233895
0.118741 0.025187 0.258147
0.270138 0.047810 0.279405
0.474347 0.072269 0.299530
0.650142 0.069712 0.316253
0.773058 0.071268 0.334300
0.018846 0.152019 0.274368
0.125254 0.159586 0.303641
0.319498 0.189292 0.329871
0.542076 0.217171 0.351491
0.712754 0.231213 0.369046
0.827416 0.248008 0.389088
0.032125 0.307595 0.327137
0.123777 0.331589 0.355439
0.371130 0.376773 0.389523
0.614438 0.415722 0.412318
0.779932 0.438738 0.431531
0.891924 0.466837 0.454150
0.041087 0.497488 0.395310
0.127836 0.541064 0.424771
0.423544 0.615564 0.454192
0.691801 0.667874 0.477432
0.851326 0.692051 0.495399
0.957563 0.714061 0.517204
0.050623 0.654168 0.454951
0.137781 0.706310 0.486476
0.468704 0.785072 0.513122
0.734554 0.835447 0.538704
0.887191 0.856712 0.554864
0.981743 0.868985 0.579674
0.064452 0.787140 0.521957
0.157974 0.845604 0.557091
0.526873 0.909426 0.587505
0.756737 0.948756 0.609151
0.899870 0.967798 0.626890
0.993279 0.976548 0.651888
0.011287 0.060992 0.375025
0.116965 0.020926 0.418363
0.280003 0.019539 0.453596
0.487883 0.025309 0.482002
0.661874 0.030225 0.499995
0.782978 0.038937 0.518738
0.018309 0.183694 0.423574
0.111189 0.186158 0.463390
0.326428 0.191636 0.519065
0.552647 0.219825 0.545270
0.722888 0.233995 0.564874
0.836093 0.253166 0.585204
0.029792 0.338680 0.488724
0.116950 0.360854 0.528895
0.368332 0.396456 0.589586
0.621404 0.435457 0.618212
0.785770 0.456793 0.635967
0.897604 0.487585 0.659149
0.048163 0.529849 0.563279
0.131880 0.572421 0.604224
0.402609 0.642776 0.659749
0.692272 0.693618 0.687834
0.851659 0.715756 0.704006
0.956983 0.736409 0.720492
0.053829 0.684648 0.621648
0.140022 0.733639 0.664128
0.449156 0.809595 0.711554
0.730006 0.856302 0.735116
0.884920 0.877158 0.750578
0.983804 0.888163 0.765378
0.064420 0.811175 0.673923
0.151557 0.864871 0.719271
0.518072 0.926411 0.756133
0.753730 0.964190 0.776675
0.898199 0.982181 0.790847
0.995486 0.990702 0.804599
0.009232 0.086478 0.510967
0.096488 0.046126 0.558717
0.288637 0.020713 0.603560
0.498232 0.026589 0.637163
0.671663 0.032465 0.657423
0.791791 0.038341 0.674810
0.020497 0.211309 0.561310
0.113064 0.208253 0.602162
0.331177 0.188365 0.677647
0.562190 0.218785 0.706743
0.730700 0.232449 0.723645
0.843596 0.256808 0.741062
0.032033 0.363384 0.626917
0.119191 0.383599 0.668442
0.365351 0.409837 0.747218
0.625505 0.447429 0.775384
0.790811 0.469698 0.791404
0.901602 0.499147 0.807834
0.054810 0.552734 0.699680
0.137330 0.592027 0.741565
0.385106 0.657422 0.810428
0.690719 0.705190 0.836392
0.851919 0.726641 0.850459
0.957699 0.747240 0.863022
0.064687 0.701937 0.747465
0.159376 0.748342 0.790418
0.429700 0.820312 0.847051
0.728126 0.866092 0.870331
0.884814 0.886690 0.883584
0.984829 0.896622 0.892185
0.066639 0.824725 0.787626
0.153798 0.874752 0.833933
0.516062 0.933906 0.872586
0.754282 0.970976 0.891440
0.898572 0.988051 0.902421
0.997603 0.996707 0.911322
0.012634 0.103002 0.618194
0.102924 0.089917 0.653754
0.297696 0.022953 0.722542
0.511470 0.028829 0.756968
0.684230 0.034865 0.777693
0.805052 0.043957 0.795410
0.022737 0.227717 0.671342
0.109983 0.232868 0.707471
0.336301 0.200508 0.793091
0.569886 0.233191 0.821899
0.739598 0.250548 0.838354
0.852025 0.276006 0.853588
0.034273 0.377611 0.734135
0.121431 0.397665 0.774731
0.367298 0.422757 0.856074
0.631434 0.461724 0.884112
0.795712 0.483357 0.899362
0.905838 0.509282 0.912852
0.046589 0.563261 0.800212
0.140092 0.602563 0.842227
0.373310 0.664842 0.913308
0.692256 0.711451 0.938943
0.853842 0.733094 0.952020
0.959842 0.753375 0.962122
0.061116 0.709766 0.843850
0.160374 0.755438 0.886552
0.438879 0.825665 0.943984
0.729135 0.870094 0.966000
0.885952 0.890293 0.978140
0.986493 0.900081 0.985851
0.072824 0.831631 0.880054
0.156038 0.880336 0.925946
0.517503 0.937072 0.962865
0.755383 0.973922 0.981845
0.899726 0.991202 0.992581
0.999921 0.999930 0.999926
