tools/decompiled/apktool/res/raw/cinema.cube
LUT_3D_SIZE 16
0.000000 0.001860 0.002217
0.038354 0.007181 0.008114
0.075488 0.013583 0.012509
0.113285 0.020542 0.016443
0.153869 0.028079 0.020465
0.199438 0.036391 0.024417
0.251737 0.045471 0.027889
0.311291 0.054850 0.030840
0.376565 0.063294 0.034126
0.443146 0.069476 0.038063
0.506823 0.073212 0.042216
0.565417 0.074838 0.046302
0.617802 0.075165 0.050116
0.664131 0.075339 0.053590
0.705775 0.076342 0.056852
0.743888 0.078023 0.059742
0.015035 0.046455 0.015938
0.047979 0.049270 0.018649
0.083274 0.053171 0.021770
0.121092 0.058741 0.025411
0.163001 0.065807 0.029143
0.210920 0.074212 0.032518
0.266198 0.083604 0.035416
0.328732 0.093292 0.038230
0.396096 0.102267 0.041537
0.464395 0.108862 0.045063
0.528997 0.112912 0.049078
0.587305 0.115199 0.053053
0.638646 0.116737 0.056621
0.683820 0.118359 0.059835
0.724374 0.120586 0.062940
0.762045 0.124080 0.065913
0.023655 0.087355 0.025901
0.056005 0.090365 0.028313
0.090844 0.094049 0.031111
0.129249 0.099258 0.034481
0.172834 0.106408 0.037931
0.223425 0.115252 0.041009
0.282046 0.125242 0.043856
0.347787 0.135498 0.046791
0.417410 0.144869 0.049862
0.487107 0.152177 0.052742
0.551716 0.156894 0.056334
0.609485 0.160385 0.060020
0.660030 0.163323 0.063364
0.704110 0.166122 0.066454
0.743740 0.169636 0.069711
0.781247 0.174837 0.073160
0.028968 0.129993 0.035746
0.061962 0.133254 0.038163
0.097448 0.137303 0.040927
0.137303 0.142889 0.044142
0.183100 0.150290 0.047273
0.236272 0.159631 0.050126
0.298524 0.170455 0.052897
0.367670 0.181603 0.055593
0.439482 0.191685 0.058193
0.509846 0.199713 0.060895
0.575015 0.205594 0.063951
0.632054 0.210078 0.067176
0.681663 0.214129 0.070531
0.724885 0.218056 0.073825
0.764108 0.222872 0.077121
0.801213 0.229190 0.080552
0.023978 0.175166 0.045655
0.060533 0.178802 0.048012
0.101332 0.183541 0.050840
0.144564 0.189956 0.053933
0.193016 0.198207 0.056903
0.249273 0.208208 0.059596
0.315628 0.219941 0.061968
0.388168 0.232218 0.064074
0.462083 0.243407 0.066279
0.533291 0.252580 0.068865
0.598603 0.259586 0.071824
0.655701 0.265079 0.074974
0.704042 0.269907 0.078120
0.746617 0.274844 0.081229
0.785469 0.280779 0.084397
0.822169 0.288166 0.087742
0.024119 0.222790 0.057536
0.053591 0.227551 0.059031
0.093687 0.233760 0.060763
0.149102 0.241523 0.063601
0.202596 0.251382 0.066640
0.264247 0.263226 0.069326
0.335093 0.276339 0.071307
0.410575 0.289479 0.072754
0.486508 0.301793 0.074456
0.558724 0.312139 0.076765
0.623879 0.320475 0.079499
0.680395 0.326982 0.082309
0.728132 0.332284 0.084980
0.770121 0.338297 0.087907
0.808627 0.345545 0.091004
0.845138 0.354287 0.094278
0.026368 0.274011 0.071425
0.053072 0.280317 0.072326
0.087323 0.288719 0.072650
0.137769 0.299000 0.073619
0.212712 0.310896 0.076335
0.280883 0.325371 0.078584
0.356721 0.341143 0.080130
0.435486 0.355853 0.081253
0.513330 0.368541 0.082408
0.586076 0.379756 0.083854
0.650798 0.389280 0.085658
0.706548 0.396778 0.087728
0.754231 0.402869 0.090083
0.796085 0.410196 0.092947
0.834118 0.418497 0.095781
0.870329 0.428199 0.098541
0.032579 0.330081 0.086891
0.059244 0.337950 0.088278
0.085562 0.348961 0.086771
0.138922 0.362010 0.085081
0.220094 0.376693 0.085693
0.297318 0.394075 0.087364
0.378633 0.412783 0.088095
0.461521 0.429541 0.087874
0.541094 0.443409 0.087722
0.614239 0.455570 0.087877
0.678914 0.466023 0.088270
0.734496 0.474594 0.088604
0.781980 0.481753 0.090285
0.823732 0.489530 0.092691
0.860971 0.497799 0.094683
0.896622 0.507610 0.096585
0.039242 0.390832 0.103164
0.062107 0.399959 0.105136
0.089067 0.413295 0.101598
0.141339 0.429114 0.096865
0.219033 0.447044 0.094516
0.311994 0.466966 0.094992
0.400246 0.488157 0.093918
0.487725 0.507609 0.091218
0.568881 0.523011 0.087962
0.642613 0.536463 0.083939
0.707418 0.547835 0.078241
0.762961 0.557104 0.076471
0.810010 0.564646 0.079999
0.850765 0.571910 0.083750
0.887526 0.579368 0.085970
0.922533 0.588438 0.085924
0.034678 0.453122 0.118676
0.065212 0.462703 0.121068
0.093427 0.477468 0.117166
0.132414 0.496673 0.107390
0.217454 0.517703 0.101730
0.328380 0.539652 0.100366
0.422348 0.562595 0.096508
0.513189 0.584015 0.089628
0.596758 0.601243 0.078311
0.670545 0.615154 0.075460
0.734396 0.626319 0.072550
0.788793 0.635375 0.071415
0.835357 0.643427 0.072833
0.875855 0.650683 0.074761
0.912175 0.657348 0.071911
0.946373 0.664634 0.064196
0.041861 0.511280 0.133161
0.075541 0.521205 0.135216
0.103488 0.536812 0.132586
0.127524 0.559981 0.115215
0.229546 0.582884 0.107676
0.346664 0.606218 0.104033
0.444200 0.630085 0.095668
0.536407 0.652041 0.083546
0.620986 0.669949 0.076489
0.694782 0.683833 0.064038
0.757381 0.694507 0.062176
0.810441 0.703026 0.062617
0.855978 0.710444 0.063722
0.895860 0.717206 0.064707
0.931680 0.723441 0.065873
0.964661 0.729267 0.069265
0.051960 0.562826 0.145439
0.084018 0.574171 0.146690
0.114012 0.590237 0.144402
0.131199 0.615964 0.120766
0.250082 0.639206 0.113912
0.365184 0.663331 0.108797
0.464154 0.687407 0.098068
0.556194 0.708973 0.087660
0.639756 0.726465 0.080201
0.713747 0.740431 0.059925
0.775754 0.750953 0.061884
0.827625 0.758880 0.063842
0.871738 0.765158 0.065801
0.910224 0.770612 0.068893
0.943676 0.775898 0.075791
0.973366 0.781187 0.088318
0.046174 0.609183 0.154253
0.075195 0.622216 0.154608
0.104248 0.640086 0.148518
0.133301 0.664859 0.126074
0.271641 0.687579 0.122251
0.383312 0.711983 0.117803
0.481913 0.735788 0.108618
0.572954 0.756702 0.101714
0.655279 0.773769 0.094908
0.727963 0.787368 0.083874
0.790384 0.797964 0.082126
0.841096 0.805419 0.071183
0.883683 0.810934 0.075999
0.918172 0.815638 0.095971
0.948194 0.819984 0.121628
0.977263 0.824008 0.145143
0.050899 0.650867 0.164351
0.079040 0.665694 0.163093
0.108093 0.684819 0.154017
0.147639 0.708957 0.134637
0.295699 0.731235 0.133561
0.401767 0.755495 0.131194
0.498791 0.778707 0.124973
0.588166 0.798839 0.121780
0.668719 0.815270 0.119526
0.739687 0.828323 0.116743
0.800495 0.838466 0.114561
0.851126 0.845844 0.110988
0.891618 0.850916 0.119785
0.922917 0.855045 0.141561
0.952055 0.858482 0.168255
0.981108 0.861685 0.188551
0.064466 0.690179 0.175366
0.082886 0.706809 0.171528
0.111938 0.727682 0.160141
0.171753 0.751378 0.148132
0.321107 0.773572 0.148948
0.422289 0.797229 0.149531
0.516554 0.819608 0.149138
0.602986 0.838617 0.150218
0.680762 0.854218 0.151614
0.749321 0.866691 0.154436
0.808201 0.876332 0.158720
0.857517 0.883438 0.164338
0.897325 0.888608 0.172021
0.926848 0.892261 0.190863
0.955901 0.895248 0.213023
0.984953 0.898292 0.228577
0.059429 0.738577 0.191170
0.086731 0.758086 0.184526
0.145915 0.778872 0.177916
0.244952 0.799028 0.177732
0.353581 0.819573 0.181770
0.448151 0.841397 0.185766
0.537248 0.862085 0.190026
0.618986 0.879402 0.194267
0.692809 0.893702 0.198830
0.758017 0.905232 0.203927
0.814434 0.914265 0.209755
0.862230 0.921154 0.216344
0.901565 0.926315 0.224141
0.930687 0.929810 0.239730
0.959746 0.932702 0.257697
0.988798 0.935553 0.273376
0.005027 0.001597 0.037735
0.041031 0.010575 0.041505
0.077309 0.016444 0.044892
0.114997 0.022576 0.048351
0.156032 0.029922 0.052319
0.202462 0.038321 0.056304
0.255736 0.047395 0.059804
0.316100 0.056616 0.062737
0.381766 0.064862 0.066108
0.448632 0.070808 0.070188
0.512742 0.074244 0.074353
0.571699 0.075555 0.078503
0.624312 0.075636 0.082488
0.670782 0.075552 0.086158
0.712441 0.076107 0.089464
0.750593 0.077751 0.092587
0.017236 0.047809 0.047064
0.049493 0.051136 0.050030
0.084620 0.055207 0.053311
0.122749 0.060776 0.056915
0.165271 0.067867 0.060724
0.213943 0.076327 0.064202
0.270149 0.085736 0.067295
0.333746 0.095319 0.070432
0.401845 0.104142 0.074036
0.470469 0.110669 0.077774
0.535306 0.114393 0.081826
0.593854 0.116418 0.085811
0.645399 0.117777 0.089527
0.690658 0.119201 0.092988
0.731205 0.121345 0.096302
0.768916 0.125059 0.099637
0.024855 0.089089 0.056722
0.057346 0.092194 0.059346
0.092063 0.095914 0.062335
0.130797 0.101297 0.065914
0.174991 0.108503 0.069557
0.226388 0.117461 0.072897
0.286042 0.127561 0.076102
0.352742 0.137810 0.079372
0.423049 0.147077 0.082723
0.493201 0.154375 0.086052
0.558388 0.159050 0.089826
0.616446 0.162355 0.093604
0.667034 0.165065 0.097120
0.711109 0.167785 0.100457
0.750776 0.171443 0.103822
0.788162 0.176727 0.107417
0.029338 0.131936 0.066674
0.062858 0.135263 0.069185
0.098737 0.139511 0.072258
0.138669 0.145155 0.075807
0.185098 0.152541 0.079211
0.239499 0.162139 0.082461
0.302821 0.173108 0.085617
0.372624 0.184210 0.088659
0.444992 0.194222 0.091666
0.516089 0.202383 0.094868
0.582400 0.208588 0.098472
0.639787 0.213078 0.102080
0.689117 0.216795 0.105337
0.732189 0.220617 0.108519
0.771351 0.225508 0.111909
0.808176 0.231876 0.115961
0.023135 0.177296 0.076857
0.059280 0.181138 0.079375
0.102047 0.186156 0.082600
0.145903 0.192740 0.086193
0.195242 0.200946 0.089469
0.253119 0.211246 0.092527
0.320421 0.223241 0.095353
0.393455 0.235413 0.098031
0.468056 0.246558 0.100835
0.540290 0.255970 0.103965
0.606494 0.263332 0.107422
0.663916 0.268786 0.110664
0.711725 0.273131 0.113326
0.754006 0.277929 0.116610
0.792651 0.284081 0.120555
0.829080 0.291790 0.125011
0.024030 0.225320 0.089256
0.053221 0.230289 0.091123
0.094421 0.236800 0.093378
0.150097 0.244871 0.096615
0.205367 0.254867 0.099930
0.268291 0.267039 0.102882
0.339735 0.280187 0.105442
0.415902 0.293382 0.107788
0.492956 0.305866 0.110199
0.566111 0.316427 0.112897
0.631532 0.324566 0.115752
0.687832 0.330646 0.118594
0.735462 0.335781 0.121434
0.777260 0.342008 0.125147
0.815665 0.349777 0.129383
0.852005 0.358991 0.133998
0.026167 0.277263 0.103847
0.052871 0.283639 0.105665
0.087384 0.292251 0.106534
0.138399 0.302943 0.107451
0.214867 0.315031 0.110397
0.284353 0.329583 0.113091
0.361047 0.345272 0.115251
0.440887 0.360007 0.117008
0.519647 0.372833 0.118843
0.592900 0.384193 0.121075
0.657787 0.393530 0.123617
0.713583 0.400956 0.126459
0.761246 0.407307 0.129838
0.803012 0.414880 0.133639
0.840968 0.423774 0.137696
0.877088 0.434024 0.142086
0.030767 0.334389 0.120161
0.062074 0.342130 0.122662
0.089400 0.353266 0.121622
0.140265 0.366765 0.120087
0.220716 0.381848 0.120802
0.300183 0.399026 0.122874
0.383384 0.417772 0.124145
0.467481 0.434992 0.125031
0.547412 0.448828 0.126490
0.620842 0.460824 0.128106
0.685822 0.471305 0.130099
0.741557 0.479972 0.132885
0.788946 0.487348 0.136381
0.830287 0.495084 0.139898
0.867575 0.504066 0.143527
0.903229 0.514619 0.147643
0.034368 0.395896 0.137125
0.072541 0.404804 0.140051
0.094840 0.418173 0.137853
0.137024 0.434774 0.133243
0.214065 0.453341 0.130668
0.315318 0.473219 0.131924
0.405579 0.494723 0.132346
0.494429 0.514881 0.132062
0.576080 0.530228 0.132067
0.649885 0.543394 0.132321
0.714613 0.554553 0.133402
0.769994 0.563657 0.135593
0.816792 0.571109 0.138541
0.857085 0.578180 0.142023
0.893764 0.586275 0.145148
0.928745 0.596028 0.148266
0.037963 0.458066 0.153610
0.081252 0.467647 0.156419
0.097850 0.482685 0.153726
0.127325 0.502917 0.144259
0.216390 0.524503 0.139949
0.331859 0.546867 0.140264
0.427916 0.570249 0.139335
0.519779 0.591888 0.137482
0.603965 0.609052 0.135293
0.677851 0.622771 0.133023
0.741770 0.634040 0.131523
0.796018 0.643221 0.132577
0.841981 0.650946 0.136422
0.881511 0.657218 0.141067
0.917387 0.663799 0.144425
0.951453 0.671517 0.148178
0.046956 0.516355 0.168464
0.085249 0.526487 0.170814
0.100259 0.542588 0.168659
0.126875 0.566303 0.153837
0.232183 0.589566 0.148939
0.349135 0.613413 0.147974
0.448832 0.637579 0.145939
0.542034 0.659572 0.142610
0.627019 0.677348 0.137723
0.701420 0.691303 0.127937
0.764118 0.702140 0.130286
0.816880 0.710700 0.134972
0.861685 0.717755 0.140726
0.900744 0.723970 0.146787
0.935814 0.729559 0.153449
0.968302 0.735433 0.161774
0.044667 0.568400 0.180990
0.076204 0.579862 0.183358
0.101149 0.596048 0.182907
0.130202 0.622217 0.162984
0.250945 0.645637 0.158848
0.366160 0.670000 0.157481
0.467379 0.694232 0.155388
0.560557 0.715886 0.152139
0.644755 0.733375 0.146761
0.718981 0.747271 0.138224
0.781106 0.757731 0.143328
0.832457 0.765480 0.149185
0.876047 0.771705 0.156163
0.913003 0.777092 0.163995
0.944872 0.782124 0.173524
0.974164 0.786977 0.186653
0.049330 0.614001 0.193446
0.081733 0.627044 0.195546
0.104995 0.645073 0.192173
0.134047 0.671122 0.172460
0.270687 0.693921 0.171245
0.383521 0.718380 0.170975
0.484292 0.742278 0.170070
0.576261 0.763202 0.168589
0.659031 0.780209 0.166358
0.731976 0.793751 0.165241
0.794208 0.804177 0.168604
0.844439 0.811389 0.171590
0.886464 0.816893 0.179157
0.919592 0.821516 0.191491
0.948957 0.825455 0.209349
0.978010 0.829171 0.227085
0.058011 0.655624 0.206286
0.088543 0.670199 0.207084
0.108840 0.689582 0.201362
0.150818 0.714867 0.186648
0.292998 0.737765 0.186879
0.401751 0.762070 0.188254
0.500387 0.785213 0.189047
0.590142 0.805110 0.189505
0.671002 0.821423 0.190511
0.742336 0.834507 0.192936
0.803157 0.844558 0.196829
0.853386 0.851676 0.201658
0.893110 0.856613 0.208451
0.923749 0.860397 0.223846
0.952802 0.863877 0.240039
0.981855 0.867259 0.253863
0.068986 0.695524 0.220252
0.089708 0.711792 0.219706
0.112831 0.732859 0.212991
0.172631 0.757680 0.204759
0.315880 0.780484 0.206953
0.421371 0.804128 0.210749
0.516742 0.826298 0.214483
0.603630 0.844996 0.217754
0.681929 0.860427 0.221639
0.750810 0.872857 0.226666
0.809634 0.882425 0.232620
0.858539 0.889401 0.238757
0.898346 0.894458 0.245211
0.927595 0.897734 0.262474
0.956647 0.901071 0.276509
0.985700 0.904236 0.290352
0.061173 0.744478 0.241507
0.088192 0.763438 0.239822
0.127006 0.784680 0.236134
0.210356 0.806054 0.236057
0.347936 0.826698 0.241922
0.445697 0.848369 0.247586
0.536255 0.868832 0.253765
0.618915 0.885918 0.259498
0.693200 0.900095 0.265111
0.758499 0.911560 0.270947
0.814771 0.920479 0.277192
0.862464 0.927249 0.283878
0.902040 0.932335 0.291667
0.931422 0.935742 0.306301
0.960492 0.938887 0.320046
0.989545 0.941716 0.336029
0.004040 0.006231 0.073828
0.041789 0.013437 0.077062
0.078578 0.019000 0.080236
0.116667 0.024927 0.083617
0.158131 0.031810 0.087287
0.205011 0.039917 0.090884
0.258907 0.049050 0.094109
0.320342 0.058209 0.097503
0.387201 0.066427 0.101429
0.454974 0.072331 0.105585
0.519474 0.075472 0.109732
0.578486 0.076360 0.113939
0.631030 0.075953 0.118077
0.677409 0.075315 0.122004
0.718932 0.075464 0.125797
0.757036 0.077482 0.129546
0.017897 0.050165 0.082189
0.050669 0.053319 0.085088
0.086108 0.057636 0.088181
0.124671 0.063132 0.091580
0.167536 0.069864 0.095147
0.216577 0.078191 0.098902
0.273611 0.087702 0.102424
0.338492 0.097360 0.106038
0.407725 0.106104 0.110089
0.476972 0.112507 0.114136
0.541972 0.115984 0.118224
0.600538 0.117725 0.122342
0.652037 0.118782 0.126340
0.697240 0.120054 0.130218
0.737759 0.122399 0.134055
0.775354 0.126501 0.137865
0.025137 0.091240 0.091095
0.058095 0.094315 0.093894
0.093378 0.098142 0.096697
0.132500 0.103643 0.100338
0.177099 0.110761 0.104405
0.229153 0.119740 0.108244
0.289817 0.129872 0.111905
0.357556 0.140117 0.115668
0.428585 0.149332 0.119564
0.499106 0.156538 0.123294
0.564887 0.161211 0.127327
0.623094 0.164336 0.131510
0.673582 0.166828 0.135456
0.717632 0.169600 0.139217
0.757299 0.173521 0.142987
0.794386 0.178967 0.147066
0.028405 0.134157 0.100362
0.062638 0.137546 0.103496
0.099411 0.142002 0.106920
0.139829 0.147782 0.110765
0.187065 0.155335 0.114805
0.242639 0.165016 0.118612
0.306979 0.175994 0.122341
0.377453 0.187021 0.126007
0.450326 0.196919 0.129569
0.521943 0.205017 0.133157
0.588839 0.211363 0.137207
0.646498 0.215813 0.141315
0.695480 0.219186 0.144904
0.738379 0.222981 0.148438
0.777354 0.228056 0.152422
0.813883 0.234590 0.157074
0.021585 0.179674 0.111197
0.056334 0.183764 0.114209
0.100257 0.189143 0.117949
0.146491 0.195906 0.122104
0.197150 0.204119 0.125891
0.256667 0.214817 0.129663
0.324869 0.226994 0.133339
0.398467 0.239042 0.136758
0.473703 0.249994 0.140119
0.546541 0.259316 0.143720
0.612983 0.266727 0.147572
0.670477 0.272137 0.151216
0.717877 0.276213 0.154464
0.759948 0.281114 0.158142
0.798449 0.287515 0.162573
0.834687 0.295374 0.167574
0.025056 0.228142 0.124317
0.053545 0.233376 0.126945
0.093755 0.240256 0.130012
0.148976 0.248616 0.133722
0.207038 0.258625 0.137546
0.271331 0.271060 0.141262
0.343868 0.284402 0.144788
0.421120 0.297881 0.148090
0.498982 0.310343 0.151386
0.572395 0.320684 0.154705
0.637754 0.328606 0.157984
0.694075 0.334728 0.161335
0.741899 0.340065 0.164983
0.783331 0.346294 0.168857
0.821403 0.354236 0.173881
0.857445 0.363695 0.179702
0.028177 0.280992 0.139743
0.056372 0.287372 0.142684
0.089752 0.296196 0.144419
0.138577 0.307234 0.146071
0.215003 0.319513 0.149667
0.285934 0.333825 0.153182
0.364430 0.349647 0.156481
0.446006 0.364956 0.159775
0.525534 0.378182 0.162736
0.598931 0.389333 0.165451
0.663939 0.398485 0.168450
0.719932 0.406071 0.172095
0.767519 0.412738 0.176464
0.808625 0.419766 0.180491
0.846216 0.428969 0.185733
0.882233 0.439925 0.191940
0.029423 0.339163 0.156949
0.063330 0.346717 0.160279
0.089917 0.357868 0.160592
0.139825 0.371793 0.160498
0.217662 0.387475 0.162023
0.300919 0.404460 0.165263
0.386697 0.423378 0.168131
0.472695 0.441322 0.170868
0.553262 0.455165 0.173032
0.626897 0.466830 0.175310
0.691945 0.477211 0.178679
0.747555 0.485957 0.182881
0.794518 0.493305 0.187022
0.835055 0.500442 0.190886
0.872273 0.510014 0.196310
0.908007 0.521633 0.202877
0.036387 0.401169 0.175053
0.067786 0.410093 0.178410
0.092145 0.423178 0.178787
0.132192 0.440699 0.175625
0.209259 0.460317 0.174211
0.316988 0.480549 0.177037
0.409839 0.502284 0.179196
0.500129 0.522648 0.180572
0.582353 0.537801 0.182222
0.656073 0.550462 0.184625
0.720487 0.561275 0.187828
0.775360 0.570125 0.191687
0.821580 0.577395 0.195892
0.861372 0.584308 0.200444
0.897955 0.593003 0.206003
0.932891 0.603569 0.212614
0.049964 0.463458 0.192944
0.071014 0.473502 0.196026
0.101762 0.488011 0.197130
0.127382 0.509452 0.188985
0.215835 0.531985 0.185845
0.333375 0.554859 0.187704
0.431910 0.578404 0.189452
0.524616 0.599880 0.190653
0.609439 0.616903 0.191811
0.683456 0.630432 0.194046
0.747295 0.641729 0.197403
0.801077 0.650802 0.201452
0.846164 0.657817 0.205901
0.885047 0.663791 0.210841
0.920662 0.670758 0.216545
0.954547 0.679018 0.223237
0.057348 0.521963 0.209133
0.080463 0.532769 0.212036
0.112082 0.548395 0.213227
0.130148 0.572867 0.200802
0.232290 0.596657 0.197547
0.348530 0.620977 0.198752
0.451157 0.645267 0.200423
0.545576 0.667252 0.201722
0.631237 0.685023 0.203053
0.706215 0.699048 0.205154
0.768769 0.709848 0.208344
0.821027 0.718237 0.212487
0.865117 0.724996 0.217493
0.903591 0.731096 0.222876
0.938063 0.736499 0.228934
0.970101 0.742503 0.236322
0.061431 0.573747 0.223603
0.099918 0.585473 0.226757
0.101896 0.602575 0.226516
0.130949 0.628403 0.213374
0.247828 0.652356 0.210735
0.363707 0.677050 0.211818
0.468349 0.701401 0.213838
0.563089 0.723180 0.215769
0.648157 0.740772 0.217798
0.722484 0.754544 0.220179
0.784547 0.764822 0.223114
0.835357 0.772441 0.227409
0.878480 0.778741 0.233531
0.914566 0.784116 0.240177
0.945767 0.788962 0.247499
0.974911 0.793532 0.257288
0.060103 0.619322 0.237408
0.096809 0.632440 0.240666
0.105741 0.650970 0.239163
0.135542 0.676990 0.227259
0.264664 0.700755 0.226414
0.380448 0.725319 0.228606
0.484378 0.749206 0.231330
0.577752 0.770138 0.233936
0.661334 0.787179 0.236732
0.734396 0.800622 0.240131
0.796180 0.810784 0.243969
0.846116 0.817911 0.248455
0.887845 0.823642 0.255328
0.920447 0.828145 0.266349
0.949704 0.831957 0.278858
0.978756 0.835681 0.290497
0.068790 0.661053 0.252450
0.098780 0.675366 0.255868
0.109587 0.695199 0.253922
0.153044 0.720945 0.245540
0.284336 0.745051 0.245426
0.398437 0.769172 0.249191
0.499559 0.792146 0.252887
0.590666 0.811967 0.256206
0.672366 0.828299 0.259933
0.743795 0.841301 0.264476
0.804143 0.851139 0.269484
0.853867 0.858148 0.274518
0.894055 0.863311 0.280721
0.924496 0.867088 0.293379
0.953549 0.870540 0.305166
0.982602 0.873508 0.319994
0.076107 0.701751 0.269077
0.096552 0.717655 0.272470
0.113432 0.739022 0.270632
0.171739 0.764324 0.266311
0.305738 0.788085 0.269031
0.418340 0.811611 0.275108
0.515942 0.833696 0.280901
0.604071 0.852306 0.285883
0.682891 0.867612 0.291128
0.751682 0.879849 0.296992
0.810092 0.889250 0.303245
0.858737 0.896139 0.309404
0.899289 0.901110 0.315152
0.928340 0.904477 0.327525
0.957394 0.907881 0.339887
0.986447 0.910719 0.356675
0.064351 0.751251 0.294169
0.089206 0.769568 0.296883
0.117277 0.791152 0.296046
0.197750 0.813399 0.297249
0.339837 0.834292 0.304188
0.442970 0.855910 0.311350
0.535843 0.876430 0.318775
0.619181 0.893368 0.325414
0.693666 0.907255 0.331577
0.758909 0.918451 0.337862
0.814945 0.927242 0.344528
0.862483 0.933934 0.351283
0.902174 0.938911 0.358227
0.932167 0.942549 0.369027
0.961239 0.945414 0.384159
0.990292 0.948469 0.397995
0.006229 0.013761 0.109536
0.041877 0.015958 0.114803
0.079224 0.021036 0.118296
0.117875 0.026857 0.121994
0.159811 0.033489 0.125960
0.207200 0.041387 0.129819
0.261739 0.050440 0.133429
0.324102 0.059604 0.137104
0.392107 0.067940 0.141163
0.460928 0.073819 0.144914
0.525762 0.076594 0.149232
0.584763 0.076994 0.153689
0.637073 0.076000 0.157993
0.683085 0.074756 0.162232
0.724262 0.074698 0.166864
0.762220 0.077373 0.171483
0.017155 0.052622 0.120292
0.050838 0.055534 0.123171
0.086815 0.059839 0.126636
0.125965 0.065272 0.130720
0.169322 0.071836 0.134749
0.218875 0.080030 0.138358
0.276774 0.089484 0.141875
0.342876 0.099189 0.145897
0.413044 0.107881 0.150705
0.482784 0.114101 0.154745
0.548031 0.117423 0.159228
0.606582 0.118978 0.163833
0.657831 0.119780 0.168166
0.702740 0.120987 0.172529
0.743032 0.123612 0.177135
0.780398 0.128131 0.181769
0.023242 0.093516 0.129465
0.057410 0.096604 0.132525
0.093613 0.100690 0.136083
0.133655 0.106348 0.140284
0.178981 0.113427 0.144353
0.231637 0.122147 0.147953
0.293320 0.132136 0.152171
0.362130 0.142408 0.156822
0.433803 0.151612 0.161425
0.504568 0.158603 0.165453
0.570753 0.163248 0.170077
0.628888 0.166278 0.174932
0.679137 0.168696 0.179357
0.722956 0.171578 0.183651
0.762318 0.175698 0.188149
0.798982 0.181346 0.193224
0.026584 0.136750 0.139342
0.059213 0.140379 0.142891
0.098561 0.144977 0.146632
0.140496 0.150799 0.150640
0.188701 0.158487 0.155077
0.245306 0.168128 0.159555
0.310737 0.179126 0.164236
0.382056 0.190148 0.168817
0.455518 0.199925 0.173049
0.527456 0.207809 0.177178
0.594195 0.213959 0.181842
0.651735 0.218289 0.186641
0.700460 0.221646 0.190857
0.743069 0.225560 0.194991
0.781667 0.230826 0.199793
0.817831 0.237592 0.205594
0.024550 0.182586 0.150492
0.053223 0.187061 0.153970
0.094141 0.192677 0.158151
0.145627 0.199336 0.162607
0.198000 0.207507 0.167054
0.259335 0.218755 0.172239
0.328738 0.231185 0.177217
0.403196 0.243218 0.181582
0.479002 0.253924 0.185668
0.551863 0.262854 0.189886
0.617826 0.269964 0.194340
0.674989 0.275414 0.198846
0.722560 0.279829 0.203186
0.764291 0.285003 0.207632
0.802380 0.291533 0.212954
0.838267 0.299377 0.219087
0.029547 0.231588 0.163540
0.055841 0.237100 0.167446
0.091419 0.244200 0.171527
0.142470 0.252808 0.175894
0.206821 0.262819 0.180688
0.273018 0.275318 0.185795
0.347588 0.289231 0.190674
0.426155 0.303131 0.195133
0.504235 0.315265 0.199399
0.577310 0.325107 0.203526
0.642532 0.333078 0.207691
0.698953 0.339791 0.212170
0.746903 0.345629 0.216931
0.787576 0.351621 0.221512
0.825090 0.359245 0.227115
0.860908 0.368664 0.233541
0.030297 0.285389 0.179577
0.061695 0.291784 0.183730
0.091375 0.300737 0.187053
0.136388 0.311978 0.190430
0.212334 0.324572 0.194960
0.286362 0.338748 0.199793
0.367325 0.354950 0.204609
0.450588 0.370800 0.209363
0.530607 0.384349 0.213672
0.604063 0.395563 0.217748
0.669102 0.404999 0.221964
0.725022 0.412967 0.226388
0.772231 0.419536 0.230738
0.812417 0.425325 0.234895
0.849477 0.434276 0.240974
0.885476 0.445883 0.248559
0.029938 0.344413 0.197809
0.062333 0.351962 0.202001
0.089119 0.362904 0.204813
0.132873 0.377173 0.206807
0.203669 0.393626 0.209443
0.300602 0.410898 0.214324
0.388898 0.430103 0.219138
0.476552 0.448226 0.223623
