tools/decompiled/apktool/res/raw/fashion.cube
LUT_3D_SIZE 6
0.017928 -0.001707 -0.023702
0.276449 0.026063 -0.024485
0.590818 0.038783 -0.043767
0.706335 0.022476 -0.059556
0.767526 0.002527 -0.070291
0.802054 -0.012717 -0.074472
0.076861 0.135752 -0.000420
0.225085 0.144665 -0.004538
0.439324 0.169612 -0.014239
0.633276 0.185600 -0.030736
0.747973 0.186615 -0.044779
0.816570 0.184157 -0.050935
0.189261 0.382358 0.014378
0.330202 0.393350 0.007313
0.522708 0.418735 -0.006490
0.695811 0.440252 -0.025251
0.806826 0.448067 -0.041223
0.873643 0.448781 -0.046727
0.331282 0.592209 0.034133
0.455211 0.609985 0.023242
0.606365 0.631911 0.007653
0.754988 0.651069 -0.006449
0.857008 0.660376 -0.018559
0.917637 0.662466 -0.021959
0.515559 0.753987 0.072988
0.598218 0.765394 0.062028
0.710577 0.780736 0.046199
0.815019 0.794972 0.030887
0.897483 0.805434 0.019851
0.946725 0.809482 0.016317
0.681965 0.865765 0.121697
0.731826 0.873152 0.111679
0.803352 0.884276 0.096406
0.866373 0.893607 0.082423
0.926486 0.902955 0.069328
0.966297 0.908266 0.062404
-0.017260 0.013009 0.136089
0.227969 0.030298 0.087862
0.510657 0.050292 0.068841
0.684331 0.037313 0.051763
0.767934 0.015852 0.043152
0.809428 -0.000984 0.042484
0.047156 0.133864 0.122696
0.209783 0.140108 0.107048
0.417790 0.162095 0.093301
0.624094 0.179941 0.078104
0.748259 0.182656 0.067787
0.824214 0.181550 0.063818
0.151447 0.377429 0.150930
0.304423 0.386463 0.139443
0.497235 0.408949 0.123541
0.682965 0.432482 0.105023
0.801565 0.442584 0.091694
0.874306 0.445605 0.085323
0.291047 0.599239 0.181999
0.424360 0.612153 0.169724
0.586851 0.632759 0.151471
0.750327 0.652388 0.124488
0.853392 0.661553 0.105874
0.919774 0.665205 0.095871
0.489852 0.764698 0.216410
0.581417 0.774669 0.200457
0.699316 0.789070 0.177006
0.812233 0.803661 0.151468
0.895159 0.813525 0.131270
0.947833 0.818030 0.119430
0.668567 0.876992 0.241809
0.720945 0.884111 0.229183
0.799060 0.895735 0.208514
0.863189 0.904507 0.189155
0.926206 0.913763 0.168629
0.965678 0.918484 0.155908
-0.044946 0.016461 0.372926
0.179909 0.032506 0.307769
0.440671 0.054398 0.283463
0.648467 0.051366 0.262991
0.761208 0.031727 0.247082
0.822636 0.014217 0.238049
-0.030319 0.154780 0.355164
0.193965 0.158739 0.326915
0.405803 0.177262 0.306016
0.619903 0.194733 0.287322
0.755262 0.197551 0.272118
0.833717 0.195776 0.262527
0.056093 0.394812 0.385434
0.269218 0.402284 0.367656
0.475841 0.421293 0.347945
0.668988 0.443069 0.327507
0.797994 0.453601 0.310167
0.878681 0.456508 0.296244
0.210299 0.614549 0.417118
0.377420 0.626021 0.404474
0.565262 0.645144 0.382131
0.739804 0.663452 0.343106
0.849412 0.672623 0.312929
0.920979 0.676581 0.291609
0.443016 0.778544 0.434446
0.551109 0.788045 0.414227
0.679936 0.801563 0.384936
0.804421 0.816523 0.350492
0.888696 0.825548 0.322181
0.945618 0.830274 0.301070
0.642379 0.890610 0.445226
0.699439 0.897344 0.430877
0.784068 0.908481 0.406918
0.854508 0.917454 0.381950
0.920706 0.926607 0.355627
0.961572 0.931061 0.336883
-0.055840 0.006149 0.549766
0.162534 0.021399 0.521738
0.395183 0.043795 0.511309
0.621408 0.048289 0.502622
0.751849 0.032228 0.491324
0.826363 0.012892 0.482472
-0.081846 0.168518 0.573338
0.180056 0.172195 0.553698
0.392739 0.188278 0.541486
0.606320 0.205776 0.530772
0.749603 0.210202 0.518871
0.835610 0.208964 0.508792
-0.131315 0.407106 0.618503
0.226348 0.415217 0.605308
0.450698 0.432362 0.592785
0.650071 0.453138 0.580425
0.788374 0.464340 0.565002
0.877131 0.466575 0.542219
0.059588 0.624150 0.657418
0.317873 0.635220 0.648638
0.538131 0.653314 0.627392
0.720097 0.670653 0.594541
0.838615 0.680751 0.565320
0.915659 0.685438 0.541796
0.378227 0.786785 0.671566
0.509061 0.795989 0.655374
0.653403 0.809321 0.632142
0.790891 0.824927 0.603839
0.876882 0.833560 0.578311
0.938625 0.838927 0.556048
0.608652 0.898597 0.679615
0.671681 0.905060 0.669742
0.762197 0.915875 0.652952
0.841674 0.925840 0.632317
0.909359 0.934541 0.610394
0.954336 0.939504 0.591248
-0.055705 0.020871 0.666547
0.162910 0.028236 0.658152
0.374166 0.045522 0.660294
0.595776 0.053478 0.664562
0.738535 0.041518 0.662441
0.820137 0.026082 0.658333
-0.095589 0.185419 0.704985
0.176048 0.188545 0.696578
0.386295 0.202472 0.695974
0.595799 0.219389 0.697747
0.742931 0.225096 0.694823
0.833922 0.224440 0.689808
-0.209301 0.417135 0.762706
0.201484 0.426183 0.756757
0.435354 0.442122 0.755331
0.635904 0.461890 0.754982
0.780794 0.472916 0.744733
0.873450 0.476348 0.729298
-0.136435 0.628216 0.811032
0.278100 0.639798 0.808265
0.518393 0.656854 0.798292
0.704628 0.673692 0.783193
0.828467 0.684393 0.767883
0.909140 0.689688 0.753101
0.329431 0.789214 0.836994
0.478938 0.798278 0.829991
0.633458 0.811304 0.820798
0.777863 0.827123 0.809525
0.866309 0.835810 0.796917
0.931645 0.841947 0.783808
0.583372 0.901057 0.858847
0.650430 0.907318 0.855565
0.745003 0.918022 0.850048
0.830884 0.928333 0.842004
0.899447 0.937077 0.831804
0.947731 0.942651 0.821127
-0.056093 0.062307 0.733527
0.170413 0.063748 0.737826
0.368175 0.074374 0.751575
0.579654 0.082704 0.767619
0.726837 0.075612 0.775542
0.816722 0.063392 0.778381
-0.102092 0.216391 0.779187
0.181595 0.215825 0.780899
0.386113 0.227729 0.791458
0.589899 0.243817 0.805124
0.738374 0.250428 0.812284
0.832607 0.250368 0.814425
-0.226212 0.433124 0.845227
0.192544 0.442260 0.847489
0.428903 0.457259 0.856379
0.627216 0.475854 0.867553
0.775847 0.486411 0.867423
0.870708 0.490166 0.862426
-0.197551 0.633787 0.903028
0.260288 0.645751 0.906314
0.508381 0.661749 0.909553
0.694354 0.677928 0.913130
0.820834 0.688874 0.913790
0.903995 0.694668 0.911537
0.303567 0.790928 0.944599
0.462348 0.799653 0.947220
0.620795 0.812338 0.952494
0.765954 0.827633 0.959973
0.857902 0.836831 0.961391
0.925908 0.843550 0.961448
0.567122 0.901660 0.986367
0.636096 0.907804 0.990220
0.732412 0.918083 0.996757
0.822378 0.928988 1.003281
0.891192 0.937612 1.006235
0.942139 0.943864 1.006805
