tools/decompiled/apktool/res/raw/fashion.cube
LUT_3D_SIZE 16
0.017928 -0.001707 -0.023702
0.075114 0.003056 -0.023521
0.172435 0.013757 -0.023355
0.276449 0.026063 -0.024485
0.399846 0.036935 -0.029010
0.515028 0.040907 -0.036778
0.590818 0.038783 -0.043767
0.640338 0.034002 -0.049819
0.677918 0.028334 -0.055066
0.706335 0.022476 -0.059556
0.732777 0.015262 -0.064172
0.753500 0.008321 -0.068060
0.767526 0.002527 -0.070291
0.779704 -0.003755 -0.071906
0.791503 -0.008512 -0.073536
0.802054 -0.012717 -0.074472
0.032091 0.024348 -0.018295
0.064566 0.025875 -0.018441
0.119861 0.030764 -0.018479
0.184373 0.038034 -0.018682
0.260459 0.047247 -0.019587
0.347650 0.057222 -0.021912
0.434179 0.065355 -0.025699
0.514338 0.069694 -0.031145
0.580077 0.070909 -0.036945
0.632171 0.069973 -0.042604
0.676915 0.067428 -0.048529
0.709035 0.064779 -0.053099
0.737869 0.061655 -0.057433
0.762827 0.058456 -0.061569
0.780198 0.056530 -0.063788
0.794705 0.055167 -0.064213
0.050856 0.071722 -0.009540
0.089638 0.072625 -0.010061
0.139735 0.075875 -0.010650
0.197291 0.081748 -0.011406
0.265496 0.090004 -0.012811
0.343657 0.099765 -0.015287
0.426133 0.109338 -0.019112
0.502361 0.116130 -0.024273
0.572330 0.120629 -0.030392
0.625003 0.122312 -0.035905
0.671793 0.122315 -0.041796
0.709068 0.121458 -0.046976
0.737773 0.120203 -0.051014
0.764746 0.118663 -0.054650
0.786993 0.117325 -0.056489
0.803084 0.116534 -0.056658
0.076861 0.135752 -0.000420
0.121839 0.136878 -0.001639
0.170445 0.139880 -0.002927
0.225085 0.144665 -0.004538
0.288095 0.151413 -0.006707
0.361407 0.160235 -0.009890
0.439324 0.169612 -0.014239
0.510943 0.176832 -0.019373
0.581220 0.182797 -0.025478
0.633276 0.185600 -0.030736
0.678439 0.186825 -0.036177
0.718744 0.187161 -0.041632
0.747973 0.186615 -0.044779
0.774002 0.185805 -0.047281
0.799137 0.184919 -0.049899
0.816570 0.184157 -0.050935
0.107278 0.218411 0.007317
0.159214 0.219236 0.005672
0.206190 0.221128 0.004008
0.259905 0.224979 0.001905
0.319535 0.230380 -0.000858
0.390422 0.238418 -0.004620
0.463843 0.247045 -0.009248
0.531710 0.254034 -0.014579
0.598635 0.260638 -0.020947
0.651730 0.264766 -0.026766
0.694659 0.266913 -0.031643
0.735815 0.268508 -0.036825
0.765950 0.268713 -0.040517
0.790969 0.268383 -0.043482
0.815052 0.268019 -0.046167
0.836107 0.267519 -0.048065
0.147084 0.302180 0.012113
0.197905 0.304261 0.010215
0.244768 0.307367 0.008219
0.295587 0.311691 0.005793
0.354313 0.317884 0.002554
0.423973 0.326866 -0.001735
0.493758 0.336088 -0.006729
0.558215 0.343941 -0.012330
0.622068 0.351438 -0.018950
0.674856 0.356355 -0.025220
0.715785 0.358548 -0.030622
0.755515 0.360430 -0.036373
0.787530 0.361076 -0.040558
0.811370 0.360623 -0.042990
0.834209 0.360154 -0.045016
0.856310 0.359776 -0.046737
0.189261 0.382358 0.014378
0.238917 0.385579 0.012178
0.283851 0.389234 0.009910
0.330202 0.393350 0.007313
0.391413 0.400824 0.003349
0.457420 0.409702 -0.001257
0.522708 0.418735 -0.006490
0.583838 0.426760 -0.012187
0.644443 0.434530 -0.018875
0.695811 0.440252 -0.025251
0.734850 0.443246 -0.030369
0.772943 0.446098 -0.035962
0.806826 0.448067 -0.041223
0.829897 0.448192 -0.043951
0.852145 0.448366 -0.046054
0.873643 0.448781 -0.046727
0.237104 0.456769 0.018368
0.281833 0.460901 0.015834
0.321441 0.464841 0.013378
0.368514 0.470472 0.010181
0.428506 0.479090 0.005629
0.490091 0.488045 0.000770
0.550383 0.496675 -0.004059
0.608357 0.504611 -0.009902
0.666141 0.512630 -0.016865
0.715168 0.518546 -0.023445
0.752697 0.521958 -0.028330
0.789430 0.525273 -0.033398
0.824282 0.528263 -0.038412
0.846725 0.528833 -0.039843
0.868461 0.529282 -0.040810
0.889733 0.529578 -0.040675
0.285710 0.526888 0.025770
0.324232 0.530504 0.023130
0.363772 0.534888 0.020205
0.411835 0.541180 0.016353
0.466381 0.548916 0.011573
0.523186 0.557290 0.006324
0.578206 0.565490 0.001324
0.632988 0.573631 -0.003348
0.687751 0.581854 -0.009442
0.733266 0.587954 -0.015103
0.769719 0.591666 -0.019650
0.806204 0.594959 -0.024275
0.841454 0.598135 -0.028928
0.864066 0.599004 -0.030282
0.885126 0.599698 -0.030993
0.905088 0.600363 -0.031267
0.331282 0.592209 0.034133
0.372933 0.597797 0.030756
0.411899 0.603366 0.027327
0.455211 0.609985 0.023242
0.504788 0.617353 0.018277
0.555927 0.624663 0.012987
0.606365 0.631911 0.007653
0.657819 0.639398 0.002292
0.712217 0.646462 -0.002113
0.754988 0.651069 -0.006449
0.790046 0.654250 -0.010302
0.824167 0.657374 -0.014355
0.857008 0.660376 -0.018559
0.879245 0.661289 -0.020305
0.898865 0.661873 -0.021301
0.917637 0.662466 -0.021959
0.393102 0.648300 0.044084
0.428167 0.653106 0.040777
0.461565 0.657974 0.037432
0.499498 0.663692 0.033405
0.543375 0.670627 0.028419
0.588666 0.677753 0.023044
0.638237 0.684781 0.017322
0.689106 0.692183 0.011267
0.738771 0.699629 0.005430
0.775869 0.704482 0.001653
0.808702 0.708649 -0.000845
0.840699 0.712674 -0.003729
0.871797 0.716729 -0.006754
0.892931 0.718454 -0.007801
0.911585 0.719436 -0.008055
0.929311 0.720396 -0.007960
0.451793 0.703418 0.059451
0.481585 0.707612 0.056240
0.511264 0.711691 0.052871
0.547340 0.716292 0.048610
0.587512 0.721462 0.043653
0.630012 0.727203 0.038249
0.674606 0.733501 0.032427
0.720842 0.740328 0.026208
0.763097 0.746387 0.020536
0.795668 0.750548 0.016432
0.826100 0.754445 0.012812
0.855953 0.758260 0.009471
0.884766 0.762031 0.006453
0.904183 0.763807 0.005249
0.921730 0.765310 0.004544
0.938471 0.766725 0.004106
0.515559 0.753987 0.072988
0.543041 0.757741 0.069447
0.569188 0.761486 0.065951
0.598218 0.765394 0.062028
0.632818 0.769956 0.057303
0.670576 0.775030 0.051986
0.710577 0.780736 0.046199
0.752144 0.786746 0.040004
0.786856 0.791532 0.034887
0.815019 0.794972 0.030887
0.843072 0.798461 0.027008
0.870626 0.801969 0.023316
0.897483 0.805434 0.019851
0.914644 0.806831 0.018377
0.931008 0.808215 0.017217
0.946725 0.809482 0.016317
0.577615 0.792642 0.086429
0.599018 0.795541 0.083262
0.620105 0.798624 0.080049
0.645022 0.802294 0.076194
0.675293 0.806777 0.071368
0.708733 0.812139 0.065917
0.744486 0.817972 0.059983
0.779376 0.823710 0.054024
0.806904 0.828003 0.049316
0.832913 0.831990 0.044954
0.858880 0.836082 0.040620
0.884479 0.840248 0.036426
0.908334 0.844122 0.032658
0.924103 0.845590 0.030918
0.939347 0.847080 0.029427
0.954017 0.848563 0.028192
0.631935 0.829760 0.103125
0.650030 0.832313 0.099995
0.668154 0.835018 0.096795
0.689761 0.838155 0.092928
0.716166 0.842175 0.088090
0.745627 0.846945 0.082584
0.777271 0.852108 0.076549
0.802858 0.855992 0.071582
0.826115 0.859437 0.067063
0.849772 0.863131 0.062506
0.873686 0.866964 0.057956
0.897164 0.870713 0.053501
0.917528 0.873968 0.049874
0.932327 0.875825 0.047755
0.946549 0.877812 0.045894
0.960346 0.879823 0.044290
0.681965 0.865765 0.121697
0.697485 0.868036 0.118632
0.713123 0.870354 0.115498
0.731826 0.873152 0.111679
0.754911 0.876772 0.106864
0.780810 0.880872 0.101349
0.803352 0.884276 0.096406
0.823763 0.887186 0.091902
0.844888 0.890366 0.087201
0.866373 0.893607 0.082423
0.888214 0.897060 0.077574
0.909810 0.900620 0.072777
0.926486 0.902955 0.069328
0.940120 0.904659 0.066789
0.953499 0.906471 0.064484
0.966297 0.908266 0.062404
0.011158 0.001386 0.009475
0.082205 0.005841 0.000242
0.181666 0.016506 -0.002956
0.285782 0.028524 -0.005973
0.401831 0.038455 -0.010918
0.495421 0.042393 -0.016612
0.569455 0.041824 -0.022327
0.622488 0.037855 -0.027473
0.667297 0.032106 -0.032261
0.698958 0.026235 -0.035773
0.726383 0.019460 -0.038851
0.750528 0.011901 -0.041501
0.767022 0.005788 -0.042211
0.779885 0.000403 -0.041531
0.792055 -0.005452 -0.040456
0.803166 -0.010036 -0.039018
0.026880 0.023087 0.007466
0.064074 0.024781 0.003153
0.122305 0.030356 0.001132
0.187235 0.037949 -0.000510
0.262632 0.047085 -0.002235
0.348776 0.056884 -0.004743
0.434241 0.064910 -0.008240
0.513517 0.069270 -0.012810
0.579294 0.070603 -0.017419
0.630768 0.069822 -0.021568
0.676187 0.067508 -0.025629
0.709054 0.065087 -0.028283
0.737742 0.062297 -0.029945
0.763777 0.059203 -0.031033
0.782573 0.057238 -0.030851
0.797201 0.056057 -0.029856
0.044727 0.065908 0.016113
0.088092 0.067906 0.013254
0.139461 0.072228 0.011296
0.196988 0.078489 0.009473
0.264633 0.086761 0.007378
0.341848 0.096416 0.004594
0.423758 0.105969 0.000902
0.499257 0.112852 -0.003532
0.569999 0.117590 -0.008382
0.622919 0.119606 -0.012442
0.669542 0.119955 -0.016113
0.708289 0.119440 -0.018996
0.737496 0.118539 -0.020683
0.764409 0.117303 -0.022051
0.788474 0.116067 -0.022937
0.805269 0.115487 -0.022608
0.070671 0.128778 0.027010
0.119028 0.130015 0.024203
0.167869 0.133032 0.021940
0.221840 0.137738 0.019685
0.284154 0.144435 0.017063
0.356196 0.153141 0.013759
0.433494 0.162535 0.009680
0.505266 0.170026 0.005208
0.575285 0.176231 0.000303
0.629518 0.179609 -0.003663
0.674309 0.181181 -0.007138
0.716222 0.181959 -0.010528
0.746376 0.181851 -0.012585
0.772451 0.181439 -0.014099
0.797562 0.180936 -0.015452
0.817626 0.180506 -0.015960
0.101609 0.208496 0.037373
0.154060 0.209285 0.034602
0.200743 0.211213 0.032215
0.253766 0.215041 0.029593
0.312550 0.220400 0.026521
0.381957 0.228387 0.022681
0.455103 0.237522 0.018145
0.523633 0.245641 0.013217
0.590300 0.252864 0.007895
0.646695 0.257893 0.003161
0.689615 0.260393 -0.000308
0.731192 0.262393 -0.003720
0.763972 0.263287 -0.006188
0.789043 0.263372 -0.007642
0.813259 0.263471 -0.008684
0.836156 0.263541 -0.009060
0.138641 0.294169 0.046392
0.190415 0.296149 0.043542
0.236820 0.299023 0.040910
0.287907 0.303294 0.037937
0.345045 0.309115 0.034356
0.413967 0.317907 0.029755
0.483799 0.327130 0.024574
0.548949 0.335113 0.019169
0.612428 0.342395 0.013463
0.669184 0.348051 0.008149
0.710176 0.350662 0.004481
0.750016 0.352978 0.001141
0.785402 0.354612 -0.001163
0.809470 0.354665 -0.002054
0.832678 0.354795 -0.002677
0.855032 0.354957 -0.002995
0.178799 0.376411 0.054121
0.228079 0.379177 0.051265
0.274155 0.382776 0.048416
0.321296 0.386792 0.045264
0.380173 0.393562 0.041074
0.446531 0.402387 0.035967
0.512950 0.411589 0.030360
0.574546 0.419734 0.024672
0.635310 0.427749 0.018688
0.691029 0.434574 0.013025
0.730327 0.437916 0.009313
0.768730 0.441153 0.005827
0.805466 0.444008 0.002723
0.829196 0.444605 0.001639
0.851555 0.445203 0.000897
0.873158 0.445830 0.000409
0.223479 0.454329 0.062215
0.270300 0.458366 0.059119
0.310999 0.462121 0.056194
0.356936 0.466930 0.052675
0.417628 0.474674 0.047760
0.479936 0.483085 0.042246
0.541746 0.491821 0.036308
0.600135 0.499903 0.030271
0.658126 0.507920 0.023919
0.711209 0.514893 0.017917
0.748971 0.518482 0.013927
0.785794 0.521980 0.010183
0.821567 0.525209 0.006719
0.846063 0.526316 0.005239
0.868256 0.526532 0.004414
0.889545 0.526847 0.003863
0.272697 0.525219 0.069762
0.312333 0.528636 0.066780
0.351528 0.532656 0.063743
0.400185 0.538680 0.059743
0.455825 0.546268 0.054722
0.513689 0.554623 0.049028
0.570138 0.562908 0.043041
0.625311 0.571010 0.036719
0.680445 0.579222 0.030042
0.729786 0.586169 0.023911
0.766982 0.589801 0.019633
0.803633 0.593159 0.015584
0.838973 0.596381 0.011804
0.864203 0.597780 0.010064
0.885219 0.598460 0.009239
0.905272 0.599150 0.008735
0.318739 0.594042 0.079935
0.359440 0.598722 0.076520
0.400044 0.603679 0.072927
0.444658 0.609254 0.068737
0.495286 0.616014 0.063555
0.547948 0.623355 0.057783
0.599285 0.630523 0.051780
0.651472 0.637934 0.045288
0.706724 0.644925 0.038153
0.752984 0.650242 0.032211
0.788331 0.653472 0.027953
0.822526 0.656647 0.023967
0.855592 0.659784 0.020274
0.879939 0.661305 0.018284
0.899725 0.662034 0.017303
0.918523 0.662841 0.016640
0.380177 0.650548 0.091748
0.416717 0.655337 0.088357
0.451283 0.660090 0.084931
0.490320 0.665761 0.080807
0.535470 0.672629 0.075678
0.583218 0.679552 0.069732
0.633503 0.686434 0.062958
0.684925 0.693739 0.055718
0.735731 0.701228 0.048344
0.775036 0.706554 0.042656
0.808116 0.710605 0.038025
0.840110 0.714504 0.033650
0.871060 0.717945 0.029639
0.893811 0.719572 0.027322
0.912393 0.720475 0.025982
0.930048 0.721460 0.024947
0.441134 0.705285 0.103510
0.471905 0.709417 0.100282
0.503398 0.713335 0.096502
0.540478 0.717936 0.091700
0.581780 0.723131 0.086069
0.625114 0.728883 0.079909
0.670307 0.735034 0.073279
0.716978 0.741714 0.066094
0.761144 0.748126 0.059121
0.794643 0.752447 0.053861
0.825171 0.756157 0.049132
0.854993 0.759909 0.044585
0.883827 0.763634 0.040246
0.904791 0.765694 0.037627
0.922287 0.767155 0.035843
0.938958 0.768565 0.034345
0.507723 0.757002 0.113794
0.535893 0.760448 0.109845
0.563090 0.763709 0.105963
0.592831 0.767362 0.101554
0.627962 0.771695 0.096159
0.666269 0.776721 0.090062
0.706691 0.782265 0.083412
0.748770 0.788329 0.076219
0.785074 0.793247 0.069904
0.813912 0.796683 0.064903
0.842053 0.800142 0.060062
0.869665 0.803569 0.055372
0.896508 0.807110 0.050871
0.915031 0.808750 0.048283
0.931235 0.810051 0.046317
0.946935 0.811261 0.044622
0.571571 0.796616 0.128321
0.593786 0.799480 0.124584
0.615385 0.802482 0.120873
0.640790 0.806024 0.116413
0.671510 0.810603 0.110836
0.705400 0.815703 0.104515
0.741491 0.821447 0.097570
0.777567 0.827360 0.090399
0.806246 0.831623 0.084579
0.832293 0.835597 0.079276
0.858301 0.839617 0.074036
0.883856 0.843474 0.068956
0.908515 0.847071 0.064233
0.924530 0.848485 0.061717
0.939771 0.850030 0.059560
0.954447 0.851539 0.057684
0.627303 0.833979 0.144239
0.645790 0.836604 0.140730
0.664232 0.839195 0.137137
0.686173 0.842339 0.132829
0.712984 0.846268 0.127385
0.742827 0.850938 0.121149
0.774720 0.856030 0.114267
0.802053 0.860253 0.108159
0.825527 0.863591 0.102802
0.849260 0.867133 0.097372
0.873194 0.870773 0.091928
0.896761 0.874571 0.086521
0.917990 0.877876 0.081704
0.932778 0.879817 0.078765
0.946961 0.881648 0.076068
0.960716 0.883528 0.073637
0.677959 0.869494 0.159109
0.693755 0.871667 0.155736
0.709635 0.873983 0.152281
0.728589 0.876851 0.148068
0.751984 0.880275 0.142741
0.778138 0.884449 0.136596
0.802235 0.888075 0.130753
0.822766 0.890935 0.125576
0.844057 0.894000 0.120183
0.865573 0.897309 0.114667
0.887459 0.900653 0.109049
0.909106 0.904083 0.103382
0.926604 0.906604 0.098946
0.940285 0.908302 0.095721
0.953564 0.909949 0.092734
0.966339 0.911665 0.089930
-0.004925 0.007156 0.069355
0.072461 0.009569 0.046599
0.163245 0.018310 0.039439
0.253160 0.028500 0.034922
0.358482 0.038606 0.029898
0.455503 0.044735 0.024269
0.542031 0.046110 0.018108
0.601779 0.043182 0.012797
0.652366 0.037902 0.007917
0.691269 0.031640 0.004067
0.719742 0.025152 0.001333
0.746375 0.017559 -0.001010
0.768292 0.010183 -0.002514
0.781479 0.005196 -0.002445
0.793911 -0.001311 -0.001928
0.805641 -0.006424 -0.000980
0.019780 0.027628 0.053280
0.060072 0.028765 0.043361
0.118801 0.033900 0.039344
0.181845 0.040775 0.036352
0.256061 0.049459 0.033643
0.339560 0.058791 0.030542
0.425509 0.066933 0.026723
0.504651 0.071561 0.022212
0.573924 0.073376 0.017665
0.626636 0.072992 0.013870
0.673201 0.070794 0.010410
0.708959 0.068225 0.007994
0.738013 0.065459 0.006469
0.764859 0.062205 0.005423
0.785932 0.059730 0.005258
0.800917 0.058455 0.006032
0.037761 0.069180 0.058932
0.083052 0.070519 0.052307
0.135157 0.074463 0.048564
0.191609 0.080124 0.045589
0.258558 0.087951 0.042684
0.333754 0.097051 0.039449
0.415644 0.106503 0.035606
0.491431 0.113493 0.031274
0.563936 0.118477 0.026546
0.619362 0.120758 0.022595
0.666147 0.121204 0.019168
0.707537 0.120753 0.016226
0.737907 0.119874 0.014458
0.764917 0.118716 0.013221
0.790298 0.117387 0.012334
0.808787 0.116688 0.012464
0.060195 0.129590 0.069023
0.112639 0.130380 0.063813
0.162091 0.132871 0.059833
0.215202 0.136971 0.056415
0.277006 0.143266 0.053159
0.347288 0.151376 0.049555
0.424362 0.160564 0.045375
0.497013 0.168149 0.040802
0.566820 0.174356 0.035899
0.625672 0.178294 0.031406
0.670554 0.179965 0.027858
0.713907 0.180925 0.024414
0.746350 0.180999 0.022159
0.772514 0.180715 0.020735
0.797849 0.180350 0.019585
0.820602 0.179964 0.018889
0.091620 0.207108 0.080106
0.146022 0.207450 0.075732
0.193697 0.209061 0.072077
0.246386 0.212320 0.068288
0.304906 0.217494 0.064256
0.372942 0.225469 0.059937
0.446249 0.234729 0.055209
0.515828 0.242932 0.050145
0.582370 0.250100 0.044856
0.643019 0.255781 0.039687
0.686015 0.258332 0.035918
0.727787 0.260502 0.032268
0.763847 0.261809 0.029290
0.789047 0.262035 0.027757
0.813424 0.262243 0.026516
0.836871 0.262448 0.025788
0.126671 0.293073 0.090260
0.180946 0.294800 0.086470
0.227877 0.297276 0.083066
0.280052 0.301289 0.079304
0.337068 0.306691 0.075074
0.404909 0.314736 0.070110
0.474973 0.323455 0.064654
0.541200 0.331233 0.059011
0.604757 0.338451 0.053220
0.665451 0.344837 0.047369
0.706489 0.347513 0.043371
0.746452 0.349977 0.039560
0.784482 0.352035 0.036038
0.809198 0.352349 0.034449
0.832494 0.352647 0.033246
0.854986 0.352944 0.032369
0.166367 0.375673 0.098871
0.216534 0.377942 0.095465
0.264435 0.381381 0.092138
0.312929 0.385354 0.088474
0.370340 0.391330 0.084039
0.437527 0.399937 0.078666
0.504502 0.408928 0.072859
0.567260 0.417142 0.066900
0.628288 0.425078 0.060728
0.687671 0.432610 0.054373
0.727334 0.435978 0.050094
0.765785 0.439247 0.045991
0.803243 0.442320 0.042063
0.829220 0.443425 0.039937
0.851729 0.444119 0.038509
0.873363 0.444917 0.037388
0.209172 0.455156 0.107652
0.258808 0.458720 0.104136
0.301253 0.461990 0.100865
0.347481 0.466154 0.097071
0.408194 0.473327 0.092002
0.471428 0.481678 0.086318
0.534664 0.490354 0.080169
0.593553 0.498336 0.073976
0.651909 0.506329 0.067509
0.708471 0.513939 0.060888
0.746431 0.517563 0.056444
0.783382 0.520961 0.052208
0.819443 0.524097 0.048214
0.846605 0.525437 0.045693
0.868908 0.525739 0.044161
0.890150 0.526141 0.042974
0.259518 0.526485 0.116327
0.301168 0.529766 0.113135
0.340954 0.533568 0.109908
0.390028 0.539118 0.105799
0.447025 0.546586 0.100639
0.505884 0.554816 0.094866
0.563835 0.563102 0.088727
0.619565 0.571093 0.082345
0.675105 0.579202 0.075656
0.727626 0.586731 0.068981
0.765748 0.590148 0.063775
0.802563 0.593450 0.058844
0.837912 0.596547 0.054192
0.865220 0.598237 0.051087
0.886215 0.598889 0.049277
0.906158 0.599563 0.047801
0.306563 0.596005 0.124895
0.346992 0.599693 0.121681
0.389195 0.604368 0.118171
0.435187 0.609843 0.114038
0.486987 0.616493 0.108949
0.541000 0.623820 0.103234
0.593253 0.630942 0.097278
0.646823 0.638127 0.090467
0.702496 0.644964 0.082381
0.751712 0.650812 0.075040
0.787107 0.653998 0.069774
0.821450 0.657158 0.064722
0.854535 0.660236 0.059925
0.880726 0.662072 0.056519
0.900341 0.662819 0.054476
0.919100 0.663523 0.052759
0.367683 0.652969 0.135695
0.405807 0.657646 0.132082
0.441557 0.662286 0.128537
0.481670 0.667908 0.124415
0.527907 0.674654 0.119304
0.578034 0.681467 0.112553
0.629021 0.688228 0.104913
0.680919 0.695426 0.096764
0.732332 0.702884 0.088368
0.773878 0.708524 0.081360
0.806919 0.712156 0.075859
0.838999 0.715541 0.070635
0.869935 0.718777 0.065642
0.894324 0.720726 0.062084
0.912810 0.721597 0.059847
0.930410 0.722512 0.057948
0.430337 0.708297 0.149741
0.462508 0.712152 0.146197
0.495880 0.715947 0.141522
0.533858 0.720386 0.135948
0.576483 0.725701 0.129378
0.620645 0.731214 0.122249
0.666357 0.737314 0.114574
0.713482 0.743870 0.106322
0.759038 0.750436 0.098047
0.793679 0.754707 0.091608
0.824305 0.758398 0.085919
0.854133 0.762131 0.080409
0.883082 0.765738 0.075119
0.905318 0.768069 0.071397
0.922721 0.769549 0.068902
0.939396 0.770855 0.066736
0.499731 0.760577 0.160592
0.528793 0.763647 0.156111
0.557008 0.767020 0.151543
0.587745 0.770509 0.146429
0.623442 0.774887 0.140196
0.662397 0.779710 0.133139
0.703316 0.785192 0.125477
0.745782 0.791078 0.117215
0.783647 0.796244 0.109568
0.813204 0.799739 0.103475
0.841467 0.803076 0.097687
0.869115 0.806414 0.092030
0.895943 0.809839 0.086569
0.915652 0.811787 0.082945
0.931859 0.812945 0.080295
0.947442 0.814275 0.077975
0.565306 0.801007 0.172600
0.588437 0.804041 0.168413
0.610566 0.806958 0.164289
0.636427 0.810428 0.159339
0.667709 0.814930 0.153142
0.702104 0.820017 0.146066
0.738621 0.825590 0.138320
0.775682 0.831425 0.130126
0.805533 0.835917 0.123236
0.831686 0.839786 0.117059
0.857765 0.843501 0.110941
0.883329 0.846952 0.104995
0.908160 0.850357 0.099231
0.925047 0.851946 0.095654
0.940161 0.853385 0.092675
0.954691 0.854758 0.089949
0.622347 0.838119 0.184874
0.641216 0.840518 0.181026
0.660023 0.843148 0.177116
0.682370 0.846223 0.172357
0.709556 0.850141 0.166385
0.739739 0.854697 0.159522
0.772024 0.859740 0.151919
0.800609 0.864014 0.144840
0.824581 0.867508 0.138714
0.848450 0.870947 0.132525
0.872390 0.874474 0.126246
0.896038 0.878179 0.120003
0.918137 0.881688 0.114081
0.932932 0.883482 0.110410
0.947135 0.885247 0.107007
0.960744 0.887025 0.103840
0.673777 0.873150 0.196948
0.689813 0.875342 0.193305
0.705972 0.877419 0.189555
0.725205 0.880244 0.184998
0.748848 0.883775 0.179232
0.775267 0.887854 0.172555
0.800932 0.891626 0.165808
0.821603 0.894563 0.160110
0.842929 0.897567 0.154128
0.864625 0.900562 0.147939
0.886521 0.904021 0.141604
0.908236 0.907258 0.135236
0.926585 0.909954 0.129841
0.940081 0.911555 0.126022
0.953359 0.913318 0.122410
0.966134 0.914876 0.119027
-0.017260 0.013009 0.136089
0.058215 0.014140 0.103458
0.142170 0.021107 0.094317
0.227969 0.030298 0.087862
0.323761 0.039775 0.081845
0.422199 0.047176 0.075498
0.510657 0.050292 0.068841
0.583975 0.048479 0.062354
0.635960 0.044164 0.056888
0.684331 0.037313 0.051763
0.714352 0.031066 0.048320
0.742051 0.024068 0.045476
0.767934 0.015852 0.043152
0.784144 0.009684 0.042194
0.797001 0.004432 0.042029
0.809428 -0.000984 0.042484
0.010217 0.033961 0.110677
0.056075 0.034871 0.098276
0.115545 0.039419 0.091822
0.177274 0.045553 0.086764
0.250467 0.053668 0.082390
0.331394 0.062421 0.078055
0.417660 0.070572 0.073425
0.496742 0.075629 0.068528
0.569509 0.077948 0.063576
0.624048 0.077790 0.059393
0.671637 0.075654 0.055712
0.710334 0.072844 0.052808
0.739847 0.070019 0.050875
0.767140 0.066635 0.049467
0.790436 0.063574 0.048760
0.805935 0.062014 0.049108
0.028627 0.075184 0.114266
0.077910 0.076194 0.105966
0.131366 0.079690 0.100568
0.187326 0.084688 0.095904
0.253997 0.091979 0.091602
0.327538 0.100440 0.087339
0.409090 0.109619 0.082805
0.485583 0.116627 0.078007
0.558715 0.121654 0.072989
0.617895 0.124179 0.068496
0.664638 0.124632 0.064782
0.708370 0.124134 0.061383
0.740078 0.123179 0.059154
0.767118 0.121965 0.057633
0.793266 0.120512 0.056481
0.813830 0.119513 0.056144
0.047156 0.133864 0.122696
0.105622 0.134402 0.116347
0.156712 0.136565 0.111563
0.209783 0.140108 0.107048
0.271686 0.145859 0.102608
0.340740 0.153285 0.098102
0.417790 0.162095 0.093301
0.491333 0.169602 0.088271
0.560942 0.175662 0.083130
0.624094 0.179941 0.078104
0.668952 0.181544 0.074256
0.712405 0.182506 0.070616
0.748259 0.182656 0.067787
0.774471 0.182362 0.066107
0.799855 0.181979 0.064781
0.824214 0.181550 0.063818
0.079557 0.209353 0.132664
0.137087 0.209386 0.127459
0.186568 0.210780 0.123183
0.239728 0.213766 0.118864
0.298617 0.219117 0.114367
0.365831 0.226562 0.109616
0.439523 0.235518 0.104469
0.510113 0.243625 0.099100
0.576650 0.250613 0.093654
0.641133 0.256671 0.088078
0.684410 0.259231 0.083983
0.726249 0.261315 0.080121
0.765199 0.262826 0.076625
0.790735 0.263104 0.074716
0.815160 0.263307 0.073178
0.838632 0.263511 0.071995
0.112482 0.295081 0.142445
0.170456 0.296612 0.138054
0.218708 0.298766 0.134190
0.272307 0.302526 0.130010
0.329808 0.307383 0.125419
0.397042 0.314537 0.120304
0.467679 0.322871 0.114755
0.535107 0.330656 0.109008
0.598854 0.337696 0.103193
0.661624 0.344315 0.097181
0.704540 0.347214 0.092718
0.744609 0.349627 0.088612
0.783621 0.351824 0.084711
0.810220 0.352408 0.082380
0.833600 0.352675 0.080651
0.856108 0.353046 0.079273
0.151447 0.377429 0.150930
0.204116 0.379431 0.147102
0.254115 0.382676 0.143436
0.304423 0.386463 0.139443
0.361041 0.391777 0.134813
0.429444 0.400149 0.129373
0.497235 0.408949 0.123541
0.561250 0.417191 0.117516
0.622600 0.424948 0.111378
0.682965 0.432482 0.105023
0.725426 0.436361 0.100221
0.763905 0.439547 0.095868
0.801565 0.442584 0.091694
0.829995 0.444142 0.088815
0.852652 0.444842 0.086906
0.874306 0.445605 0.085323
