tools/decompiled/apktool/res/raw/film.cube
LUT_3D_SIZE 16
0.000000 0.000000 0.000000
0.009073 0.000120 0.000119
0.032344 0.000523 0.000512
0.067194 0.001315 0.001267
0.111818 0.002625 0.002491
0.164641 0.004597 0.004301
0.224291 0.007373 0.006813
0.289463 0.011081 0.010132
0.358994 0.015836 0.014349
0.431716 0.021722 0.019529
0.506612 0.028799 0.025719
0.582760 0.037100 0.032938
0.659088 0.046602 0.041163
0.734936 0.057280 0.050367
0.809319 0.069036 0.060462
0.881670 0.081776 0.071364
0.000477 0.011306 0.000466
0.013930 0.013873 0.001084
0.040710 0.016756 0.002050
0.078303 0.020070 0.003464
0.124951 0.023945 0.005441
0.179126 0.028521 0.008097
0.239489 0.033929 0.011544
0.304773 0.040284 0.015876
0.373845 0.047684 0.021172
0.445578 0.056194 0.027481
0.518983 0.065856 0.034830
0.593162 0.076679 0.043220
0.667096 0.088623 0.052609
0.740123 0.101641 0.062946
0.811315 0.115617 0.074124
0.880099 0.130437 0.086037
0.002227 0.040299 0.002079
0.020135 0.044858 0.003322
0.050508 0.049774 0.005031
0.090930 0.055166 0.007306
0.139699 0.061166 0.010259
0.195328 0.067902 0.013996
0.256515 0.075495 0.018617
0.322030 0.084045 0.024200
0.390771 0.093631 0.030804
0.461649 0.104301 0.038458
0.533703 0.116073 0.047167
0.606059 0.128937 0.056908
0.677748 0.142834 0.067616
0.748107 0.157693 0.079217
0.816260 0.173386 0.091581
0.881626 0.189777 0.104578
0.005965 0.082962 0.005316
0.028435 0.089102 0.007350
0.062506 0.095648 0.009993
0.105869 0.102719 0.013334
0.156872 0.110442 0.017474
0.214075 0.118936 0.022504
0.276210 0.128308 0.028505
0.342085 0.138642 0.035533
0.410628 0.149998 0.043626
0.480787 0.162403 0.052786
0.551632 0.175855 0.062995
0.622308 0.190323 0.074204
0.691895 0.205728 0.086322
0.759729 0.221979 0.099248
0.824984 0.238932 0.112832
0.887070 0.256434 0.126919
0.012537 0.136139 0.010733
0.039678 0.143481 0.013740
0.077557 0.151281 0.017507
0.123967 0.159658 0.022108
0.177314 0.168731 0.027623
0.236201 0.178608 0.034126
0.299398 0.189380 0.041671
0.365748 0.201113 0.050293
0.434211 0.213848 0.060000
0.503773 0.227591 0.070772
0.573529 0.242320 0.082559
0.642645 0.257981 0.095287
0.710251 0.274479 0.108838
0.775676 0.291700 0.123085
0.838147 0.309488 0.137856
0.897060 0.327672 0.152973
0.022770 0.196999 0.018855
0.054674 0.205196 0.023013
0.096447 0.213908 0.028080
0.145992 0.223250 0.034107
0.201768 0.233330 0.041152
0.262426 0.244244 0.049263
0.326771 0.256065 0.058470
0.393684 0.268841 0.068779
0.462155 0.282593 0.080171
0.531206 0.297306 0.092596
0.599960 0.312937 0.105976
0.667603 0.329412 0.120209
0.733310 0.346616 0.135151
0.796406 0.364418 0.150649
0.856166 0.382647 0.166509
0.911971 0.401118 0.182529
0.037357 0.263023 0.030107
0.074084 0.271762 0.035576
0.119808 0.281076 0.042089
0.172539 0.291072 0.049672
0.230794 0.301846 0.058357
0.293270 0.313479 0.068164
0.358811 0.326028 0.079095
0.426334 0.339520 0.091127
0.494859 0.353956 0.104212
0.563445 0.369300 0.118269
0.631241 0.385488 0.133194
0.697451 0.402425 0.148852
0.761297 0.419981 0.165079
0.822095 0.438004 0.181693
0.878733 0.448675 0.187917
0.935277 0.455101 0.188474
0.056781 0.332219 0.044818
0.098346 0.340921 0.051663
0.148032 0.350562 0.059731
0.203958 0.360935 0.068955
0.264697 0.372124 0.079340
0.328995 0.384194 0.090877
0.395732 0.397182 0.103538
0.463865 0.411095 0.117269
0.532442 0.425914 0.131993
0.600559 0.441582 0.147599
0.667391 0.458015 0.163955
0.732159 0.475097 0.180899
0.789521 0.486556 0.187885
0.844406 0.494050 0.188464
0.900220 0.500906 0.188430
0.956979 0.507115 0.187770
0.081590 0.408932 0.064795
0.126303 0.416862 0.072933
0.179156 0.425157 0.082246
0.238413 0.433998 0.092722
0.302562 0.443526 0.104332
0.369569 0.454541 0.117235
0.437453 0.467709 0.131572
0.506144 0.481781 0.146918
0.574719 0.496712 0.163166
0.642311 0.512428 0.180179
0.700428 0.524361 0.187852
0.753656 0.532920 0.188454
0.807798 0.540853 0.188442
0.862870 0.548150 0.187805
0.918886 0.554802 0.186531
0.975862 0.560798 0.184608
0.111761 0.485173 0.088970
0.159261 0.492593 0.098485
0.214498 0.500453 0.109238
0.275765 0.508952 0.121205
0.341546 0.518209 0.134367
0.410379 0.528337 0.148644
0.480861 0.539372 0.163907
0.551690 0.551328 0.180050
0.611456 0.562088 0.187819
0.663027 0.571713 0.188442
0.715498 0.580722 0.188453
0.768884 0.589106 0.187840
0.823200 0.596855 0.186590
0.878462 0.603960 0.184691
0.934683 0.610412 0.182131
0.991879 0.616202 0.178899
0.146610 0.558249 0.116745
0.196691 0.564898 0.127490
0.254262 0.572133 0.139571
0.317562 0.580099 0.152917
0.385034 0.588920 0.167513
0.455158 0.598666 0.183171
0.513959 0.609132 0.189430
0.566074 0.617470 0.189615
0.619252 0.625142 0.189211
0.673288 0.632106 0.188201
0.727639 0.638828 0.186647
0.781187 0.647041 0.184772
0.835680 0.654612 0.182237
0.891134 0.661530 0.179030
0.947563 0.667788 0.175139
1.004982 0.673375 0.170551
0.184795 0.625702 0.147009
0.237344 0.631478 0.158834
0.297223 0.637949 0.172050
0.362587 0.645264 0.186663
0.416336 0.656527 0.191193
0.465705 0.665921 0.191348
0.516681 0.674770 0.190936
0.569101 0.683037 0.189924
0.622699 0.690648 0.188262
0.677325 0.697570 0.185954
0.732775 0.703764 0.183019
0.788850 0.709211 0.179449
0.845191 0.714174 0.175294
0.900839 0.720910 0.170733
0.957479 0.726978 0.165463
1.015123 0.732367 0.159474
0.224462 0.685536 0.178278
0.278282 0.691042 0.190278
0.323226 0.702914 0.192983
0.368139 0.712952 0.193082
0.415389 0.722690 0.192666
0.464689 0.732032 0.191684
0.515799 0.740873 0.189988
0.568494 0.749155 0.187722
0.622563 0.756831 0.184759
0.677807 0.763827 0.181104
0.734017 0.770125 0.176774
0.790999 0.775683 0.171780
0.848545 0.780482 0.166129
0.906438 0.784508 0.159866
0.964382 0.788033 0.153013
1.022255 0.793230 0.145576
0.240537 0.748115 0.194860
0.278240 0.758001 0.194840
0.319631 0.768042 0.194404
0.364033 0.778015 0.193469
0.411014 0.787746 0.191810
0.460250 0.797149 0.189635
0.511481 0.806107 0.186679
0.564447 0.814558 0.183119
0.618986 0.822430 0.178734
0.674835 0.829671 0.173732
0.731825 0.836231 0.167923
0.789723 0.842077 0.161409
0.848340 0.847183 0.154236
0.907433 0.851524 0.146356
0.966797 0.855091 0.137842
1.026192 0.857878 0.128736
0.236019 0.810139 0.196151
0.272535 0.819820 0.195154
0.313101 0.829774 0.193677
0.356961 0.839776 0.191664
0.403633 0.849629 0.188856
0.452763 0.859234 0.185486
0.504095 0.868470 0.181228
0.557337 0.877260 0.176292
0.612317 0.885533 0.170611
0.668770 0.893216 0.164076
0.726514 0.900270 0.156825
0.785324 0.906643 0.148727
0.845001 0.912306 0.139865
0.905273 0.917229 0.130276
0.965989 0.921399 0.119999
1.026835 0.924801 0.109052
0.229514 0.864973 0.195547
0.264757 0.874460 0.193648
0.304442 0.884390 0.191220
0.347707 0.894487 0.188086
0.394033 0.904573 0.184229
0.443021 0.914512 0.179642
0.494420 0.924198 0.174287
0.547898 0.933521 0.168009
0.603267 0.942415 0.160888
0.660301 0.950813 0.152949
0.718742 0.958652 0.144138
0.778422 0.965887 0.134413
0.839098 0.972476 0.123799
0.900520 0.978390 0.112408
0.962528 0.983608 0.100245
1.024847 0.988109 0.087247
0.000017 0.000017 0.007741
0.009938 0.000230 0.009917
0.033887 0.000741 0.012323
0.069267 0.001659 0.015034
0.114278 0.003117 0.018148
0.167359 0.005258 0.021773
0.227141 0.008224 0.026016
0.292328 0.012142 0.030974
0.361763 0.017123 0.036732
0.434284 0.023249 0.043352
0.508881 0.030576 0.050875
0.584636 0.039132 0.059319
0.660489 0.048890 0.068663
0.735778 0.059820 0.078878
0.809530 0.071820 0.089882
0.881177 0.084790 0.101592
0.000688 0.012254 0.012226
0.014997 0.014921 0.014856
0.042466 0.017923 0.017774
0.080599 0.021376 0.021071
0.127648 0.025416 0.024852
0.182094 0.030178 0.029227
0.242606 0.035794 0.034299
0.307923 0.042378 0.040158
0.376920 0.050022 0.046875
0.448474 0.058791 0.054499
0.521605 0.068720 0.063054
0.595417 0.079814 0.072539
0.668903 0.092028 0.082915
0.741401 0.105310 0.094133
0.811992 0.119541 0.106091
0.880101 0.134600 0.118688
0.002702 0.042005 0.017702
0.021483 0.046672 0.020887
0.052560 0.051718 0.024463
0.093541 0.057266 0.028524
0.142731 0.063445 0.033172
0.198653 0.070385 0.038511
0.260012 0.078204 0.044631
0.325585 0.087001 0.051607
0.394276 0.096849 0.059495
0.465004 0.107793 0.068323
0.536814 0.119847 0.078094
0.608835 0.132996 0.088786
0.680108 0.147175 0.100337
0.749971 0.162309 0.112676
0.817557 0.178264 0.125681
0.882283 0.194900 0.139229
0.006798 0.085268 0.024586
0.030163 0.091527 0.028471
0.064963 0.098217 0.032875
0.108907 0.105459 0.037885
0.160356 0.113379 0.043594
0.217877 0.122095 0.050089
0.280212 0.131712 0.057447
0.346174 0.142310 0.065721
0.414697 0.153944 0.074946
0.484739 0.166639 0.085126
0.555372 0.180387 0.096241
0.625748 0.195151 0.108246
0.694955 0.210848 0.121053
0.762328 0.227381 0.134568
0.827053 0.244602 0.148649
0.888536 0.262352 0.163147
0.013840 0.138898 0.033385
0.041901 0.146373 0.038131
0.080533 0.154334 0.043537
0.127552 0.162900 0.049672
0.181372 0.172189 0.056614
0.240606 0.182307 0.064431
0.304032 0.193341 0.073178
0.370501 0.205356 0.082886
0.438977 0.218385 0.093564
0.508454 0.232433 0.105191
0.578034 0.247470 0.117721
0.646886 0.263439 0.131083
0.714149 0.280237 0.145165
0.779150 0.297746 0.159848
0.841128 0.315805 0.174968
0.899475 0.334238 0.190356
0.024651 0.200079 0.044581
0.057503 0.208426 0.050352
0.100058 0.217317 0.056918
0.150239 0.226867 0.064332
0.206517 0.237183 0.072648
0.267552 0.248357 0.081913
0.332157 0.260460 0.092156
0.399220 0.273536 0.103383
0.467738 0.287599 0.115576
0.536739 0.302631 0.128686
0.605352 0.318583 0.142642
0.672766 0.335374 0.157343
0.738167 0.352886 0.172657
0.800876 0.370981 0.188436
0.860180 0.389483 0.204500
0.915772 0.407074 0.219434
0.039921 0.266304 0.058568
0.077625 0.275213 0.065509
0.124158 0.284727 0.073372
0.177553 0.294952 0.082182
0.236339 0.305983 0.091974
0.299223 0.317898 0.102766
0.365054 0.330748 0.114561
0.432759 0.344558 0.127337
0.501362 0.359321 0.141048
0.569931 0.374998 0.155619
0.637620 0.391519 0.170949
0.703637 0.408782 0.186913
0.767211 0.426652 0.203353
0.827471 0.444378 0.219344
0.883125 0.451201 0.221495
0.939710 0.457381 0.223052
0.060137 0.336422 0.075958
0.102614 0.344780 0.083916
0.153210 0.354353 0.093078
0.209827 0.364978 0.103364
0.271125 0.376448 0.114684
0.335858 0.388821 0.127031
0.402915 0.402131 0.140379
0.471260 0.416381 0.154678
0.539946 0.431545 0.169854
0.608078 0.447560 0.185802
0.674834 0.464337 0.202397
0.739289 0.481605 0.219254
0.793293 0.489488 0.221426
0.848214 0.496739 0.223005
0.904068 0.503350 0.223980
0.960868 0.509310 0.224337
0.085869 0.413293 0.098723
0.131347 0.421433 0.107928
0.184844 0.429983 0.118150
0.244631 0.439110 0.129348
0.309210 0.448957 0.141538
0.377133 0.459625 0.154678
0.445635 0.472806 0.169393
0.514564 0.487233 0.185131
0.583277 0.502526 0.201659
0.650912 0.518603 0.218846
0.703582 0.527698 0.221357
0.756840 0.536019 0.222958
0.811015 0.543711 0.223955
0.866124 0.550763 0.224335
0.922180 0.557166 0.224088
0.979198 0.562910 0.223200
0.117044 0.489534 0.125328
0.165299 0.497171 0.135708
0.221207 0.505318 0.147204
0.283045 0.514128 0.159726
0.349301 0.523728 0.173286
0.418517 0.534221 0.187820
0.489301 0.545647 0.203215
0.560352 0.558006 0.219386
0.613864 0.565983 0.221333
0.665587 0.575221 0.222910
0.718086 0.583993 0.223929
0.771504 0.592136 0.224332
0.825854 0.599640 0.224108
0.881153 0.606498 0.223244
0.937414 0.612698 0.221728
0.994653 0.618232 0.219548
0.152931 0.562469 0.155151
0.203775 0.569371 0.166564
0.262035 0.576892 0.179201
0.325941 0.585197 0.192903
0.393924 0.594373 0.207695
0.463131 0.605104 0.222459
0.514823 0.614478 0.224442
0.566981 0.622563 0.225341
0.620226 0.629973 0.225628
0.674365 0.636678 0.225276
0.729208 0.642647 0.224302
0.783233 0.650004 0.223287
0.837761 0.657327 0.221795
0.893253 0.663995 0.219640
0.949722 0.669998 0.216809
1.007185 0.675326 0.213291
0.192126 0.629647 0.187019
0.245445 0.635690 0.199369
0.306046 0.642481 0.212959
0.368071 0.652105 0.225424
0.416487 0.662393 0.227541
0.465845 0.671521 0.228454
0.516848 0.680111 0.228784
0.569297 0.688103 0.228452
0.622981 0.695449 0.227515
0.677721 0.702106 0.225902
0.733306 0.708039 0.223639
0.789550 0.713224 0.220708
0.846241 0.717639 0.217139
0.902376 0.723303 0.213433
0.959056 0.729113 0.209242
1.016745 0.734241 0.204339
0.232725 0.689103 0.219587
0.279946 0.698768 0.228596
0.322811 0.709237 0.230701
0.367613 0.719011 0.231569
0.414815 0.728464 0.231918
0.464102 0.737537 0.231614
0.515228 0.746119 0.230746
0.567981 0.754132 0.229183
0.622140 0.761527 0.226963
0.677497 0.768258 0.224015
0.733854 0.774285 0.220385
0.791015 0.779574 0.216075
0.848768 0.784106 0.211070
0.906891 0.787862 0.205402
0.965172 0.790836 0.199103
1.023287 0.795028 0.192601
0.239806 0.754827 0.234052
0.277282 0.764443 0.234754
0.318520 0.774198 0.235060
0.362814 0.783884 0.234764
0.409738 0.793346 0.233984
0.458956 0.802471 0.232519
0.510218 0.811161 0.230376
0.563238 0.819335 0.227555
0.617864 0.826935 0.223974
0.673837 0.833901 0.219710
0.730985 0.840190 0.214660
0.789060 0.845761 0.208861
0.847898 0.850591 0.202331
0.907233 0.854657 0.195118
0.966870 0.857948 0.187200
1.026555 0.860457 0.178636
0.234657 0.816537 0.238278
0.270933 0.825919 0.237920
0.311332 0.835607 0.237213
0.355079 0.845313 0.235878
0.401696 0.854898 0.233882
0.450815 0.864228 0.231288
0.502143 0.873186 0.227899
0.555486 0.881710 0.223834
0.610532 0.889701 0.218925
0.667117 0.897112 0.213202
0.724998 0.903883 0.206674
0.783990 0.909980 0.199386
0.843910 0.915365 0.191211
0.904424 0.920008 0.182331
0.965418 0.923898 0.172703
1.026582 0.927017 0.162337
0.227633 0.870772 0.240325
0.262616 0.879981 0.239188
0.302123 0.889622 0.237444
0.345279 0.899445 0.235157
0.391520 0.909249 0.232104
0.440510 0.918911 0.228329
0.491897 0.928315 0.223788
0.545442 0.937369 0.218466
0.600898 0.945989 0.212245
0.658037 0.954106 0.205117
0.716662 0.961670 0.197119
0.776533 0.968628 0.188252
0.837430 0.974938 0.178444
0.899131 0.980573 0.167827
0.961414 0.985506 0.156288
1.023984 0.989722 0.144062
0.000075 0.000073 0.027550
0.010846 0.000388 0.031301
0.035476 0.001022 0.035202
0.071388 0.002087 0.039326
0.116792 0.003717 0.043769
0.170134 0.006053 0.048636
0.230054 0.009237 0.054031
0.295261 0.013391 0.060048
0.364605 0.018626 0.066769
0.436931 0.025016 0.074258
0.511236 0.032616 0.082554
0.586605 0.041445 0.091676
0.661988 0.051476 0.101606
0.736724 0.062670 0.112318
0.809851 0.074922 0.123736
0.880799 0.088125 0.135781
0.000962 0.013247 0.035097
0.016133 0.016025 0.039234
0.044295 0.019162 0.043569
0.082974 0.022777 0.048194
0.130431 0.027004 0.053213
0.185155 0.031978 0.058733
0.245823 0.037828 0.064854
0.311180 0.044664 0.071665
0.380107 0.052577 0.079238
0.451490 0.061625 0.087619
0.524353 0.071838 0.096835
0.597806 0.083218 0.106886
0.670850 0.095715 0.117737
0.742824 0.109270 0.129342
0.812818 0.123758 0.141608
0.880258 0.139056 0.154438
0.003281 0.043763 0.043396
0.022942 0.048551 0.048004
0.054731 0.053746 0.052905
0.096277 0.059470 0.058194
0.145895 0.065852 0.063974
0.202117 0.073019 0.070346
0.263655 0.081088 0.077400
0.329293 0.090152 0.085211
0.397941 0.100283 0.093833
0.468525 0.111519 0.103295
0.540096 0.123869 0.113605
0.611788 0.137313 0.124741
0.682650 0.151781 0.136648
0.752020 0.167193 0.149258
0.819042 0.183410 0.162458
0.883132 0.200286 0.176130
0.007790 0.087635 0.052844
0.032056 0.094028 0.058053
0.067590 0.100882 0.063676
0.112122 0.108315 0.069802
0.164023 0.116454 0.076524
0.221869 0.125414 0.083930
0.284408 0.135296 0.092096
0.350462 0.146176 0.101075
0.418972 0.158105 0.110904
0.488899 0.171103 0.121589
0.559326 0.185157 0.133113
0.629404 0.200224 0.145433
0.698233 0.216216 0.158471
0.765147 0.233030 0.172136
0.829342 0.250513 0.186295
0.890222 0.268502 0.200810
0.015356 0.141731 0.063922
0.044343 0.149354 0.069883
0.083733 0.157494 0.076390
0.131365 0.166269 0.083518
0.185662 0.175794 0.091345
0.245248 0.186172 0.099942
0.308906 0.197487 0.109361
0.375496 0.209798 0.119638
0.443987 0.223136 0.130783
0.513382 0.237497 0.142778
0.582786 0.252849 0.155583
0.651373 0.269127 0.169129
0.718292 0.286224 0.183314
0.782869 0.304016 0.198024
0.844350 0.322337 0.213107
0.902128 0.341005 0.228403
0.026801 0.203244 0.077097
0.060604 0.211756 0.083961
0.103942 0.220845 0.091503
0.154761 0.230622 0.099777
0.211542 0.241192 0.108842
0.272955 0.252644 0.118747
0.337820 0.265043 0.129523
0.405033 0.278430 0.141177
0.473595 0.292813 0.153695
0.542544 0.308169 0.167035
0.611013 0.324444 0.181128
0.678195 0.341550 0.195882
0.743284 0.359365 0.211171
0.805601 0.377742 0.226857
0.864442 0.396504 0.242769
0.920636 0.409347 0.252897
0.042802 0.269681 0.092749
0.081481 0.278774 0.100653
0.128822 0.288506 0.109356
0.182880 0.298977 0.118889
0.242194 0.310282 0.129288
0.305481 0.322492 0.140576
0.371599 0.335656 0.152759
0.439481 0.349792 0.165818
0.508158 0.364888 0.179713
0.576704 0.380900 0.194373
0.644279 0.397751 0.209705
0.710093 0.415334 0.225590
0.773386 0.433509 0.241881
0.831719 0.447054 0.252771
0.887411 0.453633 0.255921
0.944038 0.459566 0.258487
0.063858 0.340842 0.112015
0.107076 0.349405 0.120713
0.158704 0.358337 0.130156
0.216034 0.369174 0.140995
0.277883 0.380938 0.152777
0.343045 0.393625 0.165474
0.410413 0.407266 0.179064
0.478960 0.421858 0.193502
0.547746 0.437367 0.208720
0.615881 0.453728 0.224620
0.682551 0.470843 0.241084
0.742921 0.484684 0.252644
0.796958 0.492328 0.255816
0.851915 0.499336 0.258403
0.907808 0.505699 0.260395
0.964651 0.511409 0.261779
0.090556 0.417867 0.136589
0.136765 0.426230 0.146406
0.190878 0.435036 0.157031
0.251182 0.444455 0.168513
0.316180 0.454623 0.180838
0.384432 0.465638 0.194004
0.454127 0.478082 0.208236
0.523282 0.492867 0.223971
0.592116 0.508519 0.240402
0.654244 0.522237 0.252517
0.706626 0.530944 0.255709
0.759915 0.539027 0.258319
0.814124 0.546475 0.260333
0.869269 0.553281 0.261739
0.925365 0.559434 0.262526
0.982426 0.564925 0.262682
0.122760 0.494112 0.164655
0.171744 0.501988 0.175485
0.228283 0.510396 0.187223
0.290669 0.519510 0.199882
0.357388 0.529453 0.213412
0.426981 0.540317 0.227802
0.498065 0.552129 0.242983
0.562489 0.563410 0.253974
0.615384 0.570724 0.256132
0.668036 0.578639 0.258233
0.720564 0.587172 0.260269
0.774013 0.595073 0.261698
0.828398 0.602332 0.262508
0.883733 0.608940 0.262687
0.940035 0.614887 0.262223
0.997317 0.620165 0.261104
0.159672 0.566880 0.195504
0.211248 0.574038 0.207234
0.270163 0.581843 0.219932
0.334660 0.590473 0.233638
0.403146 0.600026 0.248249
0.464636 0.611308 0.258327
0.515538 0.619758 0.260539
0.567742 0.627581 0.262173
0.621069 0.634731 0.263156
0.675312 0.641179 0.263520
0.730289 0.646891 0.263219
0.785167 0.652873 0.262692
0.839730 0.659947 0.262252
0.895259 0.666362 0.261157
0.951769 0.672109 0.259395
1.009275 0.677178 0.256955
0.199845 0.633764 0.228104
0.253891 0.640072 0.240544
0.315171 0.647183 0.254058
0.369086 0.658867 0.262752
0.416493 0.668172 0.264935
0.465824 0.677034 0.266616
0.516840 0.685356 0.267650
0.569350 0.693087 0.268117
0.623120 0.700172 0.267885
0.677973 0.706564 0.266995
0.733711 0.712235 0.265438
0.790117 0.717153 0.263189
0.847009 0.721308 0.260274
0.903799 0.725599 0.257057
0.960520 0.731150 0.253952
1.018253 0.736015 0.250145
0.239266 0.693889 0.260434
0.280380 0.705822 0.267415
0.322247 0.715476 0.269474
0.366950 0.724973 0.271062
0.414092 0.734157 0.272094
0.463369 0.742960 0.272647
0.514533 0.751267 0.272497
0.567327 0.759009 0.271705
0.621575 0.766141 0.270251
0.677052 0.772603 0.268064
0.733561 0.778358 0.265180
0.790902 0.783379 0.261577
0.848860 0.787642 0.257250
0.907217 0.791126 0.252230
0.965759 0.793830 0.246537
1.024203 0.796725 0.240582
0.238921 0.761433 0.274280
0.276168 0.770763 0.275625
0.317241 0.780236 0.276548
0.361430 0.789650 0.277130
0.408304 0.798839 0.277047
0.457514 0.807689 0.276376
0.508775 0.816108 0.275078
0.561883 0.824015 0.273034
0.616591 0.831339 0.270273
0.672706 0.838031 0.266755
0.729995 0.844048 0.262510
0.788263 0.849345 0.257464
0.847287 0.853898 0.251650
0.906878 0.857689 0.245118
0.966787 0.860703 0.237843
1.026772 0.862936 0.229894
0.233152 0.822785 0.281146
0.269181 0.831905 0.281617
0.309415 0.841293 0.281536
0.353060 0.850738 0.280973
0.399606 0.860047 0.279865
0.448712 0.869099 0.278038
0.500071 0.877786 0.275484
0.553429 0.886032 0.272237
0.608590 0.893756 0.268201
0.665300 0.900893 0.263341
0.723361 0.907390 0.257619
0.782542 0.913212 0.251121
0.842648 0.918316 0.243751
0.903432 0.922680 0.235604
0.964707 0.926288 0.226645
1.026180 0.929125 0.216956
0.225617 0.876425 0.285995
0.260339 0.885342 0.285454
0.299664 0.894712 0.284530
0.342693 0.904249 0.282970
0.388881 0.913781 0.280753
0.437829 0.923173 0.277901
0.489235 0.932306 0.274283
0.542838 0.941083 0.269758
0.598388 0.949432 0.264468
0.655651 0.957279 0.258277
0.714420 0.964566 0.251157
0.774476 0.971247 0.243151
0.835572 0.977278 0.234192
0.897534 0.982632 0.224319
0.960101 0.987285 0.213616
1.022984 0.991216 0.202043
0.000186 0.000180 0.057509
0.011809 0.000605 0.062400
0.037125 0.001378 0.067330
0.073573 0.002609 0.072384
0.119374 0.004432 0.077660
0.172983 0.006987 0.083265
0.233045 0.010412 0.089303
0.298277 0.014827 0.095872
0.367535 0.020336 0.103055
0.439673 0.027012 0.110917
0.513690 0.034901 0.119501
0.588678 0.044021 0.128830
0.663597 0.054335 0.138890
0.737786 0.065803 0.149658
0.810292 0.078311 0.161067
0.880545 0.091750 0.173044
0.001314 0.014297 0.067252
0.017352 0.017197 0.072443
0.046214 0.020486 0.077719
0.085444 0.024281 0.083182
0.133315 0.028716 0.088939
0.188324 0.033924 0.095101
0.249154 0.040029 0.101769
0.314557 0.047140 0.109034
0.383421 0.055340 0.116969
0.454639 0.064684 0.125626
0.527240 0.075197 0.135033
0.600339 0.086875 0.145196
0.672946 0.099661 0.156084
0.744400 0.113493 0.167656
0.813802 0.128241 0.179827
0.880576 0.143775 0.192507
0.003978 0.045586 0.077449
0.024525 0.050509 0.083016
0.057033 0.055869 0.088761
0.099150 0.061788 0.094788
0.149203 0.068393 0.101204
0.205731 0.075808 0.108114
0.267454 0.084146 0.115610
0.333162 0.093497 0.123769
0.401773 0.103925 0.132649
0.472218 0.115466 0.142284
0.543555 0.128124 0.152683
0.614922 0.141871 0.163830
0.685377 0.156633 0.175677
0.754258 0.172323 0.188161
0.820719 0.188798 0.201178
0.884172 0.205907 0.214618
0.008948 0.090077 0.088501
0.034121 0.096619 0.094568
0.070395 0.103652 0.100930
0.115520 0.111296 0.107688
0.167878 0.119673 0.114938
0.226054 0.128895 0.122772
0.288803 0.139058 0.131269
0.354954 0.150236 0.140487
0.423453 0.162474 0.150464
0.493270 0.175785 0.161212
0.563492 0.190152 0.172720
0.633274 0.205526 0.184948
0.701728 0.221813 0.197827
0.768184 0.238905 0.211271
0.831849 0.256644 0.225158
0.892124 0.274860 0.239358
0.017088 0.144648 0.100892
0.047005 0.152435 0.107602
0.087159 0.160771 0.114739
0.135406 0.169772 0.122386
0.190184 0.179550 0.130628
0.250124 0.190204 0.139538
0.314017 0.201815 0.149174
0.380729 0.214435 0.159575
0.449238 0.228090 0.170756
0.518550 0.242772 0.182704
0.587779 0.258442 0.195384
0.656101 0.275029 0.208734
0.722673 0.292422 0.222660
0.786823 0.310490 0.237055
0.847805 0.329062 0.251778
0.905008 0.347951 0.266678
0.029214 0.206504 0.115088
0.063969 0.215197 0.122589
0.108093 0.224499 0.130645
0.159550 0.234519 0.139322
0.216835 0.245359 0.148684
0.278626 0.257101 0.158785
0.343750 0.269809 0.169659
0.411112 0.283516 0.181322
0.479717 0.298227 0.193762
0.548611 0.313911 0.206943
0.616933 0.330508 0.220803
0.683878 0.347926 0.235258
0.748650 0.366035 0.250190
0.810569 0.384685 0.265469
0.868939 0.403692 0.280937
0.925397 0.411526 0.287206
0.045985 0.273162 0.131473
0.085638 0.282455 0.139898
0.133786 0.292419 0.148996
0.188504 0.303152 0.158812
0.248344 0.314743 0.169388
0.312032 0.327260 0.180752
0.378432 0.340746 0.192915
0.446486 0.355214 0.205866
0.515231 0.370647 0.219568
0.583747 0.386994 0.233959
0.651200 0.404172 0.248953
0.716805 0.422067 0.264438
0.779808 0.440536 0.280278
0.835861 0.449638 0.287043
0.891592 0.455972 0.291202
0.948261 0.461656 0.294785
0.067931 0.345471 0.151979
0.111858 0.354246 0.160989
0.164066 0.363427 0.170584
0.222557 0.373524 0.181008
0.284952 0.385592 0.192846
0.350534 0.398603 0.205499
0.418205 0.412580 0.218952
0.486945 0.427516 0.233166
