tools/decompiled/apktool/res/raw/film.cube
LUT_3D_SIZE 6
0.000000 0.000000 0.000000
0.067194 0.001315 0.001267
0.224291 0.007373 0.006813
0.431716 0.021722 0.019529
0.659088 0.046602 0.041163
0.881670 0.081776 0.071364
0.005965 0.082962 0.005316
0.105869 0.102719 0.013334
0.276210 0.128308 0.028505
0.480787 0.162403 0.052786
0.691895 0.205728 0.086322
0.887070 0.256434 0.126919
0.037357 0.263023 0.030107
0.172539 0.291072 0.049672
0.358811 0.326028 0.079095
0.563445 0.369300 0.118269
0.761297 0.419981 0.165079
0.935277 0.455101 0.188474
0.111761 0.485173 0.088970
0.275765 0.508952 0.121205
0.480861 0.539372 0.163907
0.663027 0.571713 0.188442
0.823200 0.596855 0.186590
0.991879 0.616202 0.178899
0.224462 0.685536 0.178278
0.368139 0.712952 0.193082
0.515799 0.740873 0.189988
0.677807 0.763827 0.181104
0.848545 0.780482 0.166129
1.022255 0.793230 0.145576
0.229514 0.864973 0.195547
0.347707 0.894487 0.188086
0.494420 0.924198 0.174287
0.660301 0.950813 0.152949
0.839098 0.972476 0.123799
1.024847 0.988109 0.087247
0.000186 0.000180 0.057509
0.073573 0.002609 0.072384
0.233045 0.010412 0.089303
0.439673 0.027012 0.110917
0.663597 0.054335 0.138890
0.880545 0.091750 0.173044
0.008948 0.090077 0.088501
0.115520 0.111296 0.107688
0.288803 0.139058 0.131269
0.493270 0.175785 0.161212
0.701728 0.221813 0.197827
0.892124 0.274860 0.239358
0.045985 0.273162 0.131473
0.188504 0.303152 0.158812
0.378432 0.340746 0.192915
0.583747 0.386994 0.233959
0.779808 0.440536 0.280278
0.948261 0.461656 0.294785
0.128872 0.498887 0.206096
0.298625 0.525112 0.240995
0.507127 0.558794 0.282746
0.670375 0.581967 0.294419
0.830830 0.604929 0.301796
0.999870 0.621999 0.303572
0.240238 0.701644 0.300537
0.366121 0.730813 0.311419
0.513661 0.756307 0.315221
0.676460 0.776850 0.313188
0.848811 0.791080 0.304620
1.025000 0.798381 0.289561
0.223477 0.881904 0.332222
0.339978 0.908903 0.331465
0.486460 0.936157 0.325428
0.653135 0.960320 0.312215
0.833656 0.979500 0.290888
1.021848 0.992592 0.261235
0.001034 0.000966 0.197301
0.080705 0.004891 0.213900
0.242667 0.015003 0.229403
0.448622 0.034371 0.247298
0.669222 0.064466 0.269863
0.880633 0.104182 0.297537
0.013569 0.098000 0.230408
0.126941 0.121098 0.248633
0.303269 0.151464 0.268525
0.507692 0.191100 0.292834
0.713517 0.239864 0.322498
0.899084 0.295008 0.356432
0.057345 0.284390 0.267617
0.207127 0.316619 0.291559
0.400580 0.357093 0.319946
0.606386 0.406332 0.353680
0.792737 0.450589 0.387213
0.960295 0.467350 0.408907
0.149358 0.514329 0.337236
0.324237 0.542958 0.365388
0.514846 0.575670 0.394973
0.674255 0.594569 0.410810
0.837458 0.612146 0.425031
1.006863 0.626903 0.436503
0.239680 0.722176 0.422305
0.362744 0.747693 0.437127
0.510169 0.770833 0.448537
0.673812 0.788994 0.454334
0.847844 0.800814 0.453419
1.026472 0.805663 0.445385
0.216381 0.897287 0.473637
0.331118 0.921921 0.479845
0.477341 0.946847 0.482279
0.644788 0.968656 0.478154
0.826999 0.985416 0.465955
1.017753 0.996002 0.444982
0.003161 0.002877 0.393962
0.089159 0.008619 0.402151
0.253657 0.021431 0.405807
0.458983 0.043855 0.410037
0.676287 0.076808 0.418229
0.882156 0.118662 0.431719
0.020275 0.107143 0.409290
0.140471 0.132430 0.416620
0.319829 0.165644 0.423324
0.524150 0.208254 0.433469
0.727228 0.259581 0.448917
0.907783 0.316402 0.469347
0.071593 0.300488 0.425293
0.227933 0.332096 0.434007
0.425024 0.374982 0.448412
0.631003 0.427038 0.468339
0.803459 0.457674 0.499827
0.971369 0.472167 0.530977
0.172465 0.531225 0.467853
0.351928 0.562083 0.482983
0.516575 0.589971 0.512235
0.676753 0.606647 0.536427
0.843075 0.618492 0.556436
1.012848 0.630900 0.577832
0.236452 0.740183 0.545554
0.358076 0.763411 0.567455
0.505373 0.784288 0.587243
0.669883 0.800156 0.602099
0.845620 0.809603 0.610449
1.026749 0.811990 0.611489
0.208506 0.910929 0.614981
0.321366 0.933379 0.628575
0.467224 0.956144 0.640262
0.635438 0.975751 0.646542
0.819243 0.990194 0.645207
1.012596 0.998330 0.635070
0.007260 0.006496 0.627725
0.099517 0.014271 0.618998
0.266480 0.029986 0.602385
0.471099 0.055529 0.585197
0.685008 0.091195 0.572281
0.885205 0.134812 0.566027
0.029489 0.117890 0.608699
0.156388 0.145539 0.597073
0.338612 0.181657 0.583217
0.542623 0.227097 0.572874
0.742692 0.280614 0.568995
0.919196 0.332994 0.576944
0.088649 0.318520 0.587343
0.248946 0.352283 0.577581
0.451432 0.394231 0.570006
0.653355 0.445751 0.575213
0.813209 0.463906 0.620300
0.981475 0.476094 0.661137
0.197116 0.549154 0.586316
0.369271 0.583115 0.597131
0.516991 0.603353 0.635027
0.677989 0.617866 0.669119
0.846804 0.625647 0.697780
1.017815 0.633975 0.727698
0.232160 0.756655 0.667788
0.352278 0.777777 0.697299
0.499428 0.796545 0.726488
0.664782 0.810244 0.752008
0.842232 0.817386 0.771850
1.025871 0.817319 0.784804
0.200322 0.922539 0.748149
0.311129 0.943045 0.769561
0.456583 0.963907 0.791581
0.625416 0.981526 0.809830
0.810766 0.993831 0.821699
1.006542 0.999619 0.825462
0.013979 0.012362 0.881446
0.112277 0.022245 0.849069
0.281487 0.040865 0.805783
0.485174 0.069366 0.761522
0.695454 0.107376 0.722810
0.889715 0.152181 0.693149
0.041512 0.130529 0.815020
0.174827 0.160557 0.778244
0.359591 0.199439 0.738460
0.562926 0.247363 0.703306
0.759574 0.302511 0.676868
0.933260 0.336950 0.696093
0.107843 0.338155 0.737727
0.271747 0.373798 0.707583
0.476931 0.417123 0.679378
0.661846 0.453361 0.694011
0.821977 0.469270 0.748774
0.990602 0.479117 0.799525
0.221610 0.567375 0.682444
0.368467 0.597310 0.709656
0.516106 0.615608 0.757895
0.677951 0.628081 0.804177
0.848424 0.633696 0.846723
1.021756 0.636114 0.886240
0.227239 0.771079 0.777748
0.345758 0.790345 0.815097
0.492728 0.807298 0.854789
0.658856 0.819061 0.893086
0.837975 0.824083 0.927830
1.023995 0.821652 0.957559
0.192864 0.931347 0.853867
0.301467 0.950280 0.882990
0.446346 0.969668 0.916047
0.615666 0.985741 0.948272
0.802390 0.996287 0.976815
1.000337 1.000000 0.999712
