tools/decompiled/apktool/res/raw/glory.cube
LUT_3D_SIZE 16
0.000839 0.000000 0.000000
0.065468 0.015484 0.013175
0.147232 0.030810 0.027782
0.261871 0.043389 0.039423
0.390386 0.055417 0.050238
0.519761 0.064668 0.061403
0.625503 0.072496 0.073173
0.706144 0.081128 0.080959
0.763905 0.091931 0.093506
0.809085 0.102241 0.105612
0.850185 0.119102 0.123429
0.883020 0.149586 0.154431
0.909782 0.185115 0.190432
0.933013 0.210309 0.217008
0.953828 0.223176 0.231599
0.973664 0.229463 0.237208
0.018848 0.056427 0.020282
0.058828 0.062630 0.026462
0.142583 0.066156 0.032509
0.253774 0.070063 0.042455
0.384429 0.077723 0.050175
0.514905 0.083727 0.060429
0.623321 0.088942 0.069518
0.705405 0.096658 0.078366
0.765177 0.105087 0.090333
0.811062 0.113715 0.102142
0.850973 0.129960 0.119759
0.883256 0.159252 0.150114
0.910195 0.193925 0.186478
0.933408 0.219837 0.214826
0.954282 0.233287 0.230834
0.973929 0.239636 0.237070
0.029162 0.126286 0.036475
0.050677 0.127902 0.038985
0.128819 0.137027 0.047524
0.244505 0.139795 0.051505
0.372307 0.140839 0.055939
0.503781 0.142220 0.062427
0.615260 0.142549 0.067524
0.700981 0.144355 0.073828
0.764709 0.147686 0.083329
0.811920 0.152401 0.093867
0.850166 0.163290 0.109013
0.882368 0.185526 0.135165
0.909812 0.214914 0.167245
0.933867 0.239778 0.194469
0.955089 0.254157 0.211981
0.974811 0.262215 0.221899
0.036325 0.215446 0.048810
0.052098 0.215684 0.050355
0.112179 0.221216 0.057190
0.228158 0.229662 0.063558
0.360591 0.230652 0.066220
0.492223 0.227611 0.066833
0.605232 0.223224 0.068083
0.692913 0.218889 0.072426
0.759584 0.215540 0.076969
0.809123 0.214221 0.083644
0.848135 0.216409 0.092889
0.881249 0.226424 0.109433
0.909675 0.244432 0.131621
0.934202 0.262133 0.151460
0.955714 0.272745 0.164463
0.975833 0.277821 0.172270
0.044492 0.309396 0.067240
0.056057 0.309003 0.066978
0.103336 0.311072 0.068416
0.206968 0.318979 0.072005
0.344384 0.323594 0.072512
0.479614 0.320526 0.072326
0.594980 0.313419 0.072459
0.684459 0.305797 0.072729
0.753873 0.299063 0.073211
0.805561 0.293496 0.075937
0.845276 0.289995 0.080239
0.879396 0.289766 0.087258
0.908813 0.293127 0.095342
0.933949 0.296192 0.099976
0.956447 0.295584 0.100594
0.976800 0.289707 0.098263
0.049392 0.402381 0.078369
0.060902 0.402076 0.077398
0.099494 0.403351 0.076605
0.186168 0.410089 0.077759
0.323720 0.417515 0.078009
0.464889 0.416632 0.076332
0.584078 0.408180 0.074376
0.676232 0.398941 0.072599
0.748916 0.389835 0.070280
0.801792 0.381511 0.069731
0.842457 0.374378 0.070824
0.877091 0.368900 0.072204
0.907766 0.365050 0.073046
0.934056 0.363018 0.071637
0.956850 0.357128 0.066808
0.976937 0.342081 0.058380
0.054919 0.491929 0.088853
0.063204 0.491721 0.087150
0.097811 0.493171 0.083215
0.168958 0.498713 0.081422
0.298459 0.505524 0.078868
0.443992 0.509512 0.074950
0.572445 0.505079 0.071652
0.667724 0.493898 0.069281
0.741692 0.483388 0.066343
0.797308 0.473959 0.064011
0.839483 0.464846 0.063237
0.874193 0.456654 0.062638
0.904913 0.450262 0.061497
0.932188 0.446955 0.060034
0.955089 0.443580 0.056901
0.975025 0.429689 0.050315
0.056940 0.569287 0.091734
0.063273 0.569288 0.090258
0.096218 0.571073 0.085810
0.156418 0.576308 0.081518
0.274482 0.582505 0.076856
0.418657 0.588124 0.070306
0.555126 0.588547 0.065754
0.657188 0.579925 0.063560
0.733419 0.568712 0.061372
0.791547 0.559267 0.060219
0.834408 0.550723 0.061919
0.868200 0.541979 0.064534
0.897824 0.534690 0.065619
0.923828 0.531129 0.066418
0.945149 0.531902 0.066956
0.963942 0.527274 0.065246
0.057040 0.635851 0.088594
0.063104 0.635785 0.087532
0.093879 0.636616 0.083782
0.148564 0.640355 0.078532
0.253275 0.645885 0.072389
0.395422 0.650612 0.064136
0.532199 0.652283 0.059180
0.643876 0.649592 0.058004
0.724495 0.641250 0.060574
0.782757 0.631929 0.068233
0.822406 0.624881 0.081446
0.854588 0.617485 0.092929
0.881736 0.611060 0.101020
0.905824 0.606870 0.105832
0.926610 0.606406 0.108550
0.945810 0.604642 0.105503
0.055707 0.690296 0.080692
0.060670 0.690073 0.080203
0.090561 0.689879 0.077472
0.143006 0.692469 0.072420
0.235486 0.698824 0.066000
0.374022 0.703598 0.058335
0.511070 0.705422 0.054002
0.628407 0.704927 0.055729
0.713148 0.698182 0.073817
0.769161 0.688513 0.099360
0.808427 0.681520 0.120720
0.840182 0.676233 0.137446
0.867109 0.672316 0.148002
0.891068 0.670505 0.155156
0.912096 0.669405 0.157461
0.932176 0.665076 0.149870
0.052800 0.733372 0.068659
0.057722 0.732892 0.068287
0.085504 0.731664 0.066598
0.137594 0.732498 0.063300
0.221817 0.739466 0.058138
0.354916 0.745780 0.052898
0.493337 0.748500 0.049925
0.613112 0.748096 0.058137
0.699389 0.741175 0.095795
0.757744 0.732376 0.135017
0.798167 0.725253 0.158935
0.830716 0.720288 0.175144
0.857941 0.718376 0.187554
0.881314 0.719666 0.197460
0.903139 0.720749 0.201270
0.925191 0.712900 0.184078
0.047683 0.769644 0.054936
0.052829 0.768905 0.054478
0.077142 0.766610 0.053342
0.130775 0.764868 0.051091
0.210569 0.770350 0.048093
0.338034 0.777823 0.045502
0.478279 0.782761 0.044896
0.599147 0.779891 0.064886
0.688510 0.773168 0.114873
0.749614 0.766495 0.162592
0.791639 0.761154 0.190246
0.824601 0.756452 0.204094
0.852449 0.755706 0.215903
0.876524 0.758624 0.225576
0.899013 0.759002 0.220343
0.921334 0.754285 0.203697
0.041320 0.802016 0.043711
0.045619 0.801341 0.043511
0.065298 0.798132 0.042776
0.120781 0.794762 0.041759
0.196386 0.796898 0.040429
0.318930 0.803760 0.039002
0.460029 0.810651 0.039845
0.585271 0.805643 0.065665
0.680433 0.799137 0.126772
0.744112 0.794159 0.178492
0.787818 0.790955 0.208413
0.821761 0.787350 0.220736
0.849985 0.785144 0.220250
0.876011 0.787688 0.226906
0.899478 0.790982 0.239417
0.921898 0.793184 0.245248
0.034424 0.831278 0.034357
0.039124 0.830591 0.033938
0.055254 0.828073 0.032698
0.104855 0.823512 0.031228
0.183836 0.821679 0.030086
0.300235 0.824773 0.028605
0.441806 0.833921 0.031273
0.572758 0.828246 0.055265
0.673648 0.822661 0.125549
0.739769 0.818762 0.173351
0.785689 0.816338 0.199894
0.820825 0.815775 0.223896
0.851063 0.815620 0.240164
0.878458 0.817467 0.254639
0.902302 0.820410 0.263616
0.925349 0.822668 0.267567
0.026429 0.854342 0.026198
0.035634 0.853760 0.023518
0.050815 0.852701 0.017389
0.086317 0.850275 0.004378
0.180389 0.843715 0.000378
0.290867 0.842661 0.000000
0.431098 0.855157 0.007484
0.569548 0.849194 0.040163
0.670849 0.845469 0.120376
0.740673 0.844303 0.185920
0.788730 0.843605 0.226166
0.823882 0.844005 0.249265
0.853975 0.845029 0.264905
0.881872 0.846607 0.276435
0.906727 0.849399 0.282787
0.931001 0.852308 0.285913
0.025436 0.874106 0.025184
0.025440 0.874127 0.025187
0.046436 0.873323 0.019836
0.071777 0.872975 0.014123
0.140399 0.875121 0.002548
0.259619 0.865903 0.000390
0.408673 0.879816 0.010687
0.569878 0.873607 0.060634
0.673078 0.870090 0.138036
0.743131 0.870555 0.204730
0.792309 0.870305 0.244253
0.828224 0.871118 0.266371
0.859328 0.873011 0.281768
0.887529 0.876006 0.292037
0.913569 0.879754 0.297899
0.939938 0.883847 0.300883
0.006303 0.006238 0.064750
0.055991 0.014526 0.052070
0.140630 0.028933 0.054030
0.257397 0.042172 0.058621
0.387924 0.055039 0.067880
0.518248 0.064351 0.077866
0.625351 0.072175 0.086547
0.706506 0.080422 0.094672
0.764725 0.090939 0.104961
0.809568 0.101309 0.115603
0.850445 0.118497 0.132892
0.883254 0.149653 0.163844
0.909962 0.185849 0.199959
0.933148 0.211290 0.226488
0.953954 0.223807 0.240704
0.973620 0.230182 0.246217
0.017619 0.052857 0.048185
0.054021 0.059684 0.054139
0.137609 0.064262 0.056863
0.249403 0.068889 0.059705
0.381781 0.077155 0.067793
0.513484 0.083443 0.075498
0.622919 0.088874 0.081877
0.705540 0.096085 0.092031
0.765618 0.104445 0.101784
0.811501 0.113269 0.112298
0.851041 0.129724 0.129232
0.883425 0.159478 0.159542
0.910384 0.194828 0.196167
0.933672 0.221070 0.224741
0.954452 0.234251 0.240476
0.974036 0.240755 0.246751
0.028384 0.124072 0.054139
0.048719 0.126124 0.056362
0.127437 0.137219 0.065881
0.241851 0.139194 0.068607
0.369950 0.140211 0.071320
0.502438 0.141951 0.074810
0.614740 0.142430 0.079593
0.700633 0.144253 0.086689
0.764634 0.147855 0.094634
0.811852 0.152829 0.104294
0.850116 0.164032 0.119207
0.882310 0.186630 0.145453
0.910087 0.216754 0.177893
0.934130 0.242014 0.205445
0.955152 0.256554 0.223279
0.975170 0.264835 0.233430
0.035941 0.214043 0.065250
0.050676 0.214271 0.066184
0.110166 0.220645 0.072423
0.226770 0.229811 0.078101
0.359251 0.230616 0.078570
0.490997 0.227355 0.078517
0.604612 0.223101 0.080908
0.692470 0.218893 0.084048
0.759167 0.215827 0.087343
0.808837 0.214837 0.093494
0.847951 0.217679 0.103069
0.881339 0.228786 0.120555
0.909762 0.248076 0.143896
0.934546 0.266615 0.164713
0.955885 0.277800 0.178469
0.976121 0.283159 0.186738
0.043949 0.309051 0.078908
0.055179 0.308537 0.078228
0.101689 0.310789 0.079532
0.205077 0.319063 0.084222
0.343462 0.323989 0.086243
0.478694 0.320763 0.084885
0.594469 0.313580 0.083614
0.684259 0.305896 0.082664
0.753648 0.299301 0.081790
0.805233 0.293779 0.083723
0.845040 0.290706 0.088098
0.879382 0.291486 0.096194
0.909014 0.296334 0.105915
0.934313 0.301173 0.112715
0.956560 0.301282 0.114476
0.976932 0.296282 0.113373
0.049112 0.402622 0.091445
0.060384 0.402323 0.090155
0.098480 0.403352 0.088390
0.183859 0.410158 0.089169
0.322362 0.417931 0.089445
0.463972 0.417239 0.087147
0.583506 0.408717 0.083925
0.675936 0.399108 0.080711
0.748776 0.389975 0.076969
0.801550 0.381553 0.075604
0.842396 0.374470 0.076581
0.877185 0.369333 0.078221
0.908026 0.365950 0.079592
0.934438 0.364352 0.078790
0.956952 0.358953 0.074460
0.977079 0.344622 0.066807
0.054642 0.492192 0.099991
0.062733 0.491770 0.098026
0.096941 0.493064 0.093181
0.166730 0.498873 0.090913
0.296635 0.505674 0.088114
0.443143 0.509874 0.083384
0.571936 0.505579 0.078869
0.667477 0.494428 0.075412
0.741514 0.483703 0.071413
0.797372 0.474390 0.068384
0.839588 0.465224 0.067429
0.874494 0.457129 0.066912
0.905189 0.450721 0.065909
0.932426 0.447294 0.064773
0.955535 0.444317 0.062219
0.975242 0.430904 0.056241
0.056563 0.569083 0.101197
0.062765 0.569169 0.099561
0.095151 0.571096 0.094446
0.153924 0.576646 0.089655
0.272223 0.582639 0.084461
0.417430 0.588249 0.076484
0.554657 0.588963 0.070728
0.656952 0.580302 0.067890
0.733398 0.569156 0.065168
0.791537 0.559739 0.063564
0.834549 0.551171 0.065062
0.868304 0.542389 0.067704
0.897960 0.535045 0.068873
0.924511 0.531234 0.069881
0.945821 0.531722 0.070617
0.964355 0.527376 0.067655
0.056613 0.635936 0.096753
0.062529 0.635970 0.095600
0.092476 0.636931 0.091427
0.145837 0.640770 0.085687
0.250622 0.645988 0.078648
0.393645 0.650635 0.068624
0.531384 0.652712 0.062585
0.643620 0.649978 0.061150
0.724324 0.641654 0.063498
0.782642 0.632349 0.070949
0.822455 0.625127 0.083922
0.854761 0.617702 0.095392
0.881888 0.611245 0.103509
0.906219 0.606806 0.108411
0.926753 0.605790 0.110205
0.945843 0.604648 0.107906
0.055333 0.690917 0.088077
0.060134 0.690825 0.087522
0.089009 0.690659 0.084540
0.140037 0.693191 0.078893
0.232426 0.699189 0.071305
0.372041 0.703623 0.061950
0.509846 0.705830 0.056656
0.627878 0.705377 0.058157
0.712839 0.698681 0.076256
0.769159 0.688972 0.102053
0.808469 0.681884 0.123403
0.840148 0.676397 0.139830
0.867121 0.672299 0.149968
0.891142 0.669964 0.156503
0.912084 0.668697 0.158992
0.932069 0.666130 0.153952
0.052535 0.734004 0.075451
0.057328 0.733590 0.075080
0.084121 0.732645 0.073178
0.134580 0.733348 0.069368
0.218434 0.739968 0.063025
0.352704 0.746047 0.056349
0.491888 0.748891 0.052392
0.612261 0.748487 0.060249
0.699039 0.741651 0.098153
0.757643 0.732766 0.137677
0.798190 0.725806 0.162016
0.830585 0.720692 0.177949
0.857954 0.718379 0.189835
0.881581 0.718911 0.199019
0.903203 0.720893 0.204603
0.924880 0.715275 0.192347
0.047610 0.770193 0.061680
0.052623 0.769510 0.061186
0.076170 0.767345 0.059721
0.128026 0.765933 0.057178
0.206832 0.771021 0.053095
0.335559 0.778158 0.049284
0.476944 0.783017 0.047515
0.598602 0.780352 0.067318
0.688428 0.773510 0.117548
0.749452 0.766610 0.165328
0.791680 0.761731 0.193718
0.824602 0.756890 0.207601
0.852521 0.755937 0.219576
0.876760 0.758572 0.229707
0.899206 0.760252 0.230383
0.921334 0.754269 0.203669
0.041302 0.802648 0.046616
0.045473 0.801770 0.046291
0.064004 0.798787 0.045511
0.117963 0.795767 0.044450
0.193015 0.797458 0.042943
0.316739 0.804255 0.041414
0.459147 0.810952 0.042419
0.584822 0.806180 0.068800
0.680133 0.799376 0.129700
0.744128 0.794346 0.182204
0.788003 0.791279 0.212909
0.821913 0.788025 0.226820
0.850218 0.786261 0.231581
0.875981 0.787591 0.226932
0.899478 0.790975 0.239410
0.921913 0.793201 0.245273
0.034594 0.831578 0.037952
0.039273 0.830967 0.037482
0.054927 0.828770 0.035920
0.103292 0.824448 0.034461
0.179883 0.822702 0.033209
0.297610 0.825797 0.031735
0.440896 0.834567 0.035062
0.572593 0.829002 0.060873
0.673983 0.823202 0.132230
0.740392 0.819598 0.184647
0.785704 0.816330 0.199899
0.820818 0.815768 0.223886
0.851088 0.815639 0.240178
0.878460 0.817465 0.254638
0.902269 0.820410 0.263596
0.925365 0.822670 0.267570
0.027078 0.854470 0.034210
0.036236 0.853859 0.031523
0.051480 0.852747 0.026538
0.083958 0.851029 0.018976
0.171993 0.845822 0.012534
0.288548 0.842861 0.003811
0.431037 0.855141 0.007469
0.569569 0.849184 0.040166
0.670910 0.845465 0.120328
0.740657 0.844301 0.185910
0.788723 0.843605 0.226161
0.823880 0.844006 0.249265
0.853979 0.845032 0.264910
0.881883 0.846613 0.276442
0.906678 0.849408 0.282793
0.930972 0.852320 0.285917
0.025434 0.874106 0.025183
0.025440 0.874127 0.025187
0.046373 0.873327 0.019848
0.071748 0.872975 0.014129
0.140339 0.875120 0.002567
0.259554 0.865914 0.000390
0.408506 0.879798 0.010667
0.569855 0.873617 0.060624
0.673093 0.870107 0.138070
0.743154 0.870572 0.204739
0.792328 0.870323 0.244278
0.828250 0.871142 0.266390
0.859341 0.873030 0.281777
0.887481 0.876031 0.292046
0.913603 0.879784 0.297905
0.939949 0.883867 0.300886
0.010880 0.010957 0.164406
0.044467 0.015307 0.142268
0.126993 0.025021 0.128469
0.244878 0.039519 0.124007
0.380818 0.053502 0.126560
0.514619 0.063485 0.130882
0.624238 0.071141 0.134619
0.707684 0.078203 0.137981
0.766801 0.087978 0.143095
0.811476 0.097969 0.150993
0.851122 0.114177 0.166075
0.883269 0.142979 0.193113
0.909947 0.177245 0.225339
0.933189 0.202150 0.249626
0.953946 0.215470 0.263281
0.973719 0.225813 0.271283
0.017880 0.048917 0.129834
0.039838 0.047842 0.124327
0.120434 0.056703 0.122372
0.236184 0.064831 0.120413
0.374154 0.075217 0.123874
0.509567 0.082462 0.126909
0.621249 0.087931 0.130679
0.705916 0.094420 0.134901
0.766847 0.102312 0.140202
0.812471 0.110649 0.147919
0.851559 0.125534 0.162317
0.883671 0.152383 0.188449
0.910492 0.185878 0.221399
0.933706 0.211633 0.247703
0.954631 0.225827 0.263175
0.974085 0.237066 0.272815
0.027378 0.119625 0.117669
0.043770 0.120426 0.118346
0.121104 0.136358 0.128045
0.233525 0.137202 0.123676
0.362056 0.137736 0.122181
0.498296 0.140543 0.122346
0.613117 0.141983 0.124038
0.700179 0.143820 0.128170
0.764346 0.147612 0.133143
0.811671 0.152379 0.140543
0.850233 0.162949 0.153763
0.882834 0.184921 0.178178
0.910529 0.214578 0.208932
0.934540 0.239395 0.235097
0.955577 0.254442 0.252765
0.975515 0.266475 0.265761
0.035345 0.210237 0.117669
0.047339 0.209828 0.117280
0.104998 0.219960 0.124063
0.224007 0.231352 0.129328
0.354751 0.230316 0.125983
0.487163 0.226556 0.122228
0.602899 0.222712 0.121744
0.691379 0.219006 0.123233
0.758377 0.216594 0.125061
0.808194 0.216228 0.130164
0.847758 0.220512 0.140131
0.881314 0.234317 0.159796
0.910051 0.256150 0.184997
0.934988 0.276438 0.206918
0.956666 0.289061 0.221841
0.976933 0.297298 0.232098
0.042691 0.308110 0.125530
0.052906 0.307354 0.124625
0.096582 0.309775 0.124168
0.198376 0.319574 0.128422
0.340472 0.325271 0.129520
0.475633 0.321377 0.125411
0.592730 0.314070 0.121362
0.683347 0.306300 0.118985
0.752656 0.300189 0.117469
0.804462 0.295233 0.118715
0.844677 0.294186 0.124509
0.879219 0.299718 0.137289
0.909139 0.310757 0.153142
0.934846 0.320209 0.164021
0.957480 0.322158 0.166446
0.977986 0.318146 0.164338
0.048341 0.403549 0.132869
0.058778 0.402828 0.130897
0.095426 0.403126 0.126788
0.176365 0.410293 0.127064
0.317941 0.419244 0.128389
0.461171 0.418964 0.125241
0.581870 0.410166 0.119900
0.675104 0.399975 0.114915
0.747583 0.390804 0.110581
0.800795 0.382749 0.108098
0.842167 0.376222 0.108821
0.877127 0.373842 0.112419
0.908226 0.374702 0.117373
0.934758 0.375617 0.117443
0.957906 0.369441 0.108524
0.977880 0.352762 0.094066
0.053860 0.493134 0.137211
0.061375 0.492526 0.134953
0.094596 0.493132 0.128602
0.159940 0.499123 0.125427
0.290275 0.506447 0.123415
0.439900 0.511254 0.118866
0.570175 0.507168 0.113185
0.666372 0.495654 0.107911
0.740407 0.484863 0.102793
0.796431 0.475321 0.097790
0.839615 0.466429 0.094873
0.874904 0.458758 0.092928
0.906136 0.453159 0.090197
0.933630 0.449929 0.086198
0.956845 0.446506 0.079404
0.976128 0.435293 0.075560
0.055616 0.569627 0.136659
0.061362 0.569602 0.134596
0.092595 0.571565 0.128098
0.148327 0.577229 0.122430
0.264351 0.583533 0.117619
0.413345 0.588960 0.109499
0.552609 0.590347 0.102722
0.655712 0.581811 0.097547
0.732423 0.570641 0.092505
0.791048 0.561210 0.087844
0.834831 0.552623 0.085388
0.869100 0.543943 0.084836
0.899071 0.536446 0.083145
0.925915 0.531453 0.081241
0.947663 0.530823 0.082382
0.966305 0.526547 0.080165
0.055569 0.636270 0.131024
0.061039 0.636285 0.129276
0.089555 0.637718 0.123287
0.140819 0.641709 0.116729
0.241461 0.646925 0.109682
0.388638 0.651347 0.098705
0.528557 0.653959 0.089621
0.642239 0.651573 0.084839
0.723690 0.643109 0.083352
0.782823 0.633652 0.086241
0.823227 0.626268 0.095736
0.855270 0.618491 0.104661
0.882295 0.611642 0.111628
0.906980 0.606670 0.116871
0.928111 0.604780 0.118823
0.946502 0.604296 0.116700
0.054386 0.691793 0.119617
0.058834 0.691805 0.118624
0.085789 0.692379 0.113999
0.134275 0.695018 0.107249
0.222654 0.700156 0.098507
0.365799 0.704437 0.086088
0.505958 0.707079 0.076194
0.625978 0.706827 0.073240
0.712177 0.700157 0.087511
0.769342 0.690227 0.111732
0.808500 0.683011 0.132079
0.840057 0.677287 0.147885
0.867206 0.672621 0.157456
0.891497 0.669238 0.163239
0.912658 0.666950 0.164862
0.932011 0.666417 0.162660
0.051824 0.735762 0.101779
0.056248 0.735639 0.101237
0.080632 0.735270 0.098542
0.126869 0.736281 0.093114
0.207890 0.741583 0.083555
0.345468 0.747023 0.071923
0.487084 0.750013 0.062598
0.609504 0.749983 0.067151
0.697866 0.742889 0.105723
0.757346 0.733963 0.146356
0.798195 0.727008 0.171542
0.830387 0.722041 0.187213
0.857912 0.718485 0.197245
0.881986 0.717014 0.203912
0.903690 0.718439 0.209870
0.924218 0.719403 0.209760
0.047244 0.771933 0.083453
0.051887 0.771434 0.082862
0.073079 0.769917 0.080768
0.119045 0.769107 0.076762
0.194549 0.772889 0.069192
0.327370 0.779339 0.061416
0.471651 0.783791 0.056433
0.595334 0.781827 0.074758
0.687061 0.774769 0.125547
0.748926 0.767643 0.173845
0.791649 0.762912 0.203901
0.824599 0.758286 0.218479
0.852538 0.756133 0.228928
0.877169 0.757674 0.239070
0.899627 0.761081 0.246583
0.921573 0.759211 0.238468
0.041289 0.803989 0.068042
0.045402 0.803330 0.067270
0.062126 0.801005 0.065413
0.110573 0.798451 0.062469
0.181243 0.799885 0.057867
0.308397 0.806097 0.052606
0.455091 0.812128 0.051485
0.583080 0.807845 0.078571
0.679388 0.800344 0.139169
0.743616 0.795197 0.191874
0.788178 0.792334 0.225036
0.822401 0.789495 0.241592
0.851026 0.788103 0.250807
0.876667 0.789715 0.258316
0.899930 0.792048 0.255566
0.921943 0.793204 0.245281
0.035137 0.832970 0.050029
0.039622 0.832316 0.049206
0.054314 0.830508 0.047409
0.096930 0.827748 0.045266
0.167725 0.826556 0.043491
0.287585 0.829977 0.041582
0.437070 0.836632 0.045689
0.571166 0.830956 0.075686
0.674288 0.824274 0.147428
0.741061 0.821167 0.203685
0.787406 0.819295 0.236926
0.821860 0.817838 0.251206
0.851072 0.815900 0.244791
0.878413 0.817511 0.254668
0.902307 0.820429 0.263612
0.925427 0.822707 0.267590
0.028443 0.854757 0.049890
0.037603 0.854156 0.046952
0.053252 0.853016 0.042640
0.083806 0.852471 0.036091
0.155793 0.850695 0.030489
0.273156 0.846789 0.027788
0.420550 0.856849 0.032915
0.567411 0.851298 0.066548
0.671465 0.846306 0.138083
0.740635 0.844309 0.185891
0.788752 0.843643 0.226209
0.823889 0.844028 0.249277
0.854095 0.845039 0.264944
0.881847 0.846645 0.276469
0.906745 0.849383 0.282822
0.930980 0.852290 0.285907
0.025437 0.874115 0.025185
0.025446 0.874154 0.025192
0.046371 0.873355 0.019851
0.071728 0.873001 0.014138
0.140165 0.875135 0.002548
0.259442 0.865882 0.000000
0.408667 0.879869 0.010693
0.569924 0.873647 0.060661
0.673005 0.870108 0.137993
0.743144 0.870583 0.204730
0.792319 0.870366 0.244279
0.828256 0.871203 0.266408
0.859294 0.873025 0.281763
0.887529 0.876120 0.292081
0.913663 0.879785 0.297909
0.940030 0.883887 0.300890
0.015113 0.015759 0.281752
0.039374 0.017953 0.260296
0.114183 0.024276 0.236177
0.230727 0.037809 0.220718
0.371366 0.050535 0.215350
0.510626 0.061858 0.212162
0.622739 0.069790 0.209961
0.707977 0.076304 0.208901
0.769535 0.084619 0.209033
0.814692 0.093266 0.212329
0.852607 0.107815 0.222618
0.884030 0.133020 0.242338
0.910461 0.163411 0.267140
0.933609 0.185209 0.285399
0.954093 0.195633 0.294334
0.973664 0.203386 0.299432
0.019815 0.046197 0.244737
0.037114 0.044104 0.231645
0.102247 0.048055 0.218636
0.219916 0.059938 0.211916
0.363783 0.071597 0.210296
0.504540 0.080389 0.207992
0.619110 0.086327 0.206207
0.705814 0.092492 0.206022
0.768403 0.099014 0.206408
0.814377 0.106091 0.209211
0.852577 0.118373 0.218213
0.884186 0.140529 0.236450
0.910719 0.169726 0.261545
0.933936 0.192217 0.281565
0.954604 0.203542 0.292041
0.974067 0.212519 0.298889
0.027742 0.117378 0.211639
0.039857 0.113649 0.206434
0.097840 0.121699 0.211411
0.214714 0.129787 0.205782
0.349399 0.132322 0.201912
0.491621 0.137911 0.200201
0.610661 0.140337 0.198107
0.699144 0.142737 0.198249
0.763753 0.145696 0.198887
0.811762 0.149656 0.201362
0.850712 0.159024 0.210537
0.883280 0.178429 0.229939
0.911189 0.204709 0.255087
0.934978 0.226632 0.276287
0.955928 0.238633 0.289534
0.975821 0.247273 0.298474
0.035426 0.207491 0.201178
0.044988 0.205276 0.198724
0.096306 0.216503 0.206026
0.219091 0.233357 0.211425
0.347518 0.229116 0.201826
0.480177 0.224757 0.194685
0.600277 0.221865 0.190853
0.690448 0.219593 0.190381
0.757296 0.217505 0.190133
0.807976 0.217515 0.191588
0.847758 0.223179 0.199990
0.881576 0.239244 0.220551
0.910554 0.262942 0.246694
0.935596 0.283760 0.268605
0.957567 0.295761 0.283207
0.978136 0.303195 0.292995
0.041849 0.306228 0.198766
0.051000 0.304780 0.197033
0.091245 0.307876 0.197298
0.190590 0.321808 0.203735
0.337257 0.327314 0.202637
0.470815 0.321700 0.193707
0.589752 0.314401 0.186555
0.682021 0.307474 0.182926
0.751512 0.301652 0.180748
0.803988 0.297605 0.179898
0.844503 0.299429 0.186457
0.879310 0.311269 0.204762
0.909418 0.331286 0.230081
0.935447 0.349205 0.250295
0.958521 0.357886 0.260908
0.979559 0.357014 0.263100
0.047835 0.404083 0.198251
0.056816 0.402810 0.196399
0.091220 0.401765 0.192350
0.164550 0.410201 0.192752
0.311414 0.421160 0.195678
0.457298 0.421090 0.191298
0.579009 0.411880 0.182823
0.673494 0.401628 0.175666
0.746018 0.392459 0.170635
0.800020 0.384934 0.166401
0.841957 0.380555 0.167620
0.876971 0.384280 0.177638
0.908093 0.395045 0.193720
0.934825 0.405310 0.205092
0.958333 0.408031 0.207212
0.978437 0.401601 0.204486
0.052827 0.495216 0.197299
0.059476 0.494214 0.195295
0.091223 0.493517 0.189177
0.150571 0.498844 0.185313
0.279433 0.507517 0.184634
0.434830 0.513530 0.181484
0.567124 0.509120 0.174557
0.664424 0.497522 0.166477
0.738400 0.486319 0.159834
0.795178 0.477357 0.152834
0.839425 0.469122 0.148565
0.875264 0.463659 0.148041
0.906739 0.460628 0.147953
0.934479 0.457871 0.143935
0.957458 0.456710 0.140620
0.976650 0.448783 0.133938
0.054391 0.571501 0.194835
0.059506 0.571191 0.192640
0.089148 0.572366 0.185312
0.141533 0.577671 0.178740
0.250868 0.584732 0.174551
0.406972 0.590577 0.167964
0.549115 0.592337 0.161116
0.653756 0.584055 0.153165
