tools/decompiled/apktool/res/raw/glory.cube
LUT_3D_SIZE 6
0.000839 0.000000 0.000000
0.261871 0.043389 0.039423
0.625503 0.072496 0.073173
0.809085 0.102241 0.105612
0.909782 0.185115 0.190432
0.973664 0.229463 0.237208
0.036325 0.215446 0.048810
0.228158 0.229662 0.063558
0.605232 0.223224 0.068083
0.809123 0.214221 0.083644
0.909675 0.244432 0.131621
0.975833 0.277821 0.172270
0.054919 0.491929 0.088853
0.168958 0.498713 0.081422
0.572445 0.505079 0.071652
0.797308 0.473959 0.064011
0.904913 0.450262 0.061497
0.975025 0.429689 0.050315
0.055707 0.690296 0.080692
0.143006 0.692469 0.072420
0.511070 0.705422 0.054002
0.769161 0.688513 0.099360
0.867109 0.672316 0.148002
0.932176 0.665076 0.149870
0.041320 0.802016 0.043711
0.120781 0.794762 0.041759
0.460029 0.810651 0.039845
0.744112 0.794159 0.178492
0.849985 0.785144 0.220250
0.921898 0.793184 0.245248
0.025436 0.874106 0.025184
0.071777 0.872975 0.014123
0.408673 0.879816 0.010687
0.743131 0.870555 0.204730
0.859328 0.873011 0.281768
0.939938 0.883847 0.300883
0.015113 0.015759 0.281752
0.230727 0.037809 0.220718
0.622739 0.069790 0.209961
0.814692 0.093266 0.212329
0.910461 0.163411 0.267140
0.973664 0.203386 0.299432
0.035426 0.207491 0.201178
0.219091 0.233357 0.211425
0.600277 0.221865 0.190853
0.807976 0.217515 0.191588
0.910554 0.262942 0.246694
0.978136 0.303195 0.292995
0.052827 0.495216 0.197299
0.150571 0.498844 0.185313
0.567124 0.509120 0.174557
0.795178 0.477357 0.152834
0.906739 0.460628 0.147953
0.976650 0.448783 0.133938
0.053410 0.692824 0.176055
0.128470 0.697275 0.158500
0.499984 0.709234 0.124869
0.770441 0.693379 0.135017
0.868858 0.674398 0.174895
0.933244 0.664743 0.174679
0.041282 0.805606 0.111571
0.103473 0.801988 0.103069
0.446326 0.813564 0.075158
0.742588 0.796406 0.205072
0.851083 0.789414 0.268787
0.922071 0.794319 0.280024
0.029845 0.874885 0.069038
0.079835 0.874267 0.052963
0.398719 0.881048 0.037970
0.743154 0.870665 0.204716
0.859415 0.873134 0.281812
0.940112 0.883969 0.300923
0.028209 0.032945 0.567244
0.203426 0.035433 0.545370
0.616170 0.065487 0.514118
0.820273 0.091303 0.485495
0.916902 0.200246 0.514200
0.981103 0.257360 0.532619
0.037246 0.204472 0.517474
0.144717 0.192152 0.496308
0.584888 0.211290 0.480168
0.808829 0.214666 0.455993
0.913244 0.249595 0.468282
0.980289 0.276823 0.478444
0.050504 0.494751 0.458337
0.126384 0.491374 0.445679
0.556138 0.515922 0.443092
0.793732 0.484841 0.407243
0.905834 0.519171 0.449058
0.976232 0.581999 0.525040
0.052708 0.702294 0.409189
0.126121 0.700145 0.396596
0.479360 0.714354 0.379133
0.771328 0.705678 0.355071
0.894227 0.688702 0.330571
0.963315 0.678190 0.329983
0.052392 0.806986 0.363832
0.095745 0.807511 0.344766
0.411940 0.821503 0.316072
0.745825 0.821260 0.321739
0.866485 0.809623 0.386963
0.936764 0.807744 0.391819
0.051377 0.868615 0.350150
0.092310 0.869766 0.307542
0.381380 0.902961 0.275985
0.747950 0.889523 0.344980
0.869500 0.886866 0.409108
0.946746 0.892227 0.402390
0.046193 0.051981 0.668676
0.225086 0.063344 0.730792
0.602486 0.066851 0.740906
0.820353 0.091178 0.714811
0.917322 0.226687 0.728998
0.981968 0.279239 0.736773
0.044421 0.220002 0.725243
0.139962 0.201181 0.726153
0.561960 0.210372 0.714415
0.808842 0.206464 0.698300
0.912961 0.285306 0.699516
0.980665 0.334947 0.704616
0.054169 0.509455 0.704610
0.108192 0.483505 0.694846
0.512437 0.500652 0.689167
0.791028 0.483401 0.664356
0.905970 0.529867 0.674555
0.975879 0.598681 0.708278
0.060108 0.703850 0.656833
0.113978 0.702002 0.645441
0.441106 0.717648 0.640033
0.766098 0.712130 0.624515
0.896120 0.697991 0.607039
0.969645 0.692457 0.599693
0.107778 0.790968 0.603996
0.141373 0.792869 0.595693
0.373687 0.825241 0.589790
0.741319 0.834294 0.584551
0.887501 0.831035 0.574568
0.968357 0.832072 0.575432
0.115360 0.853952 0.601161
0.153905 0.854806 0.578594
0.376556 0.897181 0.582637
0.742702 0.922014 0.564930
0.897173 0.921031 0.591147
0.983276 0.931516 0.614408
0.056487 0.077170 0.767948
0.188111 0.076233 0.845026
0.604934 0.101613 0.856526
0.815555 0.100306 0.843249
0.916757 0.217196 0.848116
0.981553 0.269779 0.848197
0.045618 0.202054 0.859406
0.162352 0.231939 0.845024
0.563947 0.237427 0.843053
0.798858 0.203279 0.822307
0.912288 0.294533 0.835102
0.979922 0.364770 0.840402
0.146389 0.564920 0.801117
0.135854 0.504228 0.825722
0.492200 0.493447 0.825252
0.783278 0.478783 0.817064
0.906366 0.529433 0.809821
0.974770 0.607397 0.814464
0.083848 0.695413 0.791320
0.117716 0.693824 0.792463
0.395766 0.706879 0.796756
0.757363 0.708734 0.789648
0.894785 0.700312 0.779333
0.969155 0.696260 0.775581
0.144060 0.777535 0.742201
0.176228 0.778236 0.738011
0.362740 0.812791 0.754639
0.733554 0.836910 0.765945
0.885870 0.834628 0.762858
0.970455 0.837505 0.766230
0.154677 0.845570 0.732586
0.194507 0.844545 0.723720
0.408421 0.882677 0.754248
0.739082 0.924261 0.767267
0.898724 0.927686 0.774818
0.988708 0.938180 0.794200
0.066874 0.098392 0.856831
0.207183 0.119960 0.914697
0.636498 0.179270 0.924918
0.824586 0.181550 0.915583
0.917610 0.217879 0.906716
0.979912 0.273143 0.898377
0.058083 0.195325 0.912021
0.206413 0.280022 0.919275
0.615489 0.312038 0.920619
0.816879 0.288432 0.904324
0.918641 0.354396 0.904443
0.978639 0.417891 0.897062
0.106014 0.513960 0.893878
0.145469 0.505604 0.903846
0.539109 0.557207 0.908262
0.795302 0.539766 0.902075
0.912287 0.544207 0.895930
0.973528 0.571144 0.870719
0.099847 0.692258 0.862709
0.149411 0.694691 0.869103
0.400385 0.707041 0.889757
0.749502 0.703234 0.882112
0.892079 0.698281 0.875915
0.968813 0.705859 0.875624
0.157859 0.772614 0.817520
0.193953 0.773363 0.816373
0.372788 0.804519 0.839862
0.721374 0.833812 0.866678
0.884664 0.834948 0.865072
0.971066 0.840275 0.869655
0.175167 0.844182 0.808829
0.215070 0.842172 0.806448
0.430167 0.879218 0.841844
0.735990 0.925168 0.871804
0.900592 0.929765 0.877516
0.991250 0.941454 0.891081
