tools/decompiled/apktool/res/raw/gold.cube
LUT_3D_SIZE 6
0.026296 0.012672 0.005963
0.280998 0.027520 0.000065
0.542082 0.000126 0.000126
0.652448 0.000120 0.000120
0.720042 0.000114 0.000114
0.757993 0.000140 0.000140
0.034435 0.119484 0.000041
0.213978 0.155659 0.000033
0.430216 0.192142 0.000036
0.620523 0.208768 0.000055
0.755591 0.212989 0.000158
0.852319 0.215375 0.000161
0.120079 0.331484 0.000096
0.295174 0.369213 0.000153
0.485938 0.411589 0.000138
0.673596 0.444894 0.000168
0.810853 0.463473 0.000174
0.913938 0.475805 0.000311
0.271285 0.541974 0.000129
0.392819 0.569454 0.000180
0.545426 0.603971 0.000208
0.713474 0.637733 0.000255
0.840118 0.659412 0.000059
0.946737 0.676063 0.000173
0.417755 0.719514 0.000315
0.495770 0.735507 0.000203
0.614925 0.760410 0.000206
0.748619 0.786785 0.000238
0.864086 0.807638 0.000233
0.964313 0.824571 0.000306
0.529167 0.851489 0.106276
0.590178 0.863263 0.082488
0.692419 0.882538 0.000427
0.783313 0.898523 0.000355
0.890397 0.916603 0.000405
0.978619 0.931014 0.000458
0.005321 0.013811 0.126705
0.266276 0.000049 0.127719
0.513195 0.000123 0.127688
0.651806 0.000083 0.123755
0.736154 0.000152 0.124873
0.777799 0.000172 0.132498
0.000027 0.134222 0.125152
0.227845 0.167483 0.128316
0.457696 0.194113 0.122843
0.652419 0.202003 0.105858
0.789608 0.200241 0.092808
0.889945 0.198474 0.092167
0.000035 0.356355 0.174526
0.278785 0.392815 0.162752
0.498035 0.430229 0.000191
0.696881 0.455882 0.000306
0.840537 0.470964 0.000171
0.943918 0.480486 0.000212
0.203483 0.573007 0.203607
0.364658 0.598792 0.195455
0.536250 0.630318 0.177598
0.718118 0.660434 0.000133
0.854789 0.678426 0.000161
0.964567 0.691431 0.000173
0.381772 0.747022 0.257937
0.467803 0.761944 0.252261
0.600059 0.785809 0.240207
0.741136 0.809947 0.223575
0.867334 0.829479 0.109697
0.974398 0.842789 0.000314
0.511567 0.872252 0.344514
0.576576 0.883858 0.341135
0.680133 0.902300 0.334745
0.774284 0.918170 0.329538
0.885176 0.935615 0.323612
0.975914 0.949390 0.279757
0.006275 0.000019 0.295963
0.229140 0.000070 0.337734
0.487547 0.000118 0.361202
0.642316 0.000166 0.364729
0.744693 0.000225 0.366930
0.795741 0.000139 0.370218
0.000071 0.159199 0.334617
0.219783 0.189994 0.374721
0.461400 0.215737 0.395787
0.659476 0.224129 0.402847
0.798358 0.223576 0.405418
0.900155 0.222816 0.409207
0.000108 0.387433 0.407321
0.252700 0.421090 0.425763
0.490498 0.455173 0.433880
0.695370 0.479160 0.436553
0.845909 0.492406 0.435944
0.949211 0.500522 0.436916
0.100268 0.603050 0.461399
0.336932 0.627720 0.466765
0.523649 0.656963 0.469837
0.710250 0.684810 0.454405
0.866916 0.698526 0.412124
0.982184 0.707074 0.409482
0.344166 0.773417 0.505827
0.443125 0.787923 0.506686
0.586812 0.810949 0.506557
0.730436 0.833024 0.504180
0.860019 0.851283 0.490862
0.973420 0.863197 0.437607
0.491495 0.895137 0.554243
0.561410 0.906425 0.554209
0.666091 0.923197 0.553328
0.764047 0.938568 0.551781
0.878873 0.955308 0.549497
0.968033 0.967303 0.541006
0.004984 0.000028 0.428100
0.228293 0.000081 0.503260
0.470678 0.000080 0.545952
0.644737 0.000173 0.561431
0.754314 0.000201 0.567906
0.821478 0.000098 0.572460
0.000093 0.180495 0.510671
0.224862 0.207073 0.571356
0.471227 0.230726 0.606430
0.669992 0.239530 0.621836
0.810158 0.240142 0.628190
0.912669 0.240724 0.632327
0.000061 0.413194 0.600399
0.239588 0.443721 0.633285
0.487095 0.476069 0.655069
0.690718 0.500264 0.667190
0.843133 0.514079 0.672333
0.945855 0.522467 0.674791
0.000197 0.624628 0.664185
0.322076 0.649542 0.678182
0.517614 0.676757 0.688997
0.703536 0.702520 0.696241
0.851247 0.718354 0.698008
0.960946 0.728913 0.698815
0.315509 0.794123 0.706842
0.426426 0.808021 0.710999
0.579461 0.830141 0.716655
0.722580 0.850809 0.720106
0.854865 0.867936 0.721157
0.967424 0.878749 0.695692
0.477006 0.914231 0.739013
0.551231 0.925118 0.741530
0.654650 0.940854 0.744078
0.755843 0.955616 0.745483
0.873286 0.972096 0.746097
0.961051 0.983002 0.745924
0.000032 0.000919 0.534519
0.240944 0.000089 0.617542
0.473164 0.000133 0.667742
0.652342 0.000147 0.690632
0.771609 0.000169 0.702433
0.852590 0.000144 0.710906
0.000121 0.211211 0.631026
0.237989 0.235193 0.697635
0.482752 0.258054 0.739069
0.680461 0.268296 0.760679
0.821886 0.270839 0.771012
0.924312 0.273011 0.777191
0.000175 0.439236 0.726342
0.246632 0.466827 0.764993
0.493432 0.497156 0.792457
0.695377 0.520203 0.810228
0.848555 0.533929 0.819530
0.950544 0.542192 0.823887
0.000295 0.643334 0.793570
0.327840 0.667001 0.813450
0.521160 0.692149 0.828175
0.704033 0.716440 0.840379
0.848867 0.733312 0.847171
0.955751 0.744107 0.850954
0.310799 0.808393 0.837875
0.425785 0.821952 0.844087
0.582448 0.843547 0.853297
0.721577 0.862418 0.860096
0.854795 0.879461 0.865179
0.960130 0.889556 0.864785
0.476811 0.927293 0.863771
0.552713 0.937991 0.867230
0.651465 0.952209 0.871705
0.754123 0.966536 0.875452
0.872872 0.982717 0.878918
0.958067 0.992933 0.880019
0.000071 0.071349 0.631341
0.258660 0.060502 0.720186
0.491266 0.046785 0.772487
0.673356 0.000180 0.794785
0.796910 0.000185 0.805391
0.887042 0.000222 0.814719
0.000091 0.254916 0.719590
0.255661 0.277440 0.784349
0.495503 0.300597 0.827365
0.691072 0.312855 0.852387
0.833579 0.317743 0.865634
0.935812 0.321531 0.873773
0.000194 0.467666 0.810068
0.267282 0.493774 0.850722
0.504025 0.523004 0.880508
0.701406 0.545971 0.901256
0.854459 0.560015 0.913081
0.955551 0.568075 0.918672
0.000225 0.663903 0.884031
0.339466 0.684067 0.900078
0.531220 0.708487 0.917391
0.707816 0.731101 0.931976
0.852995 0.747724 0.940854
0.957389 0.758108 0.945142
0.323305 0.821076 0.924202
0.436356 0.834259 0.931792
0.592339 0.855056 0.942849
0.724355 0.872548 0.951001
0.857956 0.889281 0.957280
0.955932 0.899898 0.960621
0.486937 0.937512 0.949501
0.562521 0.947787 0.954028
0.653583 0.960750 0.959234
0.756490 0.975004 0.964648
0.874129 0.990362 0.969151
0.959006 1.000000 0.971930
