tools/decompiled/apktool/res/raw/gold.cube
LUT_3D_SIZE 16
0.026296 0.012672 0.005963
0.070348 0.015642 0.000017
0.171264 0.023437 0.000042
0.280998 0.027520 0.000065
0.384566 0.021045 0.000043
0.476735 0.005667 0.000104
0.542082 0.000126 0.000126
0.588462 0.000085 0.000085
0.622174 0.000127 0.000127
0.652448 0.000120 0.000120
0.681563 0.000118 0.000118
0.705082 0.000044 0.000044
0.720042 0.000114 0.000114
0.732997 0.000103 0.000103
0.745841 0.000217 0.000217
0.757993 0.000140 0.000140
0.030253 0.026282 0.000014
0.055908 0.029691 0.000014
0.110187 0.036643 0.000011
0.182897 0.045733 0.000051
0.262097 0.053071 0.000062
0.342431 0.056733 0.000083
0.416940 0.055548 0.000075
0.488653 0.048801 0.000089
0.542994 0.040885 0.000057
0.594180 0.030936 0.000095
0.638562 0.023721 0.000068
0.674433 0.021836 0.000146
0.708081 0.020157 0.000193
0.739924 0.018282 0.000132
0.764758 0.016505 0.000126
0.783165 0.016273 0.000111
0.031957 0.064320 0.000015
0.069869 0.071595 0.000018
0.125844 0.081933 0.000032
0.192995 0.094290 0.000039
0.266550 0.105872 0.000029
0.344202 0.115560 0.000061
0.416119 0.121958 0.000030
0.487744 0.124922 0.000087
0.551572 0.125457 0.000045
0.602393 0.124329 0.000067
0.651914 0.121654 0.000058
0.695076 0.118770 0.000184
0.729565 0.116337 0.000166
0.762559 0.113739 0.000067
0.794847 0.111268 0.000077
0.821940 0.110719 0.000131
0.034435 0.119484 0.000041
0.089895 0.129987 0.000045
0.148342 0.141863 0.000076
0.213978 0.155659 0.000033
0.284172 0.169210 0.000018
0.358278 0.181849 0.000035
0.430216 0.192142 0.000036
0.498516 0.199674 0.000086
0.567688 0.205505 0.000086
0.620523 0.208768 0.000055
0.668904 0.210751 0.000109
0.718101 0.212080 0.000140
0.755591 0.212989 0.000158
0.788179 0.213840 0.000171
0.820455 0.214618 0.000116
0.852319 0.215375 0.000161
0.046035 0.184248 0.000059
0.115217 0.196620 0.000056
0.175817 0.209534 0.000115
0.239400 0.223796 0.000050
0.305824 0.237998 0.000137
0.377029 0.252013 0.000104
0.447614 0.264439 0.000137
0.513175 0.274088 0.000092
0.582621 0.282758 0.000082
0.638778 0.288704 0.000123
0.685972 0.292862 0.000144
0.733928 0.296519 0.000199
0.779175 0.299582 0.000162
0.811487 0.301732 0.000132
0.843306 0.303887 0.000224
0.875033 0.306134 0.000155
0.075159 0.254333 0.000078
0.148276 0.267704 0.000018
0.206572 0.280546 0.000058
0.266745 0.294547 0.000078
0.329611 0.308783 0.000038
0.398275 0.323565 0.000087
0.466112 0.336903 0.000115
0.529212 0.347871 0.000191
0.596138 0.358210 0.000062
0.656199 0.366379 0.000223
0.702182 0.371779 0.000184
0.749115 0.376878 0.000057
0.796602 0.381799 0.000257
0.832255 0.385285 0.000044
0.864037 0.388437 0.000125
0.895169 0.391657 0.000152
0.120079 0.331484 0.000096
0.186066 0.344240 0.000121
0.240769 0.356517 0.000100
0.295174 0.369213 0.000153
0.355738 0.383299 0.000183
0.422252 0.398268 0.000158
0.485938 0.411589 0.000138
0.546900 0.423312 0.000139
0.611687 0.434797 0.000273
0.673596 0.444894 0.000168
0.718426 0.451285 0.000222
0.764321 0.457553 0.000199
0.810853 0.463473 0.000174
0.851756 0.468342 0.000126
0.882865 0.472126 0.000269
0.913938 0.475805 0.000311
0.172997 0.401406 0.000133
0.228849 0.413203 0.000087
0.275651 0.424046 0.000114
0.325315 0.435972 0.000203
0.383179 0.449832 0.000144
0.446589 0.464593 0.000171
0.504753 0.477591 0.000075
0.563760 0.489650 0.000053
0.626544 0.501790 0.000255
0.687648 0.512664 0.000165
0.731318 0.519738 0.000191
0.776064 0.526629 0.000159
0.821495 0.533271 0.000223
0.864627 0.539170 0.000296
0.896415 0.543463 0.000126
0.926886 0.547601 0.000281
0.224803 0.471363 0.000195
0.270387 0.481092 0.000193
0.311481 0.490469 0.000211
0.358009 0.501424 0.000050
0.413091 0.514472 0.000279
0.470669 0.527737 0.000062
0.524382 0.539723 0.000244
0.581359 0.551732 0.000229
0.642023 0.563787 0.000241
0.700377 0.574612 0.000183
0.742845 0.581768 0.000146
0.786292 0.588942 0.000184
0.830609 0.595876 0.000371
0.873780 0.602297 0.000338
0.907134 0.607112 0.000226
0.936855 0.611425 0.000169
0.271285 0.541974 0.000129
0.311078 0.550758 0.000092
0.349092 0.559373 0.000085
0.392819 0.569454 0.000180
0.444638 0.581461 0.000178
0.495147 0.592911 0.000190
0.545426 0.603971 0.000208
0.600485 0.615614 0.000076
0.659255 0.627465 0.000151
0.713474 0.637733 0.000255
0.754683 0.645045 0.000179
0.797036 0.652259 0.000273
0.840118 0.659412 0.000059
0.883237 0.666137 0.000322
0.917383 0.671471 0.000227
0.946737 0.676063 0.000173
0.320920 0.600478 0.000209
0.356444 0.608214 0.000084
0.391151 0.616054 0.000196
0.431817 0.625438 0.000127
0.475874 0.635638 0.000263
0.519311 0.645412 0.000211
0.567344 0.656131 0.000177
0.620265 0.667528 0.000055
0.677149 0.679278 0.000309
0.724943 0.688654 0.000288
0.764816 0.696117 0.000348
0.805898 0.703561 0.000126
0.847936 0.710906 0.000373
0.890284 0.718003 0.000212
0.924459 0.723655 0.000141
0.953188 0.728218 0.000323
0.369340 0.659905 0.000062
0.401749 0.666823 0.000157
0.433128 0.673645 0.000183
0.466507 0.680951 0.000198
0.503129 0.688988 0.000220
0.544611 0.698038 0.000303
0.590619 0.708008 0.000278
0.641590 0.718782 0.000241
0.694895 0.729608 0.000369
0.736648 0.737762 0.000309
0.775098 0.744885 0.000340
0.814906 0.752222 0.000029
0.855803 0.759439 0.000103
0.897097 0.766486 0.000311
0.930738 0.772096 0.000220
0.958631 0.776681 0.000266
0.417755 0.719514 0.000315
0.444174 0.724788 0.000295
0.467672 0.729629 0.000163
0.495770 0.735507 0.000203
0.530612 0.742873 0.000237
0.570485 0.751158 0.000351
0.614925 0.760410 0.000206
0.664261 0.770373 0.000159
0.711174 0.779565 0.000177
0.748619 0.786785 0.000238
0.785819 0.793721 0.000337
0.824457 0.800784 0.000394
0.864086 0.807638 0.000233
0.904458 0.814459 0.000300
0.936993 0.819865 0.000168
0.964313 0.824571 0.000306
0.454582 0.772822 0.000384
0.476426 0.777017 0.000375
0.498649 0.781372 0.000213
0.525445 0.786788 0.000111
0.558885 0.793565 0.000240
0.597239 0.801246 0.000262
0.640311 0.809626 0.000132
0.686940 0.818924 0.000387
0.726135 0.826587 0.000157
0.760452 0.832797 0.000235
0.796790 0.839555 0.000233
0.834343 0.846357 0.000213
0.873297 0.853219 0.000410
0.912066 0.859720 0.000282
0.943106 0.864826 0.000285
0.970118 0.869375 0.000321
0.489693 0.813538 0.000195
0.510203 0.817293 0.000161
0.531125 0.821192 0.000316
0.556525 0.825992 0.000275
0.588438 0.832256 0.000298
0.625292 0.839345 0.000281
0.666695 0.847216 0.000418
0.706134 0.854733 0.000230
0.738671 0.860836 0.000263
0.772020 0.867025 0.000286
0.807126 0.873258 0.000281
0.843762 0.879967 0.000276
0.881657 0.886535 0.000365
0.918910 0.892886 0.000344
0.947982 0.897646 0.000353
0.974591 0.902099 0.000143
0.529167 0.851489 0.106276
0.547716 0.855095 0.099935
0.566802 0.858787 0.092859
0.590178 0.863263 0.082488
0.619902 0.868976 0.066232
0.654550 0.875566 0.034128
0.692419 0.882538 0.000427
0.720718 0.887458 0.000243
0.751162 0.892900 0.000111
0.783313 0.898523 0.000355
0.817642 0.904435 0.000192
0.853408 0.910410 0.000346
0.890397 0.916603 0.000405
0.926148 0.922419 0.000403
0.952647 0.926687 0.000140
0.978619 0.931014 0.000458
0.023088 0.014436 0.021754
0.081786 0.017256 0.018946
0.192868 0.016523 0.000048
0.304892 0.021467 0.000064
0.400620 0.013305 0.000093
0.476862 0.000037 0.009876
0.533514 0.000121 0.008134
0.583953 0.000097 0.005886
0.622042 0.000139 0.005101
0.653718 0.000057 0.004601
0.684097 0.000138 0.004265
0.709382 0.000096 0.004153
0.725380 0.000175 0.004465
0.739197 0.000090 0.005034
0.752462 0.000179 0.005766
0.764715 0.000044 0.006681
0.027206 0.026615 0.019480
0.059491 0.029935 0.016985
0.121021 0.035623 0.012180
0.196575 0.043635 0.000040
0.276331 0.050723 0.000032
0.355796 0.054005 0.000085
0.430045 0.052336 0.000085
0.498917 0.045716 0.000071
0.552385 0.037679 0.000067
0.603662 0.027270 0.000042
0.646446 0.022108 0.000068
0.682181 0.020367 0.000132
0.716056 0.018742 0.000097
0.748087 0.016880 0.000135
0.772256 0.015170 0.000103
0.790492 0.014978 0.000065
0.027427 0.063208 0.022171
0.072680 0.071091 0.015493
0.134037 0.080684 0.000043
0.203534 0.092448 0.000070
0.277255 0.103403 0.000070
0.355149 0.112762 0.000055
0.426200 0.118813 0.000090
0.498095 0.121683 0.000109
0.559815 0.122188 0.000129
0.610209 0.121079 0.000068
0.659848 0.118500 0.000079
0.701941 0.116045 0.000126
0.736336 0.114041 0.000059
0.769885 0.111844 0.000039
0.802179 0.109923 0.000186
0.828374 0.110213 0.000139
0.020992 0.119788 0.020436
0.090566 0.130562 0.011463
0.154131 0.142001 0.000062
0.221987 0.155157 0.000066
0.292623 0.168047 0.000039
0.368021 0.180432 0.000099
0.438422 0.190303 0.000073
0.507616 0.197875 0.000056
0.575197 0.203597 0.000130
0.627295 0.207018 0.000132
0.676384 0.209323 0.000135
0.725045 0.210969 0.000111
0.761903 0.212310 0.000091
0.794795 0.213531 0.000203
0.827420 0.214746 0.000118
0.859769 0.215952 0.000224
0.014389 0.186964 0.000007
0.112327 0.198932 0.000069
0.178327 0.211349 0.000072
0.244530 0.225001 0.000091
0.311949 0.238607 0.000150
0.384569 0.252379 0.000009
0.454122 0.264296 0.000105
0.520529 0.273975 0.000115
0.590393 0.282683 0.000180
0.644763 0.288546 0.000128
0.692470 0.292925 0.000199
0.741064 0.296848 0.000198
0.785121 0.300193 0.000053
0.817600 0.302732 0.000242
0.849791 0.305281 0.000178
0.881675 0.307809 0.000202
0.047513 0.259411 0.000070
0.141808 0.272296 0.000069
0.205640 0.284595 0.000118
0.268430 0.297947 0.000102
0.333285 0.311736 0.000168
0.403645 0.326207 0.000180
0.470967 0.339019 0.000146
0.535034 0.349889 0.000163
0.603040 0.360344 0.000104
0.661257 0.368194 0.000148
0.707810 0.373897 0.000196
0.755169 0.379168 0.000204
0.802952 0.384079 0.000146
0.837621 0.387721 0.000228
0.869408 0.390988 0.000185
0.900919 0.394307 0.000256
0.094788 0.338460 0.000067
0.175903 0.350683 0.000113
0.236068 0.362395 0.000108
0.293563 0.374595 0.000148
0.356698 0.388377 0.000139
0.425299 0.402956 0.000185
0.488788 0.415806 0.000123
0.550980 0.427366 0.000191
0.616893 0.438669 0.000234
0.677260 0.448123 0.000145
0.722711 0.454603 0.000236
0.769094 0.460842 0.000188
0.816221 0.466818 0.000191
0.855830 0.471594 0.000189
0.887178 0.475481 0.000157
0.918288 0.479241 0.000208
0.150559 0.411040 0.000177
0.216535 0.422275 0.000112
0.268198 0.432615 0.000110
0.321477 0.444018 0.000136
0.382321 0.457437 0.000112
0.447455 0.471664 0.000149
0.506324 0.484162 0.000159
0.566468 0.496087 0.000179
0.630442 0.507982 0.000181
0.690345 0.518318 0.000187
0.734538 0.525388 0.000205
0.779919 0.532208 0.000181
0.825801 0.538751 0.000185
0.868607 0.544560 0.000273
0.900147 0.548827 0.000087
0.930914 0.552974 0.000201
0.204525 0.481158 0.000115
0.256904 0.490553 0.000090
0.302418 0.499559 0.000243
0.352506 0.510093 0.000187
0.410661 0.522686 0.000197
0.469604 0.535478 0.000260
0.524448 0.547046 0.000134
0.582616 0.558794 0.000242
0.644431 0.570661 0.000207
0.701933 0.580943 0.000258
0.744811 0.588107 0.000228
0.788824 0.595177 0.000258
0.833696 0.602063 0.000151
0.876904 0.608319 0.000344
0.909631 0.613056 0.000286
0.939930 0.617430 0.000242
0.250530 0.552607 0.000203
0.296096 0.560843 0.000227
0.338194 0.569063 0.000185
0.385508 0.578768 0.000148
0.440067 0.590241 0.000202
0.492058 0.601195 0.000154
0.543991 0.611965 0.000295
0.600465 0.623333 0.000186
0.660539 0.634941 0.000306
0.713851 0.644735 0.000281
0.755585 0.651910 0.000079
0.798435 0.659070 0.000261
0.842156 0.666103 0.000333
0.885155 0.672751 0.000140
0.919074 0.677827 0.000230
0.948694 0.682164 0.000340
0.299742 0.612229 0.000057
0.340052 0.619697 0.000183
0.378534 0.627236 0.000225
0.422375 0.636099 0.000233
0.468616 0.645579 0.000112
0.514430 0.655160 0.000174
0.564497 0.665394 0.000073
0.619119 0.676456 0.000188
0.677363 0.687750 0.000123
0.724594 0.696602 0.000247
0.765192 0.704007 0.000041
0.806823 0.711102 0.000330
0.849413 0.718321 0.000200
0.891873 0.725058 0.000080
0.925934 0.730471 0.000245
0.955015 0.734997 0.000227
0.348936 0.671454 0.000138
0.385192 0.678174 0.000226
0.419239 0.684480 0.000102
0.454967 0.691525 0.000242
0.493990 0.699292 0.000144
0.537956 0.707915 0.000200
0.586256 0.717413 0.000179
0.639309 0.727798 0.000285
0.693592 0.738070 0.000346
0.735652 0.745785 0.000141
0.774921 0.752673 0.000267
0.815610 0.759791 0.000080
0.857047 0.766600 0.000126
0.898607 0.773471 0.000157
0.932121 0.778651 0.000160
0.960791 0.783080 0.000228
0.398613 0.730713 0.034164
0.426247 0.735776 0.000209
0.451911 0.740342 0.000247
0.482422 0.745996 0.000216
0.519880 0.753054 0.000304
0.562226 0.761014 0.000061
0.609006 0.769720 0.000365
0.660571 0.779426 0.000267
0.708333 0.788221 0.000156
0.746626 0.794795 0.000143
0.784843 0.801529 0.000294
0.824617 0.808173 0.000248
0.865270 0.814947 0.000201
0.905862 0.821340 0.000251
0.938521 0.826347 0.000189
0.966471 0.830697 0.000359
0.439217 0.782535 0.104035
0.462064 0.786753 0.097437
0.485230 0.791257 0.089676
0.513124 0.796646 0.078621
0.547969 0.803333 0.060209
0.587951 0.810853 0.013061
0.633249 0.819065 0.000167
0.681669 0.827882 0.000314
0.721744 0.834916 0.000173
0.757338 0.840919 0.000314
0.794763 0.847310 0.000321
0.833589 0.853723 0.000265
0.873305 0.860276 0.000340
0.912883 0.866358 0.000398
0.943980 0.871390 0.000469
0.971821 0.875461 0.000259
0.481533 0.821209 0.155618
0.502257 0.825232 0.151730
0.523421 0.829348 0.147469
0.549124 0.834086 0.141950
0.581495 0.840348 0.134137
0.619023 0.847705 0.123710
0.661288 0.855705 0.109829
0.700674 0.863015 0.094523
0.733945 0.868822 0.080144
0.768193 0.874824 0.061198
0.804379 0.881121 0.024633
0.842199 0.887481 0.000217
0.881088 0.893670 0.000482
0.919162 0.899694 0.000408
0.948502 0.904235 0.000361
0.975488 0.908340 0.000455
0.523877 0.858135 0.201539
0.542859 0.861773 0.198908
0.562313 0.865358 0.196112
0.586078 0.869854 0.192406
0.616365 0.875528 0.187407
0.651639 0.882228 0.181030
0.688702 0.889008 0.173863
0.717084 0.894174 0.168873
0.747643 0.899361 0.163281
0.780430 0.905103 0.156963
0.815179 0.911005 0.150006
0.851443 0.917027 0.142350
0.889113 0.923123 0.130197
0.925393 0.929027 0.057671
0.952623 0.933124 0.000266
0.978873 0.937082 0.000374
0.016345 0.015793 0.066468
0.076405 0.019386 0.058736
0.182530 0.019386 0.061098
0.287517 0.000076 0.058596
0.379180 0.000060 0.058068
0.461691 0.000096 0.057391
0.523342 0.000030 0.054782
0.577373 0.000096 0.051535
0.620480 0.000075 0.049092
0.653686 0.000065 0.047645
0.685011 0.000172 0.046819
0.713232 0.000082 0.046739
0.731280 0.000118 0.048155
0.745153 0.000153 0.050557
0.758418 0.000214 0.053556
0.771186 0.000170 0.057187
0.020294 0.030311 0.053722
0.056102 0.034466 0.051853
0.121711 0.040891 0.054006
0.201213 0.046330 0.053694
0.284793 0.046977 0.048465
0.367098 0.040005 0.037185
0.443834 0.010522 0.000054
0.510224 0.000073 0.024667
0.562101 0.000062 0.034773
0.612583 0.000127 0.041670
0.654969 0.000058 0.044020
0.690566 0.000102 0.044840
0.724374 0.000109 0.046147
0.756373 0.000185 0.048222
0.780087 0.000074 0.051521
0.798241 0.000127 0.055573
0.013939 0.069045 0.059522
0.067564 0.076949 0.059751
0.136139 0.085542 0.056061
0.209939 0.095492 0.054608
0.286874 0.103639 0.048266
0.367489 0.109270 0.034368
0.440325 0.112279 0.000061
0.511555 0.115311 0.000088
0.571997 0.116081 0.000037
0.621791 0.115153 0.000036
0.671259 0.112641 0.000120
0.712624 0.110096 0.000115
0.747002 0.107627 0.000159
0.780599 0.104659 0.000121
0.813060 0.101773 0.000066
0.838879 0.100791 0.000134
0.000046 0.125871 0.069868
0.081192 0.137255 0.068482
0.152284 0.148609 0.062795
0.230324 0.159141 0.000038
0.303846 0.169838 0.000090
0.380827 0.180834 0.000061
0.450644 0.189829 0.000121
0.520034 0.197074 0.000116
0.586277 0.202623 0.000087
0.637765 0.206004 0.000182
0.686790 0.208397 0.000054
0.734657 0.210102 0.000067
0.771217 0.211344 0.000137
0.804366 0.212382 0.000195
0.837214 0.213353 0.000022
0.870010 0.214131 0.000123
0.000036 0.193513 0.082305
0.098614 0.206565 0.075428
0.173267 0.218732 0.072327
0.245358 0.231920 0.037290
0.317796 0.243836 0.000123
0.393484 0.256234 0.000135
0.463418 0.266961 0.000120
0.530629 0.276060 0.000138
0.600109 0.284395 0.000054
0.653607 0.290014 0.000171
0.701505 0.294355 0.000030
0.750187 0.298274 0.000103
0.793224 0.301496 0.000114
0.825813 0.303950 0.000058
0.858369 0.306290 0.000141
0.890603 0.308569 0.000201
0.000094 0.266985 0.091872
0.124499 0.280906 0.079983
0.197210 0.292973 0.074931
0.264805 0.305766 0.066011
0.334531 0.318928 0.000087
0.408850 0.332271 0.000017
0.477149 0.343987 0.000173
0.542645 0.354235 0.000117
0.611506 0.364139 0.000167
0.668374 0.371555 0.000169
0.715102 0.377144 0.000096
0.762865 0.382316 0.000086
0.810535 0.387104 0.000265
0.844660 0.390456 0.000203
0.876896 0.393639 0.000186
0.908741 0.396619 0.000093
0.025531 0.347992 0.086752
0.154908 0.360194 0.081539
0.223398 0.371606 0.074305
0.286141 0.383381 0.063101
0.354003 0.396583 0.039822
0.426865 0.410412 0.000139
0.491932 0.422191 0.000091
0.555905 0.433129 0.000119
0.623127 0.443928 0.000165
0.682619 0.452753 0.000085
0.728401 0.459002 0.000208
0.775164 0.464963 0.000242
0.822741 0.470822 0.000169
0.861740 0.475324 0.000134
0.893398 0.479078 0.000282
0.925044 0.482603 0.000196
0.112165 0.421795 0.091518
0.194659 0.432860 0.084844
0.252908 0.443076 0.076684
0.311342 0.454308 0.064002
0.376741 0.467392 0.037002
0.445553 0.480765 0.000164
0.507025 0.492437 0.000014
0.569450 0.503711 0.000276
0.635070 0.515014 0.000137
0.694520 0.524662 0.000096
0.739395 0.531399 0.000260
0.785188 0.537966 0.000196
0.831738 0.544330 0.000220
0.874234 0.549840 0.000202
0.905826 0.553829 0.000286
0.937028 0.557654 0.000275
0.174021 0.492032 0.098478
0.235231 0.501359 0.091642
0.286023 0.510297 0.083442
0.340570 0.520745 0.070656
0.402945 0.533118 0.045584
0.465168 0.545179 0.000224
0.522911 0.556014 0.000209
0.583636 0.567087 0.000274
0.647565 0.578275 0.000250
0.704951 0.587851 0.000281
0.748599 0.594637 0.000134
0.793428 0.601360 0.000240
0.838781 0.607932 0.000260
0.882302 0.613904 0.000313
0.915017 0.618186 0.000358
0.945654 0.622218 0.000272
0.224326 0.563201 0.108167
0.275635 0.571472 0.101356
0.321694 0.579653 0.093237
0.372726 0.589382 0.081068
0.430399 0.600610 0.060212
0.484675 0.611172 0.010129
0.540032 0.621386 0.000271
0.599346 0.632027 0.000260
0.661859 0.643050 0.000196
0.715482 0.652074 0.000164
0.758237 0.658866 0.000257
0.802115 0.665620 0.000362
0.846497 0.672319 0.000090
0.890022 0.678364 0.000283
0.923814 0.683230 0.000286
0.954116 0.687212 0.000399
0.280075 0.622607 0.126532
0.323500 0.630148 0.120597
0.364395 0.637748 0.113598
0.410467 0.646637 0.103925
0.458339 0.656028 0.090850
0.506394 0.665371 0.073341
0.558918 0.675528 0.041050
0.616397 0.686069 0.000006
0.677129 0.696684 0.000213
0.724818 0.704907 0.000095
0.766703 0.711628 0.000267
0.809500 0.718433 0.000254
0.853129 0.725218 0.000146
0.896385 0.731638 0.000376
0.930357 0.736453 0.000226
0.960225 0.740585 0.000111
0.335619 0.680748 0.147913
0.373322 0.687430 0.142846
0.407929 0.694016 0.137311
0.444309 0.700873 0.130802
0.484690 0.708671 0.122176
0.530287 0.717207 0.110738
0.580405 0.726847 0.094780
0.635459 0.736879 0.069812
0.691228 0.746804 0.000310
0.734403 0.753937 0.000378
0.775037 0.760439 0.000386
0.816992 0.767030 0.000052
0.859739 0.773509 0.000106
0.902033 0.779879 0.000225
0.935841 0.784526 0.000391
0.965160 0.788741 0.000212
0.390912 0.738435 0.171436
0.418077 0.743397 0.167904
0.443995 0.748194 0.164290
0.474807 0.753839 0.159554
0.512830 0.761050 0.152997
0.555985 0.769120 0.144463
0.603798 0.778029 0.133428
0.656595 0.787712 0.118436
0.704980 0.796109 0.101948
0.744015 0.802511 0.086789
0.783614 0.808940 0.052845
0.824614 0.815453 0.000251
0.866458 0.821678 0.000182
0.907930 0.827696 0.000403
0.941034 0.832411 0.000146
0.969718 0.836302 0.000206
0.431728 0.789562 0.200293
0.455335 0.793795 0.197604
0.479190 0.798222 0.194695
0.507839 0.803568 0.190898
0.543400 0.810179 0.185765
0.584173 0.817798 0.179190
0.629691 0.826066 0.170935
0.678090 0.834984 0.160942
0.717941 0.841911 0.152521
0.754332 0.847947 0.144640
0.792560 0.854248 0.135846
0.832154 0.860558 0.120230
0.873382 0.867105 0.000042
0.913946 0.872979 0.000203
0.945556 0.877377 0.000152
0.973663 0.881507 0.000342
0.475091 0.828352 0.234939
0.496330 0.832262 0.232847
0.518011 0.836233 0.230575
0.544258 0.841127 0.227713
0.577342 0.847262 0.223803
0.615464 0.854503 0.218778
0.658415 0.862450 0.212677
0.697662 0.869437 0.206840
0.730980 0.875309 0.202277
0.765469 0.881329 0.197323
0.802156 0.887435 0.191971
0.840333 0.893704 0.186175
0.879889 0.900192 0.169689
0.918841 0.906456 0.102006
0.949048 0.910735 0.000155
0.976784 0.914680 0.000146
0.518425 0.864736 0.271443
0.537749 0.868403 0.269772
0.557629 0.871963 0.268043
0.581837 0.876451 0.265826
0.612668 0.882043 0.262850
0.648367 0.888479 0.259031
0.684886 0.895228 0.255061
0.713537 0.900157 0.252319
0.744571 0.905578 0.249258
0.777722 0.911168 0.245930
0.812831 0.916975 0.242480
0.849449 0.922901 0.238885
0.887610 0.928896 0.234833
0.923757 0.934617 0.216176
0.950783 0.939103 0.186083
0.978599 0.943074 0.136095
0.005321 0.013811 0.126705
0.064539 0.018366 0.115621
0.165175 0.018694 0.123936
0.266276 0.000049 0.127719
0.361016 0.000080 0.128701
0.447762 0.000025 0.128855
0.513195 0.000123 0.127688
0.568634 0.000086 0.126064
0.616281 0.000037 0.124630
0.651806 0.000083 0.123755
0.684336 0.000140 0.123464
0.715851 0.000207 0.123705
0.736154 0.000152 0.124873
0.750070 0.000036 0.126797
0.763774 0.000201 0.129321
0.777799 0.000172 0.132498
0.007840 0.033815 0.107214
0.051603 0.038517 0.105696
0.121659 0.044969 0.111338
0.203033 0.050964 0.116108
0.287179 0.052879 0.117943
0.369924 0.048193 0.117490
0.447409 0.030224 0.114967
0.516631 0.000060 0.114827
0.568908 0.000141 0.117055
0.619623 0.000032 0.119478
0.662317 0.000072 0.121338
0.698050 0.000150 0.122782
0.732102 0.000058 0.124687
0.764111 0.000101 0.127223
0.788150 0.000095 0.130568
0.805887 0.000181 0.134506
0.000030 0.076201 0.112408
0.058986 0.084476 0.115997
0.131080 0.093947 0.120378
0.208476 0.104170 0.124175
0.287329 0.112347 0.125534
0.369526 0.117698 0.124507
0.444451 0.119496 0.121693
0.520042 0.117259 0.117184
0.582954 0.112742 0.112550
0.634754 0.106738 0.108469
0.686182 0.098060 0.104194
0.728700 0.089649 0.101173
0.763589 0.081809 0.099743
0.798062 0.072556 0.099087
0.831075 0.062505 0.099286
0.856523 0.057936 0.101715
0.000027 0.134222 0.125152
0.065770 0.145836 0.129177
0.146643 0.156909 0.132269
0.227845 0.167483 0.128316
0.304073 0.177748 0.128653
0.385131 0.187329 0.126594
0.457696 0.194113 0.122843
0.530584 0.198679 0.117460
0.599243 0.201139 0.111148
0.652419 0.202003 0.105858
0.703266 0.201830 0.100608
0.752446 0.200909 0.095417
0.789608 0.200241 0.092808
0.823398 0.199672 0.091751
0.856741 0.199106 0.091500
0.889945 0.198474 0.092167
0.000053 0.202781 0.141536
0.077764 0.215876 0.142267
0.165179 0.227760 0.143931
0.241396 0.240463 0.141792
0.322265 0.251007 0.112113
0.404096 0.260953 0.105120
0.476384 0.269537 0.101337
0.546385 0.276601 0.095850
0.617968 0.282575 0.087747
0.672501 0.286298 0.080502
0.721790 0.288926 0.073544
0.771926 0.291014 0.065359
0.815062 0.292654 0.058801
0.848335 0.294072 0.057471
0.881276 0.295476 0.057631
0.913745 0.296862 0.059445
0.000037 0.276416 0.158480
0.102046 0.290704 0.154587
0.187047 0.302507 0.154745
0.259223 0.314836 0.153598
0.332042 0.327753 0.143877
0.416581 0.339751 0.074882
0.491250 0.348425 0.000120
0.560079 0.356585 0.000089
0.631349 0.364555 0.000144
0.687987 0.370506 0.000207
0.735753 0.374921 0.000188
0.784223 0.379118 0.000151
0.832190 0.382866 0.000091
0.866141 0.385404 0.000234
0.898865 0.387724 0.000086
0.931203 0.389907 0.000216
0.000035 0.356355 0.174526
0.132722 0.370231 0.165964
0.211185 0.381190 0.164895
0.278785 0.392815 0.162752
0.350026 0.405755 0.158623
0.425986 0.419525 0.139318
0.498035 0.430229 0.000191
0.566356 0.439415 0.000092
0.636857 0.448521 0.000245
0.696881 0.455882 0.000306
0.744122 0.461143 0.000089
0.792118 0.466124 0.000265
0.840537 0.470964 0.000171
0.879294 0.474582 0.000213
0.911692 0.477636 0.000074
0.943918 0.480486 0.000212
0.060497 0.432540 0.178394
0.174656 0.443418 0.177200
0.240064 0.453278 0.175441
0.303040 0.464449 0.172625
0.371755 0.477313 0.167952
0.442150 0.490415 0.161173
0.505969 0.502044 0.137935
0.574491 0.512813 0.000194
