tools/decompiled/apktool/res/raw/jewel.cube
LUT_3D_SIZE 6
0.000000 0.000000 0.000000
0.221653 0.053883 0.050841
0.477351 0.078010 0.073653
0.728749 0.046754 0.044106
0.946859 0.000000 0.000000
1.000035 0.000000 0.000000
0.078867 0.234871 0.071207
0.250089 0.240234 0.074404
0.490574 0.243603 0.070101
0.726332 0.230133 0.000000
0.941258 0.170084 0.000251
1.000035 0.000000 0.000000
0.000000 0.469250 0.000000
0.231390 0.467212 0.000215
0.474088 0.458525 0.000000
0.703651 0.439017 0.000259
0.923198 0.404436 0.000000
1.000035 0.346591 0.000000
0.000000 0.663708 0.000000
0.000000 0.661444 0.000000
0.395024 0.652927 0.000000
0.653591 0.636503 0.000322
0.884785 0.611663 0.000345
1.000035 0.580106 0.000354
0.000000 0.853132 0.000000
0.000000 0.851622 0.000000
0.204020 0.846514 0.000000
0.575738 0.838347 0.000000
0.842151 0.828333 0.000000
1.000035 0.817173 0.000434
0.000447 1.000034 0.000447
0.000447 1.000034 0.000447
0.000447 1.000034 0.000447
0.493898 1.000034 0.000000
0.798393 1.000034 0.000482
1.000035 1.000034 0.000000
0.034878 0.033323 0.187781
0.226333 0.058992 0.206066
0.479608 0.078423 0.227092
0.728611 0.041848 0.226840
0.946303 0.000244 0.183450
1.000035 0.000000 0.000000
0.080322 0.236933 0.224877
0.249484 0.239649 0.227475
0.495369 0.235002 0.223028
0.728649 0.207311 0.196575
0.940930 0.139812 0.132268
1.000035 0.000000 0.000000
0.000000 0.468566 0.213583
0.209684 0.472171 0.190718
0.478205 0.462564 0.173180
0.704289 0.436105 0.121849
0.922660 0.403083 0.000000
1.000035 0.344943 0.000292
0.000296 0.662889 0.000296
0.000000 0.660597 0.000000
0.393535 0.652093 0.000000
0.652720 0.635639 0.000000
0.884156 0.610853 0.000000
1.000035 0.579385 0.000000
0.000000 0.852604 0.000000
0.000380 0.851235 0.000380
0.201239 0.846215 0.000380
0.575042 0.838107 0.000000
0.841775 0.828001 0.000000
1.000035 0.816858 0.000434
0.000447 1.000034 0.000447
0.000447 1.000034 0.000447
0.000447 1.000034 0.000447
0.493225 1.000034 0.000000
0.797908 1.000034 0.000482
1.000035 1.000034 0.000000
0.062763 0.060003 0.407665
0.235751 0.068949 0.421910
0.485811 0.078077 0.450162
0.728070 0.000000 0.453665
0.944294 0.000000 0.431767
1.000035 0.000000 0.388043
0.081459 0.239123 0.444188
0.231615 0.222370 0.454706
0.497741 0.222678 0.461653
0.726823 0.200560 0.443878
0.938926 0.129535 0.416615
1.000035 0.000262 0.375313
0.000000 0.465998 0.446206
0.203790 0.469097 0.449257
0.469745 0.454271 0.434763
0.706085 0.423061 0.404390
0.922538 0.363768 0.346892
1.000035 0.294212 0.279804
0.000000 0.660125 0.375866
0.000000 0.657797 0.371868
0.355521 0.656850 0.326390
0.656876 0.639856 0.298353
0.883855 0.601168 0.247546
1.000035 0.569629 0.164406
0.000000 0.850844 0.207182
0.000000 0.849363 0.200309
0.162484 0.845458 0.147390
0.571386 0.837075 0.090829
0.840752 0.826928 0.000000
1.000035 0.815838 0.000433
0.000447 1.000034 0.000447
0.000447 1.000034 0.000447
0.000447 1.000034 0.000447
0.490819 1.000034 0.000000
0.795843 1.000034 0.000000
1.000035 1.000034 0.000000
0.076210 0.072877 0.656660
0.247274 0.075137 0.668183
0.489962 0.069230 0.687682
0.725812 0.000000 0.687627
0.940469 0.000000 0.668863
1.000035 0.000272 0.640442
0.076943 0.242082 0.683772
0.225174 0.216149 0.690139
0.484673 0.211024 0.693565
0.722905 0.187115 0.684720
0.935379 0.107296 0.660521
1.000035 0.000271 0.632532
0.000000 0.460547 0.680451
0.184891 0.453886 0.680960
0.429558 0.414836 0.679494
0.703916 0.393690 0.665270
0.919125 0.348615 0.624529
1.000035 0.280505 0.588051
0.000000 0.654828 0.632931
0.000303 0.652385 0.630424
0.345685 0.651143 0.629176
0.643954 0.626852 0.604923
0.881629 0.590535 0.568784
1.000035 0.542147 0.520912
0.000000 0.847744 0.552805
0.000385 0.846288 0.550659
0.144520 0.842489 0.540594
0.528760 0.840333 0.491634
0.844770 0.831060 0.472993
1.000035 0.803977 0.451131
0.000450 1.000034 0.471499
0.000000 1.000034 0.469722
0.000000 1.000034 0.463260
0.422948 1.000034 0.390090
0.777117 1.000034 0.368528
1.000035 1.000034 0.333182
0.072368 0.069203 0.929423
0.251239 0.066000 0.934660
0.490201 0.035849 0.941296
0.720502 0.000000 0.933776
0.935118 0.000000 0.914499
1.000035 0.000000 0.891196
0.053461 0.240018 0.940360
0.207718 0.199314 0.941761
0.473415 0.189231 0.939687
0.711114 0.158719 0.927739
0.930045 0.053733 0.908599
1.000035 0.000000 0.884448
0.000000 0.451383 0.925428
0.153185 0.441062 0.923911
0.397244 0.383240 0.918821
0.673600 0.362055 0.907163
0.913662 0.325315 0.889493
1.000035 0.260424 0.856181
0.000000 0.646577 0.884702
0.000313 0.644140 0.882824
0.313413 0.623488 0.877859
0.598923 0.581974 0.867429
0.878412 0.556956 0.849636
1.000035 0.520174 0.811684
0.000393 0.843371 0.825562
0.000000 0.841996 0.824112
0.112308 0.838282 0.820302
0.521978 0.837038 0.818971
0.836066 0.822057 0.803349
1.000035 0.805244 0.785804
0.000458 1.000034 0.782043
0.000000 1.000034 0.780951
0.000000 1.000034 0.776656
0.415689 1.000034 0.751813
0.757613 1.000034 0.720499
1.000035 1.000034 0.681973
0.037729 0.036047 1.000032
0.246262 0.000000 1.000032
0.483245 0.000000 1.000032
0.711582 0.000000 1.000032
0.928255 0.000000 1.000032
1.000035 0.000000 1.000032
0.000183 0.228156 1.000032
0.190409 0.182600 1.000032
0.463782 0.166759 1.000032
0.702024 0.123382 1.000032
0.923719 0.000000 1.000032
1.000035 0.000000 1.000032
0.000000 0.437365 1.000032
0.110238 0.429574 1.000032
0.374129 0.360652 1.000032
0.658460 0.337172 1.000032
0.899507 0.297238 1.000032
1.000035 0.236306 1.000032
0.000000 0.635246 1.000032
0.000000 0.632634 1.000032
0.282947 0.607349 1.000032
0.569880 0.553082 1.000032
0.852649 0.527381 1.000032
1.000035 0.496665 1.000032
0.000399 0.837833 1.000032
0.000398 0.836791 1.000032
0.023551 0.832917 1.000032
0.492404 0.811106 1.000032
0.813257 0.798450 1.000032
1.000035 0.785494 1.000032
0.000000 1.000034 1.000032
0.000000 1.000034 1.000032
0.000000 1.000034 1.000032
0.405092 1.000034 1.000032
0.746422 1.000034 1.000032
1.000035 1.000034 1.000032
