tools/decompiled/apktool/res/raw/jewel.cube
LUT_3D_SIZE 16
0.000000 0.000000 0.000000
0.066454 0.017545 0.016537
0.141863 0.037742 0.035591
0.221653 0.053883 0.050841
0.302928 0.064854 0.061210
0.388994 0.073303 0.069207
0.477351 0.078010 0.073653
0.564487 0.077443 0.073115
0.648563 0.069279 0.065399
0.728749 0.046754 0.044106
0.804818 0.000000 0.000000
0.877630 0.000226 0.000226
0.946859 0.000000 0.000000
1.000035 0.000000 0.000000
1.000035 0.000000 0.000000
1.000035 0.000000 0.000000
0.034459 0.071310 0.031040
0.077304 0.073926 0.035238
0.148496 0.081118 0.045664
0.225781 0.089144 0.055885
0.306363 0.095995 0.063883
0.391903 0.102366 0.070660
0.479344 0.106181 0.074091
0.565641 0.106028 0.072643
0.649019 0.100509 0.063830
0.728643 0.087448 0.040051
0.804707 0.051207 0.000208
0.877138 0.000000 0.000000
0.946292 0.000000 0.000000
1.000035 0.000000 0.000000
1.000035 0.000000 0.000000
1.000035 0.000000 0.000000
0.064350 0.151424 0.058059
0.095999 0.152290 0.059215
0.161910 0.155166 0.062758
0.236647 0.158897 0.066889
0.316848 0.163334 0.070823
0.400410 0.167490 0.074132
0.485072 0.169915 0.074430
0.568746 0.169602 0.069784
0.649982 0.165842 0.056680
0.728125 0.158048 0.012385
0.803350 0.140369 0.000000
0.875521 0.109266 0.000000
0.944519 0.024964 0.000000
1.000035 0.000000 0.000000
1.000035 0.000000 0.000000
1.000035 0.000000 0.000000
0.078867 0.234871 0.071207
0.108278 0.235424 0.071578
0.173837 0.237307 0.072758
0.250089 0.240234 0.074404
0.328504 0.241744 0.075863
0.409239 0.243264 0.074763
0.490574 0.243603 0.070101
0.571081 0.242056 0.059125
0.649709 0.238153 0.031772
0.726332 0.230133 0.000000
0.800417 0.217104 0.000223
0.872065 0.197938 0.000000
0.941258 0.170084 0.000251
1.000035 0.125839 0.000000
1.000035 0.000000 0.000000
1.000035 0.000000 0.000000
0.082461 0.319482 0.074469
0.112343 0.319680 0.074368
0.178722 0.320227 0.073877
0.254839 0.321010 0.072548
0.333955 0.321548 0.069516
0.412637 0.320359 0.063066
0.491480 0.318502 0.049352
0.569611 0.315405 0.000197
0.646625 0.309862 0.000000
0.721894 0.301675 0.000000
0.795182 0.290284 0.000000
0.867016 0.275122 0.000000
0.936426 0.255218 0.000000
1.000035 0.228918 0.000272
1.000035 0.193082 0.000000
1.000035 0.139154 0.000000
0.061551 0.397825 0.055527
0.099407 0.397738 0.054699
0.171798 0.397473 0.051467
0.249824 0.396771 0.044264
0.328836 0.395460 0.027503
0.407626 0.393383 0.000000
0.485983 0.390322 0.000000
0.563384 0.385820 0.000000
0.639608 0.379584 0.000000
0.714342 0.371314 0.000000
0.787652 0.360878 0.000000
0.859678 0.347703 0.000263
0.930233 0.331609 0.000000
0.997858 0.311766 0.000000
1.000035 0.287329 0.000000
1.000035 0.256798 0.000276
0.000000 0.469250 0.000000
0.000000 0.469116 0.000000
0.143758 0.468427 0.000211
0.231390 0.467212 0.000215
0.314247 0.465265 0.000000
0.394875 0.462427 0.000225
0.474088 0.458525 0.000000
0.551897 0.453458 0.000240
0.628423 0.446974 0.000249
0.703651 0.439017 0.000259
0.777941 0.429382 0.000000
0.851253 0.417899 0.000000
0.923198 0.404436 0.000000
0.991530 0.388170 0.000300
1.000035 0.369003 0.000000
1.000035 0.346591 0.000000
0.000000 0.535785 0.000000
0.000239 0.535537 0.000239
0.047538 0.534785 0.000000
0.192444 0.533300 0.000000
0.287096 0.531105 0.000245
0.373211 0.527951 0.000250
0.455454 0.523960 0.000256
0.535383 0.518962 0.000263
0.613686 0.512851 0.000270
0.690640 0.505535 0.000000
0.766633 0.497086 0.000000
0.841135 0.486903 0.000297
0.913118 0.474820 0.000000
0.981994 0.460842 0.000000
1.000035 0.445066 0.000316
1.000035 0.427442 0.000000
0.000268 0.599579 0.000268
0.000268 0.599399 0.000268
0.000000 0.598600 0.000000
0.105758 0.597211 0.000000
0.242215 0.595075 0.000000
0.340876 0.592221 0.000275
0.429727 0.588553 0.000280
0.514068 0.584067 0.000000
0.595525 0.578558 0.000000
0.674628 0.571777 0.000000
0.751760 0.563685 0.000308
0.826994 0.554233 0.000000
0.899984 0.543556 0.000325
0.970270 0.531608 0.000000
1.000035 0.518528 0.000000
1.000035 0.504392 0.000000
0.000000 0.663708 0.000000
0.000000 0.663485 0.000000
0.000000 0.662762 0.000000
0.000000 0.661444 0.000000
0.161747 0.659395 0.000296
0.293737 0.656507 0.000300
0.395024 0.652927 0.000000
0.485952 0.648473 0.000000
0.571571 0.642895 0.000000
0.653591 0.636503 0.000322
0.732755 0.629137 0.000000
0.809972 0.620808 0.000000
0.884785 0.611663 0.000345
0.957192 0.601763 0.000000
1.000035 0.591163 0.000357
1.000035 0.580106 0.000354
0.000000 0.725961 0.000000
0.000000 0.725751 0.000000
0.000000 0.725073 0.000000
0.000000 0.723671 0.000000
0.000000 0.721735 0.000000
0.222708 0.719116 0.000000
0.348804 0.715674 0.000000
0.450543 0.711594 0.000000
0.542461 0.706644 0.000000
0.628941 0.701139 0.000344
0.711667 0.694899 0.000000
0.791608 0.688036 0.000000
0.869165 0.680775 0.000000
0.944505 0.672994 0.000000
1.000035 0.664897 0.000000
1.000035 0.656669 0.000000
0.000000 0.788266 0.000000
0.000000 0.787976 0.000000
0.000000 0.787385 0.000000
0.000000 0.786360 0.000000
0.000350 0.784453 0.000350
0.070840 0.782355 0.000000
0.288430 0.779371 0.000000
0.408551 0.776113 0.000000
0.509843 0.772263 0.000363
0.602384 0.767819 0.000000
0.689825 0.762871 0.000000
0.773555 0.757868 0.000000
0.854645 0.752465 0.000000
0.933161 0.746894 0.000000
1.000035 0.741421 0.000407
1.000035 0.735653 0.000000
0.000000 0.853132 0.000000
0.000000 0.852915 0.000000
0.000381 0.852509 0.000381
0.000000 0.851622 0.000000
0.000000 0.850413 0.000000
0.000000 0.848734 0.000000
0.204020 0.846514 0.000000
0.360219 0.844148 0.000000
0.475203 0.841448 0.000000
0.575738 0.838347 0.000000
0.668803 0.835208 0.000000
0.757281 0.831881 0.000000
0.842151 0.828333 0.000000
0.924021 0.824737 0.000427
1.000035 0.820996 0.000435
1.000035 0.817173 0.000434
0.000000 0.923763 0.000000
0.000000 0.923642 0.000000
0.000412 0.923183 0.000412
0.000412 0.922808 0.000412
0.000000 0.922104 0.000000
0.000000 0.921131 0.000000
0.000000 0.919818 0.000000
0.303921 0.918327 0.000000
0.438982 0.916622 0.000000
0.549649 0.914909 0.000000
0.649328 0.912902 0.000000
0.742550 0.910632 0.000000
0.831056 0.908490 0.000448
0.915846 0.905804 0.000456
0.994683 0.902868 0.000000
1.000035 0.899071 0.000000
0.000447 1.000034 0.000447
0.000447 1.000034 0.000447
0.000447 1.000034 0.000447
0.000447 1.000034 0.000447
0.000447 1.000034 0.000447
0.000446 0.999570 0.000446
0.000446 0.998792 0.000446
0.234479 0.997973 0.000000
0.401080 0.996650 0.000000
0.523648 0.995386 0.000459
0.629994 0.993854 0.000465
0.727458 0.991749 0.000000
0.818646 0.989102 0.000000
0.904688 0.985521 0.000000
0.984315 0.981127 0.000000
1.000035 0.974947 0.000000
0.000447 1.000034 0.000447
0.000447 1.000034 0.000447
0.000447 1.000034 0.000447
0.000447 1.000034 0.000447
0.000447 1.000034 0.000447
0.000447 1.000034 0.000447
0.000447 1.000034 0.000447
0.123056 1.000034 0.000000
0.357775 1.000034 0.000453
0.493898 1.000034 0.000000
0.606340 1.000034 0.000000
0.706582 1.000034 0.000000
0.798393 1.000034 0.000482
0.883606 1.000034 0.000000
0.961378 1.000034 0.000000
1.000035 1.000034 0.000000
0.010203 0.009741 0.057051
0.067841 0.020493 0.061221
0.142641 0.038995 0.070798
0.222110 0.054441 0.080842
0.303312 0.065125 0.088664
0.389301 0.073454 0.095512
0.477566 0.078038 0.099857
0.564629 0.077385 0.100391
0.648595 0.069120 0.095798
0.728635 0.046361 0.084204
0.804845 0.000000 0.053642
0.877648 0.000000 0.000000
0.946722 0.000000 0.000000
1.000035 0.000000 0.000000
1.000035 0.000000 0.000000
1.000035 0.000000 0.000000
0.036130 0.072225 0.068188
0.078032 0.074622 0.070455
0.149398 0.081243 0.076721
0.226964 0.087703 0.082833
0.307619 0.093352 0.088186
0.392997 0.099144 0.093677
0.480187 0.102287 0.096649
0.566267 0.101253 0.095672
0.649537 0.094370 0.089144
0.728817 0.078753 0.074358
0.804653 0.043252 0.040798
0.877083 0.000000 0.000000
0.946350 0.000000 0.000000
1.000035 0.000000 0.000000
1.000035 0.000000 0.000000
1.000035 0.000000 0.000000
0.064792 0.151731 0.086172
0.094362 0.153114 0.085279
0.162727 0.155938 0.088037
0.237700 0.158899 0.091741
0.318025 0.162546 0.094400
0.401362 0.166098 0.097035
0.485839 0.167975 0.097345
0.569318 0.167098 0.093800
0.650383 0.162682 0.084492
0.728365 0.154051 0.065534
0.803345 0.140150 0.000213
0.875414 0.108872 0.000000
0.944539 0.022343 0.000000
1.000035 0.000000 0.000000
1.000035 0.000000 0.000000
1.000035 0.000000 0.000000
0.079007 0.235082 0.097702
0.104082 0.236678 0.094110
0.172950 0.238542 0.095186
0.251309 0.241418 0.096762
0.329453 0.241914 0.099474
0.410110 0.242796 0.098335
0.491290 0.242662 0.094668
0.571628 0.240653 0.086763
0.650185 0.236277 0.071663
0.726342 0.229282 0.038765
0.800359 0.216933 0.000000
0.872034 0.197729 0.000000
0.941112 0.169796 0.000251
1.000035 0.125423 0.000000
1.000035 0.000000 0.000000
1.000035 0.000000 0.000000
0.082429 0.319572 0.101661
0.107320 0.320792 0.097056
0.176854 0.321389 0.096778
0.254734 0.322144 0.095981
0.335104 0.322670 0.093980
0.413510 0.320571 0.090213
0.492182 0.318197 0.081546
0.570132 0.314657 0.065549
0.646653 0.309639 0.028823
0.721725 0.301558 0.000223
0.795199 0.290156 0.000236
0.866894 0.274942 0.000000
0.936323 0.255061 0.000000
1.000035 0.228702 0.000000
1.000035 0.192781 0.000268
1.000035 0.138727 0.000000
0.061247 0.397798 0.090177
0.093327 0.398671 0.084339
0.169402 0.398421 0.082479
0.249035 0.397690 0.078626
0.329062 0.396425 0.071684
0.408332 0.394084 0.059181
0.486108 0.390294 0.030871
0.563342 0.385754 0.000000
0.639529 0.379470 0.000000
0.714286 0.371244 0.000000
0.787638 0.360673 0.000000
0.859640 0.347634 0.000000
0.930113 0.331475 0.000274
0.997905 0.311629 0.000000
1.000035 0.287157 0.000000
1.000035 0.256587 0.000000
0.000210 0.469210 0.000210
0.000000 0.469020 0.000000
0.143518 0.468423 0.000000
0.231245 0.467155 0.000000
0.314130 0.465182 0.000000
0.394848 0.462384 0.000000
0.473987 0.458442 0.000000
0.551825 0.453377 0.000000
0.628405 0.446910 0.000249
0.703612 0.438933 0.000000
0.777838 0.429294 0.000000
0.851151 0.417818 0.000000
0.923134 0.404280 0.000000
0.991534 0.387994 0.000300
1.000035 0.368746 0.000297
1.000035 0.346443 0.000000
0.000000 0.535717 0.000000
0.000000 0.535467 0.000000
0.046273 0.534714 0.000000
0.192215 0.533234 0.000000
0.286914 0.530992 0.000245
0.373056 0.527939 0.000250
0.455357 0.523896 0.000000
0.535243 0.518804 0.000000
0.613555 0.512736 0.000270
0.690597 0.505469 0.000279
0.766638 0.496970 0.000000
0.841085 0.486778 0.000297
0.913095 0.474721 0.000000
0.981963 0.460782 0.000000
1.000035 0.444971 0.000000
1.000035 0.427261 0.000311
0.000000 0.599504 0.000000
0.000000 0.599344 0.000000
0.000267 0.598593 0.000267
0.105160 0.597133 0.000267
0.242003 0.595022 0.000271
0.340717 0.592194 0.000275
0.429659 0.588498 0.000000
0.513965 0.584028 0.000000
0.595439 0.578497 0.000000
0.674680 0.571700 0.000000
0.751665 0.563634 0.000308
0.826937 0.554154 0.000000
0.899917 0.543480 0.000325
0.970317 0.531472 0.000000
1.000035 0.518462 0.000000
1.000035 0.504282 0.000331
0.000000 0.663627 0.000000
0.000000 0.663502 0.000000
0.000296 0.662658 0.000296
0.000295 0.661274 0.000295
0.161352 0.659341 0.000000
0.293573 0.656521 0.000000
0.394865 0.652896 0.000000
0.485855 0.648258 0.000000
0.571484 0.642799 0.000000
0.653465 0.636423 0.000000
0.732819 0.629030 0.000000
0.809903 0.620805 0.000000
0.884815 0.611602 0.000000
0.957179 0.601628 0.000353
1.000035 0.591140 0.000000
1.000035 0.580050 0.000354
0.000324 0.725954 0.000324
0.000000 0.725810 0.000000
0.000000 0.724989 0.000000
0.000000 0.723637 0.000000
0.000000 0.721739 0.000000
0.222439 0.719130 0.000000
0.348571 0.715610 0.000328
0.450423 0.711526 0.000000
0.542438 0.706610 0.000000
0.628824 0.701044 0.000344
0.711555 0.694774 0.000000
0.791609 0.687997 0.000000
0.869145 0.680548 0.000000
0.944560 0.672903 0.000375
1.000035 0.664816 0.000000
1.000035 0.656595 0.000378
0.000000 0.788181 0.000000
0.000000 0.787931 0.000000
0.000352 0.787339 0.000352
0.000000 0.786293 0.000000
0.000000 0.784408 0.000000
0.069917 0.782257 0.000000
0.288317 0.779272 0.000000
0.408415 0.776042 0.000358
0.509737 0.772204 0.000000
0.602338 0.767814 0.000000
0.689608 0.762895 0.000000
0.773593 0.757805 0.000000
0.854564 0.752404 0.000391
0.933193 0.746825 0.000000
1.000035 0.741360 0.000000
1.000035 0.735596 0.000000
0.000000 0.853039 0.000000
0.000000 0.852876 0.000000
0.000000 0.852406 0.000000
0.000000 0.851521 0.000000
0.000000 0.850372 0.000000
0.000379 0.848641 0.000379
0.203843 0.846509 0.000000
0.360061 0.844116 0.000385
0.475056 0.841439 0.000000
0.575674 0.838345 0.000000
0.668776 0.835139 0.000000
0.757220 0.831819 0.000000
0.842095 0.828275 0.000000
0.924025 0.824687 0.000000
1.000035 0.820951 0.000000
1.000035 0.817121 0.000434
0.000000 0.923686 0.000000
0.000000 0.923562 0.000000
0.000000 0.923277 0.000000
0.000000 0.922818 0.000000
0.000412 0.922035 0.000412
0.000000 0.921060 0.000000
0.000000 0.919757 0.000000
0.303789 0.918267 0.000000
0.438915 0.916646 0.000000
0.549601 0.914853 0.000000
0.649234 0.912920 0.000000
0.742434 0.910696 0.000440
0.831005 0.908435 0.000000
0.915806 0.905762 0.000456
0.994627 0.902805 0.000000
1.000035 0.899094 0.000000
0.000447 1.000034 0.000447
0.000447 1.000034 0.000447
0.000447 1.000034 0.000447
0.000447 1.000034 0.000447
0.000447 1.000034 0.000447
0.000000 0.999531 0.000000
0.000000 0.998754 0.000000
0.234305 0.997865 0.000448
0.401013 0.996795 0.000000
0.523553 0.995317 0.000459
0.629977 0.993786 0.000000
0.727467 0.991701 0.000000
0.818631 0.989019 0.000000
0.904667 0.985602 0.000486
0.984321 0.981008 0.000000
1.000035 0.974958 0.000000
0.000447 1.000034 0.000447
0.000447 1.000034 0.000447
0.000447 1.000034 0.000447
0.000447 1.000034 0.000447
0.000447 1.000034 0.000447
0.000447 1.000034 0.000447
0.000447 1.000034 0.000447
0.122762 1.000034 0.000000
0.357599 1.000034 0.000000
0.493928 1.000034 0.000000
0.606309 1.000034 0.000000
0.706583 1.000034 0.000000
0.798365 1.000034 0.000000
0.883615 1.000034 0.000490
0.961266 1.000034 0.000000
1.000035 1.000034 0.000000
0.022856 0.021830 0.120017
0.071922 0.028192 0.123401
0.145275 0.042935 0.131648
0.223704 0.056274 0.140009
0.304563 0.066045 0.146859
0.390380 0.073950 0.153729
0.478268 0.078180 0.158775
0.565040 0.077196 0.160829
0.648762 0.068530 0.159210
0.728737 0.044850 0.153499
0.804778 0.000000 0.140794
0.877412 0.000000 0.116060
0.946575 0.000244 0.066262
1.000035 0.000000 0.000000
1.000035 0.000000 0.000000
1.000035 0.000000 0.000000
0.040585 0.074909 0.129249
0.078933 0.075493 0.131763
0.151579 0.081808 0.137406
0.228326 0.088121 0.142708
0.308838 0.093750 0.147980
0.393960 0.099439 0.153706
0.480892 0.102363 0.157608
0.566650 0.101077 0.158568
0.649565 0.093905 0.155903
0.728864 0.077897 0.149077
0.804569 0.041006 0.137445
0.876905 0.000000 0.113190
0.946146 0.000243 0.059387
1.000035 0.000000 0.000000
1.000035 0.000000 0.000000
1.000035 0.000000 0.000000
0.066292 0.152765 0.144577
0.095439 0.154079 0.145845
0.162134 0.155376 0.147065
0.239138 0.158444 0.149979
0.320515 0.160089 0.151550
0.403938 0.161674 0.153055
0.488057 0.161577 0.152963
0.571083 0.158589 0.150130
0.651711 0.151661 0.143527
0.729257 0.139625 0.132094
0.803850 0.120818 0.114226
0.875470 0.090866 0.085837
0.944224 0.000243 0.000243
1.000035 0.000000 0.000000
1.000035 0.000000 0.000000
1.000035 0.000000 0.000000
0.079498 0.235754 0.156613
0.104514 0.237325 0.156109
0.164867 0.240802 0.149568
0.253548 0.243565 0.151309
0.331541 0.241940 0.157621
0.412322 0.241239 0.155675
0.493267 0.239505 0.152309
0.573259 0.235931 0.146399
0.651415 0.229905 0.136811
0.727139 0.221032 0.122136
0.800828 0.208999 0.099804
0.872022 0.193552 0.061056
0.940956 0.168846 0.000000
1.000035 0.123906 0.000000
1.000035 0.000000 0.000000
1.000035 0.000000 0.000000
0.082289 0.319775 0.162195
0.107238 0.320988 0.160506
0.166051 0.324228 0.150644
0.252308 0.324966 0.150464
0.337963 0.325471 0.149598
0.415694 0.320786 0.151107
0.494085 0.317019 0.145242
0.571698 0.312077 0.135593
0.647937 0.305659 0.121740
0.722316 0.297527 0.101304
0.795215 0.287664 0.067494
0.866720 0.274414 0.000000
0.936230 0.254398 0.000000
1.000035 0.227939 0.000272
1.000035 0.191773 0.000000
1.000035 0.137218 0.000000
0.060109 0.397719 0.156659
0.092666 0.398593 0.154310
0.157568 0.401009 0.142890
0.244577 0.400372 0.140920
0.328813 0.399092 0.137566
0.411189 0.396850 0.132180
0.488318 0.390775 0.124245
0.564704 0.384856 0.110752
0.640073 0.378089 0.088760
0.714351 0.370418 0.048544
0.787450 0.360297 0.000000
0.859445 0.347175 0.000262
0.930075 0.330951 0.000000
0.997755 0.311084 0.000000
1.000035 0.286504 0.000000
1.000035 0.255867 0.000276
0.000000 0.468994 0.132223
0.000000 0.468853 0.131593
0.129305 0.470548 0.117077
0.225891 0.469178 0.112898
0.312427 0.466928 0.105964
0.395010 0.463683 0.095005
0.474794 0.459219 0.077193
0.551759 0.453135 0.040435
0.628074 0.446546 0.000000
0.703460 0.438556 0.000000
0.777805 0.428963 0.000000
0.850975 0.417471 0.000279
0.922994 0.403897 0.000289
0.991319 0.387553 0.000000
1.000035 0.368295 0.000000
1.000035 0.345885 0.000000
0.000000 0.535423 0.051731
0.000000 0.535226 0.049025
0.037100 0.534548 0.033427
0.191348 0.532947 0.000241
0.286367 0.530742 0.000000
0.372621 0.527544 0.000000
0.455012 0.523641 0.000000
0.535019 0.518610 0.000000
0.613388 0.512428 0.000000
0.690426 0.505172 0.000000
0.766352 0.496669 0.000000
0.840791 0.486471 0.000297
0.912914 0.474405 0.000000
0.981772 0.460400 0.000000
1.000035 0.444565 0.000000
1.000035 0.426865 0.000311
0.000000 0.599290 0.000000
0.000000 0.599082 0.000000
0.000000 0.598304 0.000000
0.103071 0.596895 0.000267
0.241206 0.594753 0.000000
0.340157 0.591901 0.000275
0.429248 0.588271 0.000000
0.513633 0.583744 0.000000
0.595165 0.578207 0.000000
0.674380 0.571420 0.000000
0.751589 0.563278 0.000000
0.826727 0.553897 0.000000
0.899656 0.543152 0.000325
0.970043 0.531235 0.000334
1.000035 0.518104 0.000000
1.000035 0.503958 0.000000
0.000000 0.663270 0.000000
0.000000 0.663108 0.000000
0.000296 0.662420 0.000296
0.000000 0.661076 0.000000
0.159987 0.659021 0.000000
0.292864 0.656172 0.000300
0.394451 0.652564 0.000304
0.485500 0.648003 0.000309
0.571197 0.642560 0.000000
0.653300 0.636225 0.000000
0.732691 0.628792 0.000329
0.809815 0.620487 0.000000
0.884615 0.611298 0.000000
0.957061 0.601444 0.000353
1.000035 0.590847 0.000000
1.000035 0.579839 0.000000
0.000000 0.725760 0.000000
0.000000 0.725435 0.000000
0.000000 0.724801 0.000000
0.000000 0.723532 0.000000
0.000000 0.721429 0.000000
0.221511 0.718806 0.000000
0.348076 0.715282 0.000000
0.450028 0.711137 0.000000
0.542071 0.706450 0.000000
0.628616 0.700808 0.000000
0.711390 0.694652 0.000000
0.791431 0.687744 0.000000
0.869011 0.680435 0.000366
0.944403 0.672613 0.000000
1.000035 0.664605 0.000000
1.000035 0.656487 0.000000
0.000000 0.787868 0.000000
0.000352 0.787673 0.000352
0.000351 0.787032 0.000351
0.000351 0.785980 0.000351
0.000000 0.784373 0.000000
0.066140 0.781981 0.000349
0.287622 0.779294 0.000000
0.407992 0.775865 0.000358
0.509434 0.771909 0.000363
0.602106 0.767552 0.000000
0.689461 0.762752 0.000000
0.773469 0.757653 0.000000
0.854450 0.752284 0.000000
0.933149 0.746809 0.000000
1.000035 0.741140 0.000000
1.000035 0.735394 0.000405
0.000000 0.852803 0.000000
0.000000 0.852816 0.000000
0.000000 0.852312 0.000000
0.000000 0.851428 0.000000
0.000000 0.850091 0.000000
0.000000 0.848466 0.000000
0.202930 0.846428 0.000000
0.359687 0.843998 0.000000
0.474778 0.841251 0.000000
0.575408 0.838287 0.000396
0.668590 0.835105 0.000000
0.756997 0.831742 0.000410
0.841944 0.828110 0.000418
0.923970 0.824606 0.000000
1.000035 0.820834 0.000000
1.000035 0.816984 0.000000
0.000412 0.923514 0.000412
0.000000 0.923560 0.000000
0.000412 0.923241 0.000412
0.000000 0.922745 0.000000
0.000000 0.921995 0.000000
0.000000 0.920885 0.000000
0.000411 0.919530 0.000411
0.303332 0.918079 0.000000
0.438670 0.916602 0.000000
0.549401 0.914651 0.000000
0.649112 0.912725 0.000000
0.742342 0.910621 0.000000
0.830885 0.908392 0.000000
0.915746 0.905700 0.000000
0.994673 0.902704 0.000000
1.000035 0.898999 0.000464
0.000447 1.000034 0.000447
0.000447 1.000034 0.000447
0.000447 1.000034 0.000447
0.000447 1.000034 0.000447
0.000447 1.000034 0.000447
0.000446 0.999501 0.000446
0.000000 0.998738 0.000000
0.233721 0.997711 0.000000
0.400750 0.996609 0.000000
0.523412 0.995306 0.000459
0.629779 0.993624 0.000465
0.727202 0.991563 0.000000
0.818428 0.989015 0.000000
0.904561 0.985538 0.000486
0.984209 0.980882 0.000000
1.000035 0.974889 0.000000
0.000447 1.000034 0.000447
0.000447 1.000034 0.000447
0.000447 1.000034 0.000447
0.000447 1.000034 0.000447
0.000447 1.000034 0.000447
0.000447 1.000034 0.000447
0.000447 1.000034 0.000447
0.121649 1.000034 0.000000
0.357374 1.000034 0.000000
0.493614 1.000034 0.000000
0.606087 1.000034 0.000000
0.706449 1.000034 0.000000
0.798292 1.000034 0.000000
0.883412 1.000034 0.000490
0.961152 1.000034 0.000498
1.000035 1.000034 0.000000
0.034878 0.033323 0.187781
0.077479 0.037213 0.190424
0.148695 0.047582 0.197701
0.226333 0.058992 0.206066
0.306851 0.067558 0.213258
0.392269 0.074771 0.221006
0.479608 0.078423 0.227092
0.565806 0.076807 0.230274
0.649131 0.067365 0.230212
0.728611 0.041848 0.226840
0.804625 0.000000 0.218718
0.877113 0.000000 0.204539
0.946303 0.000244 0.183450
1.000035 0.000258 0.151853
1.000035 0.000000 0.097939
1.000035 0.000000 0.000000
0.046582 0.078774 0.195520
0.080472 0.076962 0.198276
0.152586 0.081968 0.203486
0.230606 0.088301 0.210010
0.311048 0.094387 0.215739
0.395738 0.099869 0.222162
0.482089 0.102417 0.227072
0.567287 0.100705 0.229269
0.649874 0.093060 0.228364
0.728737 0.076316 0.224228
0.804184 0.036388 0.216964
0.876703 0.000000 0.203045
0.945840 0.000000 0.181454
1.000035 0.000000 0.149068
1.000035 0.000257 0.092700
1.000035 0.000000 0.000000
0.066493 0.153466 0.209765
0.093768 0.153462 0.211586
0.155166 0.148674 0.216109
0.242523 0.152448 0.221029
0.322555 0.158336 0.222038
0.405271 0.160952 0.224729
0.488897 0.161073 0.226114
0.571510 0.158004 0.225213
0.651783 0.150872 0.221498
0.729264 0.138598 0.214691
0.803493 0.119417 0.204636
0.875110 0.088720 0.191217
0.943905 0.000000 0.173906
1.000035 0.000258 0.138278
1.000035 0.000257 0.069614
1.000035 0.000000 0.000000
0.080322 0.236933 0.224877
0.105253 0.238470 0.226351
0.165570 0.241823 0.229557
0.249484 0.239649 0.227475
0.331945 0.240770 0.228540
0.413988 0.238934 0.226782
0.495369 0.235002 0.223028
0.575275 0.228807 0.217112
0.653050 0.219778 0.208475
0.728649 0.207311 0.196575
0.801436 0.190654 0.180643
0.872390 0.168816 0.159857
0.940930 0.139812 0.132268
1.000035 0.098050 0.092637
1.000035 0.000000 0.000000
1.000035 0.000000 0.000000
0.081955 0.320150 0.231981
0.107037 0.321316 0.231944
0.166020 0.324542 0.229916
0.240097 0.326466 0.218783
0.339375 0.326846 0.218515
0.416824 0.320397 0.225631
0.495981 0.314981 0.218799
0.573599 0.307994 0.209977
0.649522 0.299354 0.198650
0.723679 0.288726 0.184070
0.796068 0.275921 0.165296
0.866983 0.260920 0.140764
0.936067 0.243768 0.106860
1.000035 0.224592 0.043874
1.000035 0.189933 0.000267
1.000035 0.134366 0.000000
0.057898 0.397518 0.229046
0.091358 0.398437 0.228217
0.156872 0.400780 0.223725
0.230200 0.403029 0.209654
0.324806 0.401781 0.207424
0.414004 0.399612 0.203923
0.490516 0.390545 0.203519
0.566717 0.383013 0.194384
0.641849 0.374210 0.180011
0.715607 0.364357 0.161906
0.788234 0.353472 0.138418
0.859602 0.341549 0.105925
0.929821 0.328954 0.046695
0.997497 0.310025 0.000000
1.000035 0.285334 0.000000
1.000035 0.254498 0.000000
0.000000 0.468566 0.213583
0.000000 0.468416 0.213220
0.127786 0.470086 0.207186
0.209684 0.472171 0.190718
0.305873 0.469978 0.186865
0.394149 0.466861 0.181154
0.478205 0.462564 0.173180
0.554546 0.453426 0.162379
0.629805 0.445006 0.146546
0.704289 0.436105 0.121849
0.777794 0.426799 0.085488
0.850769 0.416762 0.000279
0.922660 0.403083 0.000000
0.991047 0.386737 0.000000
1.000035 0.367383 0.000297
1.000035 0.344943 0.000292
0.000000 0.534940 0.179509
0.000000 0.534741 0.178872
0.026536 0.533980 0.176443
0.171224 0.535858 0.155400
0.278270 0.533358 0.149258
0.369774 0.529926 0.140157
0.455038 0.525432 0.127081
0.536215 0.519736 0.107872
