tools/decompiled/apktool/res/raw/linden.cube
LUT_3D_SIZE 6
0.000000 0.000000 0.000000
0.200000 0.000000 0.000000
0.400000 0.000000 0.000000
0.600000 0.000000 0.000000
0.800000 0.000000 0.000000
1.000000 0.000000 0.000000
0.000000 0.172035 0.111862
0.200000 0.172035 0.111862
0.400000 0.172035 0.111862
0.600000 0.172035 0.111862
0.800000 0.172035 0.111862
1.000000 0.172035 0.111862
0.000000 0.344069 0.223724
0.200000 0.344069 0.223724
0.400000 0.344069 0.223724
0.600000 0.344069 0.223724
0.800000 0.344069 0.223724
1.000000 0.344069 0.223724
0.000000 0.516104 0.335586
0.200000 0.516104 0.335586
0.400000 0.516104 0.335586
0.600000 0.516104 0.335586
0.800000 0.516104 0.335586
1.000000 0.516104 0.335586
0.000000 0.688138 0.447448
0.200000 0.688138 0.447448
0.400000 0.688138 0.447448
0.600000 0.688138 0.447448
0.800000 0.688138 0.447448
1.000000 0.688138 0.447448
0.000000 0.860173 0.559310
0.200000 0.860173 0.559310
0.400000 0.860173 0.559310
0.600000 0.860173 0.559310
0.800000 0.860173 0.559310
1.000000 0.860173 0.559310
0.000000 0.027965 0.088138
0.200000 0.027965 0.088138
0.400000 0.027965 0.088138
0.600000 0.027965 0.088138
0.800000 0.027965 0.088138
1.000000 0.027965 0.088138
0.000000 0.200000 0.200000
0.200000 0.200000 0.200000
0.400000 0.200000 0.200000
0.600000 0.200000 0.200000
0.800000 0.200000 0.200000
1.000000 0.200000 0.200000
0.000000 0.372035 0.311862
0.200000 0.372035 0.311862
0.400000 0.372035 0.311862
0.600000 0.372035 0.311862
0.800000 0.372035 0.311862
1.000000 0.372035 0.311862
0.000000 0.544069 0.423724
0.200000 0.544069 0.423724
0.400000 0.544069 0.423724
0.600000 0.544069 0.423724
0.800000 0.544069 0.423724
1.000000 0.544069 0.423724
0.000000 0.716104 0.535586
0.200000 0.716104 0.535586
0.400000 0.716104 0.535586
0.600000 0.716104 0.535586
0.800000 0.716104 0.535586
1.000000 0.716104 0.535586
0.000000 0.888138 0.647448
0.200000 0.888138 0.647448
0.400000 0.888138 0.647448
0.600000 0.888138 0.647448
0.800000 0.888138 0.647448
1.000000 0.888138 0.647448
0.000000 0.055931 0.176276
0.200000 0.055931 0.176276
0.400000 0.055931 0.176276
0.600000 0.055931 0.176276
0.800000 0.055931 0.176276
1.000000 0.055931 0.176276
0.000000 0.227965 0.288138
0.200000 0.227965 0.288138
0.400000 0.227965 0.288138
0.600000 0.227965 0.288138
0.800000 0.227965 0.288138
1.000000 0.227965 0.288138
0.000000 0.400000 0.400000
0.200000 0.400000 0.400000
0.400000 0.400000 0.400000
0.600000 0.400000 0.400000
0.800000 0.400000 0.400000
1.000000 0.400000 0.400000
0.000000 0.572035 0.511862
0.200000 0.572035 0.511862
0.400000 0.572035 0.511862
0.600000 0.572035 0.511862
0.800000 0.572035 0.511862
1.000000 0.572035 0.511862
0.000000 0.744069 0.623724
0.200000 0.744069 0.623724
0.400000 0.744069 0.623724
0.600000 0.744069 0.623724
0.800000 0.744069 0.623724
1.000000 0.744069 0.623724
0.000000 0.916104 0.735586
0.200000 0.916104 0.735586
0.400000 0.916104 0.735586
0.600000 0.916104 0.735586
0.800000 0.916104 0.735586
1.000000 0.916104 0.735586
0.000000 0.083896 0.264414
0.200000 0.083896 0.264414
0.400000 0.083896 0.264414
0.600000 0.083896 0.264414
0.800000 0.083896 0.264414
1.000000 0.083896 0.264414
0.000000 0.255931 0.376276
0.200000 0.255931 0.376276
0.400000 0.255931 0.376276
0.600000 0.255931 0.376276
0.800000 0.255931 0.376276
1.000000 0.255931 0.376276
0.000000 0.427965 0.488138
0.200000 0.427965 0.488138
0.400000 0.427965 0.488138
0.600000 0.427965 0.488138
0.800000 0.427965 0.488138
1.000000 0.427965 0.488138
0.000000 0.600000 0.600000
0.200000 0.600000 0.600000
0.400000 0.600000 0.600000
0.600000 0.600000 0.600000
0.800000 0.600000 0.600000
1.000000 0.600000 0.600000
0.000000 0.772035 0.711862
0.200000 0.772035 0.711862
0.400000 0.772035 0.711862
0.600000 0.772035 0.711862
0.800000 0.772035 0.711862
1.000000 0.772035 0.711862
0.000000 0.944069 0.823724
0.200000 0.944069 0.823724
0.400000 0.944069 0.823724
0.600000 0.944069 0.823724
0.800000 0.944069 0.823724
1.000000 0.944069 0.823724
0.000000 0.111862 0.352552
0.200000 0.111862 0.352552
0.400000 0.111862 0.352552
0.600000 0.111862 0.352552
0.800000 0.111862 0.352552
1.000000 0.111862 0.352552
0.000000 0.283896 0.464414
0.200000 0.283896 0.464414
0.400000 0.283896 0.464414
0.600000 0.283896 0.464414
0.800000 0.283896 0.464414
1.000000 0.283896 0.464414
0.000000 0.455931 0.576276
0.200000 0.455931 0.576276
0.400000 0.455931 0.576276
0.600000 0.455931 0.576276
0.800000 0.455931 0.576276
1.000000 0.455931 0.576276
0.000000 0.627966 0.688138
0.200000 0.627966 0.688138
0.400000 0.627966 0.688138
0.600000 0.627966 0.688138
0.800000 0.627966 0.688138
1.000000 0.627966 0.688138
0.000000 0.800000 0.800000
0.200000 0.800000 0.800000
0.400000 0.800000 0.800000
0.600000 0.800000 0.800000
0.800000 0.800000 0.800000
1.000000 0.800000 0.800000
0.000000 0.972035 0.911862
0.200000 0.972035 0.911862
0.400000 0.972035 0.911862
0.600000 0.972035 0.911862
0.800000 0.972035 0.911862
1.000000 0.972035 0.911862
0.000000 0.139827 0.440690
0.200000 0.139827 0.440690
0.400000 0.139827 0.440690
0.600000 0.139827 0.440690
0.800000 0.139827 0.440690
1.000000 0.139827 0.440690
0.000000 0.311862 0.552552
0.200000 0.311862 0.552552
0.400000 0.311862 0.552552
0.600000 0.311862 0.552552
0.800000 0.311862 0.552552
1.000000 0.311862 0.552552
0.000000 0.483896 0.664414
0.200000 0.483896 0.664414
0.400000 0.483896 0.664414
0.600000 0.483896 0.664414
0.800000 0.483896 0.664414
1.000000 0.483896 0.664414
0.000000 0.655931 0.776276
0.200000 0.655931 0.776276
0.400000 0.655931 0.776276
0.600000 0.655931 0.776276
0.800000 0.655931 0.776276
1.000000 0.655931 0.776276
0.000000 0.827965 0.888138
0.200000 0.827965 0.888138
0.400000 0.827965 0.888138
0.600000 0.827965 0.888138
0.800000 0.827965 0.888138
1.000000 0.827965 0.888138
0.000000 1.000000 1.000000
0.200000 1.000000 1.000000
0.400000 1.000000 1.000000
0.600000 1.000000 1.000000
0.800000 1.000000 1.000000
1.000000 1.000000 1.000000
