tools/decompiled/apktool/res/raw/linden.cube
LUT_3D_SIZE 16
0.000000 0.000000 0.000000
0.066667 0.000000 0.000000
0.133333 0.000000 0.000000
0.200000 0.000000 0.000000
0.266667 0.000000 0.000000
0.333333 0.000000 0.000000
0.400000 0.000000 0.000000
0.466667 0.000000 0.000000
0.533333 0.000000 0.000000
0.600000 0.000000 0.000000
0.666667 0.000000 0.000000
0.733333 0.000000 0.000000
0.800000 0.000000 0.000000
0.866667 0.000000 0.000000
0.933333 0.000000 0.000000
1.000000 0.000000 0.000000
0.000000 0.057345 0.037287
0.066667 0.057345 0.037287
0.133333 0.057345 0.037287
0.200000 0.057345 0.037287
0.266667 0.057345 0.037287
0.333333 0.057345 0.037287
0.400000 0.057345 0.037287
0.466667 0.057345 0.037287
0.533333 0.057345 0.037287
0.600000 0.057345 0.037287
0.666667 0.057345 0.037287
0.733333 0.057345 0.037287
0.800000 0.057345 0.037287
0.866667 0.057345 0.037287
0.933333 0.057345 0.037287
1.000000 0.057345 0.037287
0.000000 0.114690 0.074575
0.066667 0.114690 0.074575
0.133333 0.114690 0.074575
0.200000 0.114690 0.074575
0.266667 0.114690 0.074575
0.333333 0.114690 0.074575
0.400000 0.114690 0.074575
0.466667 0.114690 0.074575
0.533333 0.114690 0.074575
0.600000 0.114690 0.074575
0.666667 0.114690 0.074575
0.733333 0.114690 0.074575
0.800000 0.114690 0.074575
0.866667 0.114690 0.074575
0.933333 0.114690 0.074575
1.000000 0.114690 0.074575
0.000000 0.172035 0.111862
0.066667 0.172035 0.111862
0.133333 0.172035 0.111862
0.200000 0.172035 0.111862
0.266667 0.172035 0.111862
0.333333 0.172035 0.111862
0.400000 0.172035 0.111862
0.466667 0.172035 0.111862
0.533333 0.172035 0.111862
0.600000 0.172035 0.111862
0.666667 0.172035 0.111862
0.733333 0.172035 0.111862
0.800000 0.172035 0.111862
0.866667 0.172035 0.111862
0.933333 0.172035 0.111862
1.000000 0.172035 0.111862
0.000000 0.229379 0.149149
0.066667 0.229379 0.149149
0.133333 0.229379 0.149149
0.200000 0.229379 0.149149
0.266667 0.229379 0.149149
0.333333 0.229379 0.149149
0.400000 0.229379 0.149149
0.466667 0.229379 0.149149
0.533333 0.229379 0.149149
0.600000 0.229379 0.149149
0.666667 0.229379 0.149149
0.733333 0.229379 0.149149
0.800000 0.229379 0.149149
0.866667 0.229379 0.149149
0.933333 0.229379 0.149149
1.000000 0.229379 0.149149
0.000000 0.286724 0.186437
0.066667 0.286724 0.186437
0.133333 0.286724 0.186437
0.200000 0.286724 0.186437
0.266667 0.286724 0.186437
0.333333 0.286724 0.186437
0.400000 0.286724 0.186437
0.466667 0.286724 0.186437
0.533333 0.286724 0.186437
0.600000 0.286724 0.186437
0.666667 0.286724 0.186437
0.733333 0.286724 0.186437
0.800000 0.286724 0.186437
0.866667 0.286724 0.186437
0.933333 0.286724 0.186437
1.000000 0.286724 0.186437
0.000000 0.344069 0.223724
0.066667 0.344069 0.223724
0.133333 0.344069 0.223724
0.200000 0.344069 0.223724
0.266667 0.344069 0.223724
0.333333 0.344069 0.223724
0.400000 0.344069 0.223724
0.466667 0.344069 0.223724
0.533333 0.344069 0.223724
0.600000 0.344069 0.223724
0.666667 0.344069 0.223724
0.733333 0.344069 0.223724
0.800000 0.344069 0.223724
0.866667 0.344069 0.223724
0.933333 0.344069 0.223724
1.000000 0.344069 0.223724
0.000000 0.401414 0.261011
0.066667 0.401414 0.261011
0.133333 0.401414 0.261011
0.200000 0.401414 0.261011
0.266667 0.401414 0.261011
0.333333 0.401414 0.261011
0.400000 0.401414 0.261011
0.466667 0.401414 0.261011
0.533333 0.401414 0.261011
0.600000 0.401414 0.261011
0.666667 0.401414 0.261011
0.733333 0.401414 0.261011
0.800000 0.401414 0.261011
0.866667 0.401414 0.261011
0.933333 0.401414 0.261011
1.000000 0.401414 0.261011
0.000000 0.458759 0.298299
0.066667 0.458759 0.298299
0.133333 0.458759 0.298299
0.200000 0.458759 0.298299
0.266667 0.458759 0.298299
0.333333 0.458759 0.298299
0.400000 0.458759 0.298299
0.466667 0.458759 0.298299
0.533333 0.458759 0.298299
0.600000 0.458759 0.298299
0.666667 0.458759 0.298299
0.733333 0.458759 0.298299
0.800000 0.458759 0.298299
0.866667 0.458759 0.298299
0.933333 0.458759 0.298299
1.000000 0.458759 0.298299
0.000000 0.516104 0.335586
0.066667 0.516104 0.335586
0.133333 0.516104 0.335586
0.200000 0.516104 0.335586
0.266667 0.516104 0.335586
0.333333 0.516104 0.335586
0.400000 0.516104 0.335586
0.466667 0.516104 0.335586
0.533333 0.516104 0.335586
0.600000 0.516104 0.335586
0.666667 0.516104 0.335586
0.733333 0.516104 0.335586
0.800000 0.516104 0.335586
0.866667 0.516104 0.335586
0.933333 0.516104 0.335586
1.000000 0.516104 0.335586
0.000000 0.573448 0.372873
0.066667 0.573448 0.372873
0.133333 0.573448 0.372873
0.200000 0.573448 0.372873
0.266667 0.573448 0.372873
0.333333 0.573448 0.372873
0.400000 0.573448 0.372873
0.466667 0.573448 0.372873
0.533333 0.573448 0.372873
0.600000 0.573448 0.372873
0.666667 0.573448 0.372873
0.733333 0.573448 0.372873
0.800000 0.573448 0.372873
0.866667 0.573448 0.372873
0.933333 0.573448 0.372873
1.000000 0.573448 0.372873
0.000000 0.630793 0.410160
0.066667 0.630793 0.410160
0.133333 0.630793 0.410160
0.200000 0.630793 0.410160
0.266667 0.630793 0.410160
0.333333 0.630793 0.410160
0.400000 0.630793 0.410160
0.466667 0.630793 0.410160
0.533333 0.630793 0.410160
0.600000 0.630793 0.410160
0.666667 0.630793 0.410160
0.733333 0.630793 0.410160
0.800000 0.630793 0.410160
0.866667 0.630793 0.410160
0.933333 0.630793 0.410160
1.000000 0.630793 0.410160
0.000000 0.688138 0.447448
0.066667 0.688138 0.447448
0.133333 0.688138 0.447448
0.200000 0.688138 0.447448
0.266667 0.688138 0.447448
0.333333 0.688138 0.447448
0.400000 0.688138 0.447448
0.466667 0.688138 0.447448
0.533333 0.688138 0.447448
0.600000 0.688138 0.447448
0.666667 0.688138 0.447448
0.733333 0.688138 0.447448
0.800000 0.688138 0.447448
0.866667 0.688138 0.447448
0.933333 0.688138 0.447448
1.000000 0.688138 0.447448
0.000000 0.745483 0.484735
0.066667 0.745483 0.484735
0.133333 0.745483 0.484735
0.200000 0.745483 0.484735
0.266667 0.745483 0.484735
0.333333 0.745483 0.484735
0.400000 0.745483 0.484735
0.466667 0.745483 0.484735
0.533333 0.745483 0.484735
0.600000 0.745483 0.484735
0.666667 0.745483 0.484735
0.733333 0.745483 0.484735
0.800000 0.745483 0.484735
0.866667 0.745483 0.484735
0.933333 0.745483 0.484735
1.000000 0.745483 0.484735
0.000000 0.802828 0.522022
0.066667 0.802828 0.522022
0.133333 0.802828 0.522022
0.200000 0.802828 0.522022
0.266667 0.802828 0.522022
0.333333 0.802828 0.522022
0.400000 0.802828 0.522022
0.466667 0.802828 0.522022
0.533333 0.802828 0.522022
0.600000 0.802828 0.522022
0.666667 0.802828 0.522022
0.733333 0.802828 0.522022
0.800000 0.802828 0.522022
0.866667 0.802828 0.522022
0.933333 0.802828 0.522022
1.000000 0.802828 0.522022
0.000000 0.860173 0.559310
0.066667 0.860173 0.559310
0.133333 0.860173 0.559310
0.200000 0.860173 0.559310
0.266667 0.860173 0.559310
0.333333 0.860173 0.559310
0.400000 0.860173 0.559310
0.466667 0.860173 0.559310
0.533333 0.860173 0.559310
0.600000 0.860173 0.559310
0.666667 0.860173 0.559310
0.733333 0.860173 0.559310
0.800000 0.860173 0.559310
0.866667 0.860173 0.559310
0.933333 0.860173 0.559310
1.000000 0.860173 0.559310
0.000000 0.009322 0.029379
0.066667 0.009322 0.029379
0.133333 0.009322 0.029379
0.200000 0.009322 0.029379
0.266667 0.009322 0.029379
0.333333 0.009322 0.029379
0.400000 0.009322 0.029379
0.466667 0.009322 0.029379
0.533333 0.009322 0.029379
0.600000 0.009322 0.029379
0.666667 0.009322 0.029379
0.733333 0.009322 0.029379
0.800000 0.009322 0.029379
0.866667 0.009322 0.029379
0.933333 0.009322 0.029379
1.000000 0.009322 0.029379
0.000000 0.066667 0.066667
0.066667 0.066667 0.066667
0.133333 0.066667 0.066667
0.200000 0.066667 0.066667
0.266667 0.066667 0.066667
0.333333 0.066667 0.066667
0.400000 0.066667 0.066667
0.466667 0.066667 0.066667
0.533333 0.066667 0.066667
0.600000 0.066667 0.066667
0.666667 0.066667 0.066667
0.733333 0.066667 0.066667
0.800000 0.066667 0.066667
0.866667 0.066667 0.066667
0.933333 0.066667 0.066667
1.000000 0.066667 0.066667
0.000000 0.124012 0.103954
0.066667 0.124012 0.103954
0.133333 0.124012 0.103954
0.200000 0.124012 0.103954
0.266667 0.124012 0.103954
0.333333 0.124012 0.103954
0.400000 0.124012 0.103954
0.466667 0.124012 0.103954
0.533333 0.124012 0.103954
0.600000 0.124012 0.103954
0.666667 0.124012 0.103954
0.733333 0.124012 0.103954
0.800000 0.124012 0.103954
0.866667 0.124012 0.103954
0.933333 0.124012 0.103954
1.000000 0.124012 0.103954
0.000000 0.181356 0.141241
0.066667 0.181356 0.141241
0.133333 0.181356 0.141241
0.200000 0.181356 0.141241
0.266667 0.181356 0.141241
0.333333 0.181356 0.141241
0.400000 0.181356 0.141241
0.466667 0.181356 0.141241
0.533333 0.181356 0.141241
0.600000 0.181356 0.141241
0.666667 0.181356 0.141241
0.733333 0.181356 0.141241
0.800000 0.181356 0.141241
0.866667 0.181356 0.141241
0.933333 0.181356 0.141241
1.000000 0.181356 0.141241
0.000000 0.238701 0.178529
0.066667 0.238701 0.178529
0.133333 0.238701 0.178529
0.200000 0.238701 0.178529
0.266667 0.238701 0.178529
0.333333 0.238701 0.178529
0.400000 0.238701 0.178529
0.466667 0.238701 0.178529
0.533333 0.238701 0.178529
0.600000 0.238701 0.178529
0.666667 0.238701 0.178529
0.733333 0.238701 0.178529
0.800000 0.238701 0.178529
0.866667 0.238701 0.178529
0.933333 0.238701 0.178529
1.000000 0.238701 0.178529
0.000000 0.296046 0.215816
0.066667 0.296046 0.215816
0.133333 0.296046 0.215816
0.200000 0.296046 0.215816
0.266667 0.296046 0.215816
0.333333 0.296046 0.215816
0.400000 0.296046 0.215816
0.466667 0.296046 0.215816
0.533333 0.296046 0.215816
0.600000 0.296046 0.215816
0.666667 0.296046 0.215816
0.733333 0.296046 0.215816
0.800000 0.296046 0.215816
0.866667 0.296046 0.215816
0.933333 0.296046 0.215816
1.000000 0.296046 0.215816
0.000000 0.353391 0.253103
0.066667 0.353391 0.253103
0.133333 0.353391 0.253103
0.200000 0.353391 0.253103
0.266667 0.353391 0.253103
0.333333 0.353391 0.253103
0.400000 0.353391 0.253103
0.466667 0.353391 0.253103
0.533333 0.353391 0.253103
0.600000 0.353391 0.253103
0.666667 0.353391 0.253103
0.733333 0.353391 0.253103
0.800000 0.353391 0.253103
0.866667 0.353391 0.253103
0.933333 0.353391 0.253103
1.000000 0.353391 0.253103
0.000000 0.410736 0.290391
0.066667 0.410736 0.290391
0.133333 0.410736 0.290391
0.200000 0.410736 0.290391
0.266667 0.410736 0.290391
0.333333 0.410736 0.290391
0.400000 0.410736 0.290391
0.466667 0.410736 0.290391
0.533333 0.410736 0.290391
0.600000 0.410736 0.290391
0.666667 0.410736 0.290391
0.733333 0.410736 0.290391
0.800000 0.410736 0.290391
0.866667 0.410736 0.290391
0.933333 0.410736 0.290391
1.000000 0.410736 0.290391
0.000000 0.468081 0.327678
0.066667 0.468081 0.327678
0.133333 0.468081 0.327678
0.200000 0.468081 0.327678
0.266667 0.468081 0.327678
0.333333 0.468081 0.327678
0.400000 0.468081 0.327678
0.466667 0.468081 0.327678
0.533333 0.468081 0.327678
0.600000 0.468081 0.327678
0.666667 0.468081 0.327678
0.733333 0.468081 0.327678
0.800000 0.468081 0.327678
0.866667 0.468081 0.327678
0.933333 0.468081 0.327678
1.000000 0.468081 0.327678
0.000000 0.525425 0.364965
0.066667 0.525425 0.364965
0.133333 0.525425 0.364965
0.200000 0.525425 0.364965
0.266667 0.525425 0.364965
0.333333 0.525425 0.364965
0.400000 0.525425 0.364965
0.466667 0.525425 0.364965
0.533333 0.525425 0.364965
0.600000 0.525425 0.364965
0.666667 0.525425 0.364965
0.733333 0.525425 0.364965
0.800000 0.525425 0.364965
0.866667 0.525425 0.364965
0.933333 0.525425 0.364965
1.000000 0.525425 0.364965
0.000000 0.582770 0.402252
0.066667 0.582770 0.402252
0.133333 0.582770 0.402252
0.200000 0.582770 0.402252
0.266667 0.582770 0.402252
0.333333 0.582770 0.402252
0.400000 0.582770 0.402252
0.466667 0.582770 0.402252
0.533333 0.582770 0.402252
0.600000 0.582770 0.402252
0.666667 0.582770 0.402252
0.733333 0.582770 0.402252
0.800000 0.582770 0.402252
0.866667 0.582770 0.402252
0.933333 0.582770 0.402252
1.000000 0.582770 0.402252
0.000000 0.640115 0.439540
0.066667 0.640115 0.439540
0.133333 0.640115 0.439540
0.200000 0.640115 0.439540
0.266667 0.640115 0.439540
0.333333 0.640115 0.439540
0.400000 0.640115 0.439540
0.466667 0.640115 0.439540
0.533333 0.640115 0.439540
0.600000 0.640115 0.439540
0.666667 0.640115 0.439540
0.733333 0.640115 0.439540
0.800000 0.640115 0.439540
0.866667 0.640115 0.439540
0.933333 0.640115 0.439540
1.000000 0.640115 0.439540
0.000000 0.697460 0.476827
0.066667 0.697460 0.476827
0.133333 0.697460 0.476827
0.200000 0.697460 0.476827
0.266667 0.697460 0.476827
0.333333 0.697460 0.476827
0.400000 0.697460 0.476827
0.466667 0.697460 0.476827
0.533333 0.697460 0.476827
0.600000 0.697460 0.476827
0.666667 0.697460 0.476827
0.733333 0.697460 0.476827
0.800000 0.697460 0.476827
0.866667 0.697460 0.476827
0.933333 0.697460 0.476827
1.000000 0.697460 0.476827
0.000000 0.754805 0.514114
0.066667 0.754805 0.514114
0.133333 0.754805 0.514114
0.200000 0.754805 0.514114
0.266667 0.754805 0.514114
0.333333 0.754805 0.514114
0.400000 0.754805 0.514114
0.466667 0.754805 0.514114
0.533333 0.754805 0.514114
0.600000 0.754805 0.514114
0.666667 0.754805 0.514114
0.733333 0.754805 0.514114
0.800000 0.754805 0.514114
0.866667 0.754805 0.514114
0.933333 0.754805 0.514114
1.000000 0.754805 0.514114
0.000000 0.812150 0.551402
0.066667 0.812150 0.551402
0.133333 0.812150 0.551402
0.200000 0.812150 0.551402
0.266667 0.812150 0.551402
0.333333 0.812150 0.551402
0.400000 0.812150 0.551402
0.466667 0.812150 0.551402
0.533333 0.812150 0.551402
0.600000 0.812150 0.551402
0.666667 0.812150 0.551402
0.733333 0.812150 0.551402
0.800000 0.812150 0.551402
0.866667 0.812150 0.551402
0.933333 0.812150 0.551402
1.000000 0.812150 0.551402
0.000000 0.869494 0.588689
0.066667 0.869494 0.588689
0.133333 0.869494 0.588689
0.200000 0.869494 0.588689
0.266667 0.869494 0.588689
0.333333 0.869494 0.588689
0.400000 0.869494 0.588689
0.466667 0.869494 0.588689
0.533333 0.869494 0.588689
0.600000 0.869494 0.588689
0.666667 0.869494 0.588689
0.733333 0.869494 0.588689
0.800000 0.869494 0.588689
0.866667 0.869494 0.588689
0.933333 0.869494 0.588689
1.000000 0.869494 0.588689
0.000000 0.018644 0.058759
0.066667 0.018644 0.058759
0.133333 0.018644 0.058759
0.200000 0.018644 0.058759
0.266667 0.018644 0.058759
0.333333 0.018644 0.058759
0.400000 0.018644 0.058759
0.466667 0.018644 0.058759
0.533333 0.018644 0.058759
0.600000 0.018644 0.058759
0.666667 0.018644 0.058759
0.733333 0.018644 0.058759
0.800000 0.018644 0.058759
0.866667 0.018644 0.058759
0.933333 0.018644 0.058759
1.000000 0.018644 0.058759
0.000000 0.075989 0.096046
0.066667 0.075989 0.096046
0.133333 0.075989 0.096046
0.200000 0.075989 0.096046
0.266667 0.075989 0.096046
0.333333 0.075989 0.096046
0.400000 0.075989 0.096046
0.466667 0.075989 0.096046
0.533333 0.075989 0.096046
0.600000 0.075989 0.096046
0.666667 0.075989 0.096046
0.733333 0.075989 0.096046
0.800000 0.075989 0.096046
0.866667 0.075989 0.096046
0.933333 0.075989 0.096046
1.000000 0.075989 0.096046
0.000000 0.133333 0.133333
0.066667 0.133333 0.133333
0.133333 0.133333 0.133333
0.200000 0.133333 0.133333
0.266667 0.133333 0.133333
0.333333 0.133333 0.133333
0.400000 0.133333 0.133333
0.466667 0.133333 0.133333
0.533333 0.133333 0.133333
0.600000 0.133333 0.133333
0.666667 0.133333 0.133333
0.733333 0.133333 0.133333
0.800000 0.133333 0.133333
0.866667 0.133333 0.133333
0.933333 0.133333 0.133333
1.000000 0.133333 0.133333
0.000000 0.190678 0.170621
0.066667 0.190678 0.170621
0.133333 0.190678 0.170621
0.200000 0.190678 0.170621
0.266667 0.190678 0.170621
0.333333 0.190678 0.170621
0.400000 0.190678 0.170621
0.466667 0.190678 0.170621
0.533333 0.190678 0.170621
0.600000 0.190678 0.170621
0.666667 0.190678 0.170621
0.733333 0.190678 0.170621
0.800000 0.190678 0.170621
0.866667 0.190678 0.170621
0.933333 0.190678 0.170621
1.000000 0.190678 0.170621
0.000000 0.248023 0.207908
0.066667 0.248023 0.207908
0.133333 0.248023 0.207908
0.200000 0.248023 0.207908
0.266667 0.248023 0.207908
0.333333 0.248023 0.207908
0.400000 0.248023 0.207908
0.466667 0.248023 0.207908
0.533333 0.248023 0.207908
0.600000 0.248023 0.207908
0.666667 0.248023 0.207908
0.733333 0.248023 0.207908
0.800000 0.248023 0.207908
0.866667 0.248023 0.207908
0.933333 0.248023 0.207908
1.000000 0.248023 0.207908
0.000000 0.305368 0.245195
0.066667 0.305368 0.245195
0.133333 0.305368 0.245195
0.200000 0.305368 0.245195
0.266667 0.305368 0.245195
0.333333 0.305368 0.245195
0.400000 0.305368 0.245195
0.466667 0.305368 0.245195
0.533333 0.305368 0.245195
0.600000 0.305368 0.245195
0.666667 0.305368 0.245195
0.733333 0.305368 0.245195
0.800000 0.305368 0.245195
0.866667 0.305368 0.245195
0.933333 0.305368 0.245195
1.000000 0.305368 0.245195
0.000000 0.362713 0.282483
0.066667 0.362713 0.282483
0.133333 0.362713 0.282483
0.200000 0.362713 0.282483
0.266667 0.362713 0.282483
0.333333 0.362713 0.282483
0.400000 0.362713 0.282483
0.466667 0.362713 0.282483
0.533333 0.362713 0.282483
0.600000 0.362713 0.282483
0.666667 0.362713 0.282483
0.733333 0.362713 0.282483
0.800000 0.362713 0.282483
0.866667 0.362713 0.282483
0.933333 0.362713 0.282483
1.000000 0.362713 0.282483
0.000000 0.420058 0.319770
0.066667 0.420058 0.319770
0.133333 0.420058 0.319770
0.200000 0.420058 0.319770
0.266667 0.420058 0.319770
0.333333 0.420058 0.319770
0.400000 0.420058 0.319770
0.466667 0.420058 0.319770
0.533333 0.420058 0.319770
0.600000 0.420058 0.319770
0.666667 0.420058 0.319770
0.733333 0.420058 0.319770
0.800000 0.420058 0.319770
0.866667 0.420058 0.319770
0.933333 0.420058 0.319770
1.000000 0.420058 0.319770
0.000000 0.477402 0.357057
0.066667 0.477402 0.357057
0.133333 0.477402 0.357057
0.200000 0.477402 0.357057
0.266667 0.477402 0.357057
0.333333 0.477402 0.357057
0.400000 0.477402 0.357057
0.466667 0.477402 0.357057
0.533333 0.477402 0.357057
0.600000 0.477402 0.357057
0.666667 0.477402 0.357057
0.733333 0.477402 0.357057
0.800000 0.477402 0.357057
0.866667 0.477402 0.357057
0.933333 0.477402 0.357057
1.000000 0.477402 0.357057
0.000000 0.534747 0.394345
0.066667 0.534747 0.394345
0.133333 0.534747 0.394345
0.200000 0.534747 0.394345
0.266667 0.534747 0.394345
0.333333 0.534747 0.394345
0.400000 0.534747 0.394345
0.466667 0.534747 0.394345
0.533333 0.534747 0.394345
0.600000 0.534747 0.394345
0.666667 0.534747 0.394345
0.733333 0.534747 0.394345
0.800000 0.534747 0.394345
0.866667 0.534747 0.394345
0.933333 0.534747 0.394345
1.000000 0.534747 0.394345
0.000000 0.592092 0.431632
0.066667 0.592092 0.431632
0.133333 0.592092 0.431632
0.200000 0.592092 0.431632
0.266667 0.592092 0.431632
0.333333 0.592092 0.431632
0.400000 0.592092 0.431632
0.466667 0.592092 0.431632
0.533333 0.592092 0.431632
0.600000 0.592092 0.431632
0.666667 0.592092 0.431632
0.733333 0.592092 0.431632
0.800000 0.592092 0.431632
0.866667 0.592092 0.431632
0.933333 0.592092 0.431632
1.000000 0.592092 0.431632
0.000000 0.649437 0.468919
0.066667 0.649437 0.468919
0.133333 0.649437 0.468919
0.200000 0.649437 0.468919
0.266667 0.649437 0.468919
0.333333 0.649437 0.468919
0.400000 0.649437 0.468919
0.466667 0.649437 0.468919
0.533333 0.649437 0.468919
0.600000 0.649437 0.468919
0.666667 0.649437 0.468919
0.733333 0.649437 0.468919
0.800000 0.649437 0.468919
0.866667 0.649437 0.468919
0.933333 0.649437 0.468919
1.000000 0.649437 0.468919
0.000000 0.706782 0.506206
0.066667 0.706782 0.506206
0.133333 0.706782 0.506206
0.200000 0.706782 0.506206
0.266667 0.706782 0.506206
0.333333 0.706782 0.506206
0.400000 0.706782 0.506206
0.466667 0.706782 0.506206
0.533333 0.706782 0.506206
0.600000 0.706782 0.506206
0.666667 0.706782 0.506206
0.733333 0.706782 0.506206
0.800000 0.706782 0.506206
0.866667 0.706782 0.506206
0.933333 0.706782 0.506206
1.000000 0.706782 0.506206
0.000000 0.764127 0.543494
0.066667 0.764127 0.543494
0.133333 0.764127 0.543494
0.200000 0.764127 0.543494
0.266667 0.764127 0.543494
0.333333 0.764127 0.543494
0.400000 0.764127 0.543494
0.466667 0.764127 0.543494
0.533333 0.764127 0.543494
0.600000 0.764127 0.543494
0.666667 0.764127 0.543494
0.733333 0.764127 0.543494
0.800000 0.764127 0.543494
0.866667 0.764127 0.543494
0.933333 0.764127 0.543494
1.000000 0.764127 0.543494
0.000000 0.821471 0.580781
0.066667 0.821471 0.580781
0.133333 0.821471 0.580781
0.200000 0.821471 0.580781
0.266667 0.821471 0.580781
0.333333 0.821471 0.580781
0.400000 0.821471 0.580781
0.466667 0.821471 0.580781
0.533333 0.821471 0.580781
0.600000 0.821471 0.580781
0.666667 0.821471 0.580781
0.733333 0.821471 0.580781
0.800000 0.821471 0.580781
0.866667 0.821471 0.580781
0.933333 0.821471 0.580781
1.000000 0.821471 0.580781
0.000000 0.878816 0.618068
0.066667 0.878816 0.618068
0.133333 0.878816 0.618068
0.200000 0.878816 0.618068
0.266667 0.878816 0.618068
0.333333 0.878816 0.618068
0.400000 0.878816 0.618068
0.466667 0.878816 0.618068
0.533333 0.878816 0.618068
0.600000 0.878816 0.618068
0.666667 0.878816 0.618068
0.733333 0.878816 0.618068
0.800000 0.878816 0.618068
0.866667 0.878816 0.618068
0.933333 0.878816 0.618068
1.000000 0.878816 0.618068
0.000000 0.027965 0.088138
0.066667 0.027965 0.088138
0.133333 0.027965 0.088138
0.200000 0.027965 0.088138
0.266667 0.027965 0.088138
0.333333 0.027965 0.088138
0.400000 0.027965 0.088138
0.466667 0.027965 0.088138
0.533333 0.027965 0.088138
0.600000 0.027965 0.088138
0.666667 0.027965 0.088138
0.733333 0.027965 0.088138
0.800000 0.027965 0.088138
0.866667 0.027965 0.088138
0.933333 0.027965 0.088138
1.000000 0.027965 0.088138
0.000000 0.085310 0.125425
0.066667 0.085310 0.125425
0.133333 0.085310 0.125425
0.200000 0.085310 0.125425
0.266667 0.085310 0.125425
0.333333 0.085310 0.125425
0.400000 0.085310 0.125425
0.466667 0.085310 0.125425
0.533333 0.085310 0.125425
0.600000 0.085310 0.125425
0.666667 0.085310 0.125425
0.733333 0.085310 0.125425
0.800000 0.085310 0.125425
0.866667 0.085310 0.125425
0.933333 0.085310 0.125425
1.000000 0.085310 0.125425
0.000000 0.142655 0.162713
0.066667 0.142655 0.162713
0.133333 0.142655 0.162713
0.200000 0.142655 0.162713
0.266667 0.142655 0.162713
0.333333 0.142655 0.162713
0.400000 0.142655 0.162713
0.466667 0.142655 0.162713
0.533333 0.142655 0.162713
0.600000 0.142655 0.162713
0.666667 0.142655 0.162713
0.733333 0.142655 0.162713
0.800000 0.142655 0.162713
0.866667 0.142655 0.162713
0.933333 0.142655 0.162713
1.000000 0.142655 0.162713
0.000000 0.200000 0.200000
0.066667 0.200000 0.200000
0.133333 0.200000 0.200000
0.200000 0.200000 0.200000
0.266667 0.200000 0.200000
0.333333 0.200000 0.200000
0.400000 0.200000 0.200000
0.466667 0.200000 0.200000
0.533333 0.200000 0.200000
0.600000 0.200000 0.200000
0.666667 0.200000 0.200000
0.733333 0.200000 0.200000
0.800000 0.200000 0.200000
0.866667 0.200000 0.200000
0.933333 0.200000 0.200000
1.000000 0.200000 0.200000
0.000000 0.257345 0.237287
0.066667 0.257345 0.237287
0.133333 0.257345 0.237287
0.200000 0.257345 0.237287
0.266667 0.257345 0.237287
0.333333 0.257345 0.237287
0.400000 0.257345 0.237287
0.466667 0.257345 0.237287
0.533333 0.257345 0.237287
0.600000 0.257345 0.237287
0.666667 0.257345 0.237287
0.733333 0.257345 0.237287
0.800000 0.257345 0.237287
0.866667 0.257345 0.237287
0.933333 0.257345 0.237287
1.000000 0.257345 0.237287
0.000000 0.314690 0.274575
0.066667 0.314690 0.274575
0.133333 0.314690 0.274575
0.200000 0.314690 0.274575
0.266667 0.314690 0.274575
0.333333 0.314690 0.274575
0.400000 0.314690 0.274575
0.466667 0.314690 0.274575
0.533333 0.314690 0.274575
0.600000 0.314690 0.274575
0.666667 0.314690 0.274575
0.733333 0.314690 0.274575
0.800000 0.314690 0.274575
0.866667 0.314690 0.274575
0.933333 0.314690 0.274575
1.000000 0.314690 0.274575
0.000000 0.372035 0.311862
0.066667 0.372035 0.311862
0.133333 0.372035 0.311862
0.200000 0.372035 0.311862
0.266667 0.372035 0.311862
0.333333 0.372035 0.311862
0.400000 0.372035 0.311862
0.466667 0.372035 0.311862
0.533333 0.372035 0.311862
0.600000 0.372035 0.311862
0.666667 0.372035 0.311862
0.733333 0.372035 0.311862
0.800000 0.372035 0.311862
0.866667 0.372035 0.311862
0.933333 0.372035 0.311862
1.000000 0.372035 0.311862
0.000000 0.429379 0.349149
0.066667 0.429379 0.349149
0.133333 0.429379 0.349149
0.200000 0.429379 0.349149
0.266667 0.429379 0.349149
0.333333 0.429379 0.349149
0.400000 0.429379 0.349149
0.466667 0.429379 0.349149
