tools/decompiled/apktool/res/raw/marshall.cube
LUT_3D_SIZE 16
0.025508 -0.002223 -0.004744
0.093284 0.003778 -0.004768
0.196667 0.015443 -0.004909
0.300385 0.027630 -0.005507
0.419492 0.037289 -0.007411
0.529252 0.039717 -0.010864
0.601475 0.036680 -0.014258
0.648861 0.031534 -0.017350
0.684897 0.025804 -0.020150
0.712272 0.020103 -0.022620
0.737860 0.013306 -0.025219
0.757964 0.006988 -0.027461
0.771659 0.001970 -0.028786
0.783400 -0.002985 -0.029776
0.794874 -0.007064 -0.030783
0.805186 -0.010752 -0.031397
0.042520 0.027829 -0.003351
0.080346 0.029262 -0.003422
0.140651 0.034011 -0.003505
0.207369 0.040942 -0.003663
0.283176 0.049407 -0.004064
0.367820 0.058109 -0.004974
0.450570 0.064655 -0.006496
0.526894 0.067413 -0.008819
0.589514 0.067355 -0.011505
0.639335 0.065493 -0.014307
0.682228 0.062282 -0.017396
0.713265 0.059230 -0.019901
0.741113 0.055825 -0.022364
0.765396 0.052445 -0.024783
0.782218 0.050387 -0.026161
0.796297 0.048889 -0.026552
0.062825 0.076902 -0.001392
0.105873 0.077331 -0.001520
0.158958 0.079881 -0.001682
0.217689 0.084802 -0.001905
0.285247 0.091724 -0.002327
0.361046 0.099682 -0.003114
0.439975 0.107115 -0.004452
0.512623 0.111814 -0.006458
0.579356 0.114365 -0.009120
0.629766 0.114618 -0.011745
0.674798 0.113437 -0.014744
0.710923 0.111680 -0.017541
0.738701 0.109782 -0.019833
0.765025 0.107654 -0.021990
0.786816 0.105829 -0.023205
0.802625 0.104665 -0.023471
0.088942 0.139633 -0.000018
0.136711 0.139952 -0.000127
0.186674 0.141916 -0.000294
0.241432 0.145374 -0.000562
0.303256 0.150411 -0.001010
0.374110 0.157017 -0.001816
0.448665 0.163836 -0.003156
0.517063 0.168625 -0.005026
0.584317 0.172160 -0.007596
0.634433 0.173198 -0.010065
0.678169 0.172935 -0.012814
0.717357 0.171987 -0.015758
0.746012 0.170528 -0.017599
0.771637 0.168942 -0.019141
0.796505 0.167282 -0.020791
0.813777 0.165997 -0.021538
0.117110 0.217933 0.001133
0.170353 0.217641 0.000811
0.217498 0.218341 0.000512
0.270465 0.220640 0.000188
0.328506 0.224144 -0.000065
0.396770 0.229688 -0.000704
0.467081 0.235556 -0.001922
0.532185 0.239947 -0.003730
0.596618 0.243883 -0.006335
0.648086 0.245904 -0.009064
0.690098 0.246382 -0.011585
0.730602 0.246372 -0.014456
0.760442 0.245444 -0.016633
0.785426 0.244193 -0.018461
0.809511 0.242933 -0.020192
0.830801 0.241650 -0.021497
0.153139 0.295752 0.002531
0.203792 0.296500 0.002048
0.249888 0.298226 0.001558
0.299356 0.300896 0.000996
0.356042 0.305016 0.000339
0.422982 0.311278 -0.000213
0.489984 0.317655 -0.001419
0.552151 0.322829 -0.003345
0.614156 0.327583 -0.006169
0.665975 0.330248 -0.009271
0.706514 0.330745 -0.012208
0.746227 0.330967 -0.015577
0.778441 0.330284 -0.018212
0.802678 0.328879 -0.019853
0.825961 0.327499 -0.021300
0.848664 0.326162 -0.022595
0.190220 0.369860 0.003543
0.238763 0.371620 0.002901
0.282396 0.373834 0.002254
0.327177 0.376430 0.001543
0.386092 0.381628 0.000568
0.449534 0.387940 -0.000163
0.512509 0.394276 -0.001543
0.571906 0.399753 -0.003701
0.631343 0.404906 -0.006818
0.682250 0.408415 -0.010244
0.721514 0.409728 -0.013263
0.760064 0.410896 -0.016784
0.794773 0.411419 -0.020294
0.818556 0.410562 -0.022252
0.841681 0.409743 -0.023869
0.864183 0.409184 -0.024614
0.232028 0.438708 0.005444
0.275209 0.441439 0.004581
0.313381 0.444110 0.003755
0.358622 0.448117 0.002708
0.416237 0.454533 0.001308
0.475632 0.461146 0.000103
0.534207 0.467412 -0.000969
0.591007 0.473042 -0.003209
0.648309 0.478700 -0.006591
0.697554 0.482592 -0.010310
0.735690 0.484434 -0.013367
0.773497 0.486198 -0.016759
0.809690 0.487678 -0.020319
0.833339 0.487265 -0.021543
0.856191 0.486816 -0.022513
0.878385 0.486424 -0.022846
0.273993 0.504145 0.009356
0.311009 0.506610 0.008303
0.348967 0.509764 0.007140
0.395138 0.514459 0.005623
0.447736 0.520348 0.003776
0.502859 0.526722 0.001853
0.556725 0.532910 0.000276
0.610939 0.539049 -0.000956
0.665881 0.545224 -0.003639
0.712113 0.549604 -0.006716
0.749243 0.552071 -0.009497
0.785874 0.554468 -0.012617
0.822210 0.556729 -0.016065
0.846107 0.556940 -0.017332
0.868670 0.557048 -0.018193
0.890510 0.557084 -0.018773
0.312889 0.566060 0.014651
0.352754 0.570473 0.013150
0.390149 0.574913 0.011613
0.431869 0.580195 0.009773
0.479984 0.586059 0.007535
0.530048 0.591788 0.005177
0.579961 0.597429 0.002869
0.631498 0.603274 0.000726
0.684038 0.609245 -0.000696
0.726299 0.613038 -0.002728
0.762027 0.615492 -0.004925
0.797606 0.617857 -0.007562
0.832920 0.620137 -0.010628
0.857384 0.620506 -0.012115
0.879346 0.620553 -0.013115
0.900759 0.620618 -0.013907
0.368003 0.619585 0.021924
0.401731 0.623545 0.020308
0.433967 0.627536 0.018657
0.470817 0.632240 0.016649
0.513760 0.638024 0.014135
0.558158 0.644012 0.011408
0.604305 0.650331 0.008489
0.653054 0.657078 0.005353
0.702117 0.663846 0.002376
0.739983 0.668136 0.000604
0.774605 0.671823 -0.000284
0.809152 0.675381 -0.001722
0.843745 0.678930 -0.003635
0.867894 0.680158 -0.004442
0.889753 0.680724 -0.004741
0.910919 0.681170 -0.004807
0.420272 0.673449 0.034107
0.449178 0.676959 0.032411
0.477468 0.680471 0.030657
0.510173 0.684753 0.028528
0.547225 0.689528 0.025959
0.587256 0.694889 0.023055
0.630292 0.700669 0.019811
0.676165 0.707091 0.016195
0.719472 0.712679 0.012769
0.754030 0.716579 0.010232
0.787206 0.720048 0.007956
0.820666 0.723444 0.005825
0.853957 0.726965 0.003883
0.877090 0.728459 0.003145
0.898416 0.729602 0.002738
0.919187 0.730731 0.002508
0.470788 0.724879 0.047864
0.495878 0.728534 0.046132
0.520032 0.732125 0.044374
0.547264 0.735842 0.042349
0.580375 0.740189 0.039832
0.617318 0.745036 0.036894
0.657415 0.750552 0.033560
0.700400 0.756401 0.029814
0.737471 0.760967 0.026585
0.768558 0.764198 0.023986
0.800306 0.767448 0.021401
0.832423 0.770802 0.018871
0.864745 0.774036 0.016425
0.886033 0.775264 0.015500
0.906787 0.776358 0.014837
0.927160 0.777392 0.014404
0.520004 0.765366 0.064407
0.540290 0.768171 0.062842
0.560516 0.771175 0.061218
0.584734 0.774787 0.059223
0.614691 0.779325 0.056649
0.648566 0.784703 0.053650
0.685620 0.790556 0.050266
0.723046 0.796316 0.046695
0.753620 0.800684 0.043754
0.783108 0.804650 0.040964
0.813568 0.808839 0.038113
0.844527 0.812964 0.035280
0.874313 0.816920 0.032694
0.894626 0.818322 0.031714
0.914751 0.819691 0.030987
0.934560 0.821065 0.030527
0.564094 0.804984 0.087236
0.581947 0.807549 0.085698
0.600099 0.810325 0.084107
0.621999 0.813540 0.082146
0.649261 0.817629 0.079634
0.680354 0.822475 0.076705
0.714715 0.827890 0.073404
0.743391 0.831881 0.070547
0.770131 0.835448 0.067896
0.798070 0.839261 0.065199
0.827093 0.843234 0.062491
0.856608 0.847160 0.059822
0.882924 0.850560 0.057718
0.902720 0.852414 0.056798
0.922129 0.854449 0.056192
0.941433 0.856552 0.055899
0.606307 0.844287 0.116196
0.622343 0.846626 0.114784
0.638735 0.849088 0.113333
0.658565 0.852041 0.111532
0.683570 0.855881 0.109214
0.712186 0.860227 0.106528
0.737892 0.863824 0.103980
0.761664 0.866913 0.101612
0.786968 0.870269 0.099118
0.813394 0.873705 0.096615
0.841013 0.877461 0.094102
0.869230 0.881304 0.091645
0.891780 0.883736 0.090039
0.910696 0.885560 0.089102
0.929707 0.887470 0.088484
0.948339 0.889418 0.088175
0.016462 0.001805 0.001285
0.100852 0.006983 0.000007
0.205712 0.018290 -0.000263
0.309145 0.029995 -0.000759
0.421059 0.038685 -0.001898
0.510237 0.041323 -0.003592
0.580710 0.039768 -0.005620
0.631407 0.035298 -0.007660
0.674391 0.029355 -0.009729
0.704894 0.023562 -0.011339
0.731377 0.017102 -0.012810
0.754847 0.010129 -0.014123
0.770816 0.004705 -0.014529
0.783246 0.000271 -0.014279
0.795103 -0.004368 -0.013843
0.805921 -0.008299 -0.013235
0.036061 0.026391 0.000935
0.079656 0.028003 0.000277
0.143059 0.033473 0.000066
0.210066 0.040730 -0.000022
0.285098 0.049119 -0.000190
0.368681 0.057650 -0.000583
0.450410 0.064104 -0.001336
0.525879 0.066898 -0.002590
0.588539 0.066943 -0.004112
0.637721 0.065235 -0.005668
0.681312 0.062214 -0.007339
0.712950 0.059351 -0.008528
0.740691 0.056243 -0.009344
0.766038 0.052924 -0.009928
0.784254 0.050795 -0.009945
0.798451 0.049450 -0.009594
0.055823 0.070904 0.002921
0.104208 0.072434 0.002245
0.158632 0.076078 0.001829
0.217307 0.081428 0.001467
0.284331 0.088405 0.001072
0.359194 0.096310 0.000579
0.437613 0.103763 0.000063
0.509559 0.108596 -0.000451
0.576996 0.111362 -0.001566
0.627628 0.111923 -0.002787
0.672445 0.111053 -0.004079
0.709847 0.109569 -0.005216
0.738201 0.107962 -0.005951
0.764467 0.106104 -0.006588
0.788037 0.104328 -0.007043
0.804502 0.103336 -0.006983
0.082274 0.132703 0.006443
0.133860 0.133114 0.005603
0.184168 0.135126 0.004972
0.238313 0.138558 0.004374
0.299533 0.143602 0.003697
0.369179 0.150169 0.002857
0.443159 0.157060 0.001847
0.511674 0.162144 0.000828
0.578643 0.165916 0.000017
0.630750 0.167437 -0.000567
0.674064 0.167500 -0.001454
0.714861 0.166902 -0.002530
0.744334 0.165810 -0.003281
0.769943 0.164582 -0.003886
0.794812 0.163280 -0.004466
0.814662 0.162188 -0.004728
0.111386 0.208309 0.010912
0.165356 0.208010 0.009957
0.212313 0.208761 0.009168
0.264685 0.211091 0.008334
0.321970 0.214618 0.007367
0.388812 0.220189 0.006171
0.458848 0.226569 0.004761
0.524485 0.232014 0.003247
0.588578 0.236542 0.001708
0.643148 0.239276 0.000526
0.685039 0.240075 -0.000024
0.725883 0.240416 -0.000710
0.758403 0.240012 -0.001436
0.783300 0.239137 -0.001936
0.807616 0.238275 -0.002338
0.830668 0.237420 -0.002521
0.144674 0.287989 0.015879
0.196431 0.288642 0.014801
0.242161 0.290171 0.013829
0.291963 0.292812 0.012751
0.347195 0.296633 0.011455
0.413407 0.302780 0.009799
0.480437 0.309163 0.007917
0.543179 0.314400 0.005949
0.604781 0.318941 0.003919
0.660278 0.322172 0.002133
0.700829 0.323012 0.001018
0.740484 0.323631 0.000179
0.776069 0.323697 -0.000193
0.800564 0.322728 -0.000416
0.824255 0.321865 -0.000602
0.847188 0.321016 -0.000715
0.179735 0.363951 0.021081
0.228015 0.365351 0.019928
0.272803 0.367501 0.018789
0.318393 0.369972 0.017520
0.375047 0.374610 0.015843
0.438836 0.380833 0.013789
0.502844 0.387302 0.011504
0.562608 0.392847 0.009164
0.622083 0.398165 0.006717
0.677245 0.402524 0.004450
0.716647 0.404120 0.003022
0.755463 0.405632 0.001747
0.793031 0.406781 0.000708
0.817543 0.406337 0.000389
0.840746 0.405881 0.000192
0.863387 0.405486 0.000076
0.218292 0.436127 0.027280
0.263526 0.438750 0.025944
0.302736 0.441201 0.024669
0.346909 0.444489 0.023129
0.405263 0.450016 0.020983
0.465336 0.456070 0.018536
0.525294 0.462381 0.015861
0.582467 0.468104 0.013108
0.639817 0.473695 0.010199
0.693121 0.478410 0.007464
0.731490 0.480406 0.005674
0.769225 0.482294 0.004029
0.806495 0.483926 0.002550
0.832255 0.483940 0.001955
0.855199 0.483457 0.001628
0.877517 0.483086 0.001418
0.260846 0.502250 0.033904
0.298912 0.504519 0.032517
0.336520 0.507326 0.031125
0.383279 0.511763 0.029287
0.436859 0.517456 0.026935
0.492950 0.523774 0.024218
0.548146 0.529975 0.021306
0.602671 0.536034 0.018173
0.657868 0.542149 0.014831
0.708000 0.547190 0.011743
0.745268 0.549708 0.009597
0.782097 0.552127 0.007553
0.818522 0.554446 0.005632
0.845274 0.555110 0.004786
0.867957 0.555159 0.004424
0.889972 0.555211 0.004234
0.299905 0.567543 0.043051
0.338843 0.571093 0.041402
0.377781 0.574917 0.039652
0.420812 0.579175 0.037581
0.469917 0.584358 0.034964
0.521412 0.590067 0.031999
0.572162 0.595641 0.028862
0.624112 0.601399 0.025429
0.676982 0.607329 0.021775
0.722663 0.611749 0.018613
0.758728 0.614227 0.016300
0.794571 0.616654 0.014098
0.830121 0.619019 0.012023
0.856984 0.619898 0.010959
0.879336 0.620082 0.010522
0.900930 0.620320 0.010299
0.354445 0.621597 0.054281
0.389566 0.625452 0.052589
0.422900 0.629309 0.050848
0.460774 0.633946 0.048711
0.504905 0.639631 0.046007
0.550509 0.645557 0.042994
0.597384 0.651758 0.039696
0.646655 0.658350 0.035997
0.696889 0.665172 0.032044
0.737149 0.669902 0.028860
0.772120 0.673421 0.026198
0.806858 0.676809 0.023629
0.841505 0.679675 0.021220
0.867743 0.680834 0.019910
0.889719 0.681283 0.019273
0.910999 0.681796 0.018876
0.408937 0.675123 0.066589
0.438771 0.678540 0.064890
0.467752 0.682088 0.063168
0.501348 0.686289 0.061071
0.539414 0.691075 0.058506
0.580249 0.696377 0.055569
0.623792 0.702030 0.052300
0.670178 0.708287 0.048563
0.715476 0.714262 0.044764
0.751196 0.718243 0.041777
0.784543 0.721577 0.039027
0.818192 0.724991 0.036329
0.851668 0.728368 0.033698
0.876773 0.730062 0.032213
0.898220 0.731243 0.031336
0.919079 0.732295 0.030705
0.460763 0.727982 0.081571
0.486524 0.731217 0.079880
0.511752 0.734273 0.078181
0.539705 0.737684 0.076184
0.573353 0.741778 0.073657
0.610787 0.746673 0.070705
0.651353 0.751910 0.067373
0.694924 0.757913 0.063606
0.733829 0.762536 0.060144
0.765657 0.765836 0.057299
0.797619 0.769053 0.054515
0.830013 0.772348 0.051783
0.862501 0.775575 0.049132
0.885597 0.777031 0.047767
0.906268 0.778091 0.046903
0.926789 0.779090 0.046300
0.511129 0.769455 0.103167
0.532217 0.772354 0.101529
0.552950 0.775267 0.099864
0.577709 0.778714 0.097841
0.608141 0.783270 0.095232
0.642473 0.788369 0.092208
0.680084 0.794159 0.088789
0.718963 0.800188 0.085111
0.750701 0.804428 0.081976
0.780576 0.808442 0.079069
0.811171 0.812502 0.076218
0.842270 0.816321 0.073455
0.873364 0.819984 0.070922
0.894200 0.821271 0.069849
0.914454 0.822747 0.069146
0.934470 0.824137 0.068772
0.556410 0.809549 0.129347
0.574702 0.812150 0.127875
0.593156 0.814768 0.126333
0.615453 0.817949 0.124480
0.643139 0.822011 0.122076
0.674711 0.826826 0.119274
0.709500 0.832110 0.116113
0.740152 0.836453 0.113127
0.767316 0.839924 0.110431
0.795544 0.843623 0.107712
0.824777 0.847328 0.105026
0.854562 0.851379 0.102389
0.882295 0.854796 0.100107
0.902278 0.856735 0.098978
0.921815 0.858699 0.098138
0.941320 0.860611 0.097636
0.599403 0.848339 0.157773
0.615777 0.850639 0.156427
0.632400 0.853048 0.155037
0.652616 0.856094 0.153330
0.677923 0.859683 0.151119
0.706988 0.864112 0.148543
0.734495 0.868010 0.145972
0.758587 0.871023 0.143536
0.784075 0.874316 0.141032
0.810723 0.877841 0.138514
0.838588 0.881435 0.136014
0.867020 0.885157 0.133521
0.890857 0.887902 0.131693
0.910007 0.889689 0.130562
0.929037 0.891407 0.129751
0.947867 0.893267 0.129184
-0.007639 0.008592 0.022299
0.089361 0.011157 0.012810
0.186150 0.020216 0.010419
0.276403 0.030130 0.009104
0.378726 0.039187 0.007678
0.471501 0.043949 0.006018
0.553906 0.044050 0.004193
0.610959 0.040419 0.002680
0.659458 0.034776 0.001422
0.696898 0.028485 0.000581
0.724395 0.022224 0.000126
0.750198 0.015121 -0.000088
0.771611 0.008452 -0.000313
0.784420 0.004121 -0.000304
0.796507 -0.000941 -0.000221
0.807937 -0.005110 -0.000087
0.026909 0.031130 0.015527
0.074608 0.032120 0.011672
0.138705 0.037047 0.010357
0.203916 0.043509 0.009483
0.277934 0.051394 0.008775
0.359116 0.059455 0.007966
0.441426 0.065984 0.006902
0.516809 0.069006 0.005568
0.582808 0.069418 0.004220
0.633184 0.068031 0.003122
0.677894 0.065076 0.002168
0.712342 0.062001 0.001546
0.740402 0.058900 0.001181
0.766580 0.055414 0.000946
0.787108 0.052768 0.000922
0.801677 0.051328 0.001124
0.047342 0.073975 0.018485
0.098208 0.074845 0.015770
0.153568 0.078103 0.014426
0.211274 0.082858 0.013468
0.277754 0.089394 0.012617
0.350810 0.096798 0.011690
0.429277 0.104155 0.010550
0.501541 0.109068 0.009172
0.570684 0.112010 0.007622
0.623689 0.112749 0.006317
0.668709 0.111952 0.005196
0.708785 0.110447 0.004256
0.738178 0.108831 0.003716
0.764616 0.107035 0.003355
0.789491 0.105128 0.003111
0.807635 0.103971 0.003198
0.070405 0.133232 0.024151
0.126698 0.133190 0.021884
0.177788 0.134710 0.020281
0.231227 0.137596 0.019016
0.292059 0.142282 0.017926
0.360114 0.148341 0.016759
0.433974 0.155060 0.015388
0.503356 0.160214 0.013799
0.570129 0.164008 0.012036
0.626630 0.165905 0.010386
0.670060 0.166062 0.009077
0.712162 0.165569 0.007815
0.743985 0.164591 0.007012
0.769717 0.163458 0.006531
0.794752 0.162269 0.006161
0.817346 0.161138 0.005968
0.100581 0.206666 0.031444
0.156773 0.205956 0.029446
0.204852 0.206442 0.027858
0.257036 0.208254 0.026296
0.314129 0.211637 0.024711
0.379714 0.217258 0.023113
0.449949 0.223772 0.021380
0.516576 0.229265 0.019434
0.580535 0.233746 0.017343
0.639222 0.236935 0.015255
0.681180 0.237774 0.013712
0.722253 0.238257 0.012222
0.757962 0.238107 0.011023
0.783085 0.237349 0.010447
0.807494 0.236586 0.010008
0.831077 0.235827 0.009813
0.132130 0.286640 0.039387
0.186518 0.287055 0.037644
0.232862 0.288220 0.036124
0.283801 0.290607 0.034504
0.338987 0.294058 0.032715
0.404256 0.299548 0.030684
0.471518 0.305450 0.028427
0.535319 0.310504 0.026017
0.596895 0.314979 0.023490
0.656265 0.318705 0.020893
0.696839 0.319604 0.019093
0.736676 0.320319 0.017387
0.774835 0.320707 0.015820
0.800000 0.319930 0.015178
0.823778 0.319197 0.014737
0.846836 0.318497 0.014471
0.166936 0.362925 0.047281
0.216164 0.363863 0.045695
0.262772 0.365853 0.044209
0.309693 0.368257 0.042554
0.365009 0.372218 0.040599
0.429583 0.378172 0.038266
0.494127 0.384440 0.035690
0.554989 0.389982 0.032955
0.614680 0.395272 0.030067
0.673423 0.400114 0.027039
0.713160 0.401730 0.024963
0.752031 0.403246 0.022978
0.790354 0.404595 0.021083
0.817164 0.404479 0.020119
0.840695 0.404143 0.019536
0.863334 0.403915 0.019131
0.203689 0.436617 0.056092
0.251673 0.438749 0.054441
0.292601 0.440719 0.052894
0.337104 0.443386 0.051090
0.395458 0.448394 0.048757
0.456440 0.454370 0.046106
0.517748 0.460577 0.043182
0.575386 0.466167 0.040150
0.633072 0.471728 0.036934
0.689780 0.476911 0.033583
0.728321 0.478912 0.031290
0.766342 0.480693 0.029120
0.803856 0.482205 0.027088
0.832061 0.482530 0.025942
0.855195 0.482133 0.025397
0.877500 0.481832 0.025072
0.247352 0.503181 0.065514
0.287325 0.505281 0.063974
0.325504 0.507879 0.062420
0.372633 0.511854 0.060479
0.427521 0.517391 0.058017
0.484524 0.523556 0.055195
0.541135 0.529735 0.052128
0.596195 0.535642 0.048852
0.651766 0.541646 0.045364
0.705105 0.547144 0.041827
0.742597 0.549630 0.039341
0.779721 0.551977 0.036964
0.816285 0.554128 0.034695
0.845395 0.555032 0.033250
0.868204 0.555054 0.032546
0.890239 0.555109 0.032081
0.287328 0.569204 0.075594
0.326013 0.571805 0.074037
0.366466 0.575270 0.072363
0.410800 0.579412 0.070348
0.460980 0.584485 0.067811
0.513763 0.590142 0.064898
0.565353 0.595641 0.061780
0.617931 0.601290 0.058355
0.671195 0.607085 0.054675
0.719872 0.611947 0.051179
0.756124 0.614371 0.048555
0.792124 0.616743 0.046015
0.827863 0.619060 0.043580
0.856917 0.620227 0.041925
0.879218 0.620452 0.041077
0.900922 0.620620 0.040483
0.341510 0.623777 0.087972
0.378083 0.627536 0.086132
0.412516 0.631261 0.084331
0.451378 0.635837 0.082233
0.496521 0.641387 0.079574
0.543430 0.647285 0.076580
0.590967 0.653387 0.073311
0.640760 0.659870 0.069659
0.691621 0.666619 0.065731
0.734336 0.671657 0.062274
0.769346 0.674713 0.059462
0.804363 0.677513 0.056765
0.839219 0.680197 0.054173
0.867480 0.681624 0.052415
0.889431 0.682088 0.051478
0.910792 0.682585 0.050836
0.397431 0.677932 0.103952
0.428285 0.681207 0.102143
0.458144 0.684635 0.100363
0.492585 0.688672 0.098182
0.531928 0.693481 0.095497
0.573542 0.698626 0.092470
0.617704 0.704281 0.089090
0.664542 0.710388 0.085336
0.711491 0.716427 0.081419
0.748362 0.720427 0.078194
0.782063 0.723712 0.075299
0.815824 0.727061 0.072494
0.849604 0.730354 0.069811
0.876401 0.732343 0.068049
0.897897 0.733443 0.067081
0.918979 0.734562 0.066425
0.450214 0.731601 0.123480
0.476854 0.734540 0.121783
0.503037 0.737565 0.119993
0.531979 0.740930 0.117936
0.566175 0.745079 0.115326
0.604353 0.749656 0.112300
0.645459 0.754956 0.108950
0.689557 0.760623 0.105227
0.730150 0.765551 0.101616
0.762933 0.768870 0.098581
0.795317 0.772002 0.095736
0.827883 0.775159 0.092969
0.860470 0.778336 0.090358
0.885277 0.780101 0.088806
0.906191 0.781045 0.087904
0.926736 0.782125 0.087367
0.501906 0.774046 0.146761
0.523845 0.777026 0.145191
0.545126 0.779965 0.143581
0.570310 0.783334 0.141637
0.601389 0.787843 0.139150
0.636357 0.792937 0.136240
0.674442 0.798530 0.133008
0.714334 0.804452 0.129460
0.747683 0.808971 0.126288
0.777891 0.812935 0.123362
0.808803 0.816614 0.120500
0.840087 0.820058 0.117774
0.871637 0.823454 0.115198
0.893762 0.824947 0.113774
0.914107 0.826309 0.112823
0.934110 0.827561 0.112157
0.548499 0.813891 0.172548
0.567195 0.816328 0.171117
0.586034 0.819077 0.169658
0.608747 0.822167 0.167869
0.636915 0.826172 0.165563
0.668913 0.830854 0.162895
0.704187 0.836094 0.159873
0.736373 0.840573 0.156886
0.764163 0.844189 0.154145
0.792708 0.847776 0.151414
0.822162 0.851452 0.148691
0.852274 0.855309 0.146058
0.881341 0.858980 0.143598
0.901478 0.860847 0.142261
0.921275 0.862643 0.141213
0.940701 0.864494 0.140439
0.592402 0.852344 0.200474
0.609031 0.854652 0.199185
0.625963 0.856824 0.197830
0.646449 0.859804 0.196184
0.672144 0.863583 0.194074
0.701534 0.867926 0.191608
0.730861 0.871941 0.188996
0.755171 0.875101 0.186568
0.780946 0.878280 0.184052
0.807910 0.881505 0.181472
0.835884 0.885236 0.178932
0.864677 0.888751 0.176452
0.889783 0.891647 0.174398
0.908807 0.893367 0.173077
0.928049 0.895234 0.172039
0.947012 0.896908 0.171286
-0.023811 0.015054 0.058807
0.072563 0.016133 0.040102
0.163388 0.023149 0.035902
0.250449 0.031999 0.033346
0.344235 0.040527 0.031195
0.438751 0.046528 0.028895
0.523108 0.048248 0.026299
0.593079 0.045428 0.023605
0.642940 0.040615 0.021235
0.689541 0.033600 0.019012
0.718513 0.027507 0.017501
0.745390 0.020872 0.016278
0.770617 0.013335 0.015297
0.786398 0.007872 0.014921
0.799007 0.003408 0.014908
0.811135 -0.000674 0.015200
0.014349 0.037621 0.044297
0.069345 0.038325 0.037657
0.134340 0.042542 0.034685
0.198290 0.048157 0.032599
0.271426 0.055392 0.031044
0.350240 0.062845 0.029632
0.432994 0.069316 0.028129
0.508377 0.072707 0.026387
0.577740 0.073484 0.024529
0.629953 0.072243 0.022869
0.675680 0.069296 0.021390
0.713016 0.065916 0.020226
0.741681 0.062738 0.019478
0.768249 0.059113 0.018978
0.790936 0.055887 0.018805
0.806135 0.054180 0.019123
0.036112 0.079678 0.047502
0.091802 0.080182 0.043049
0.148684 0.082952 0.040495
0.205975 0.087028 0.038473
0.272272 0.093002 0.036853
0.343836 0.099787 0.035384
0.422100 0.106848 0.033893
0.495077 0.111739 0.032177
0.564854 0.114680 0.030285
0.621540 0.115530 0.028493
0.666557 0.114729 0.026967
0.708880 0.113097 0.025573
0.739826 0.111358 0.024686
0.766182 0.109503 0.024143
0.791875 0.107462 0.023787
0.812179 0.105977 0.023834
0.055404 0.137014 0.054336
0.118527 0.136664 0.050946
0.171429 0.137847 0.048592
0.224905 0.140206 0.046520
0.285948 0.144371 0.044684
0.352919 0.149796 0.042982
0.426863 0.156167 0.041264
0.497123 0.161214 0.039363
0.563733 0.164873 0.037337
0.624440 0.166945 0.035270
0.667880 0.167035 0.033610
0.710190 0.166525 0.032055
0.745280 0.165500 0.030864
0.771128 0.164354 0.030223
0.796263 0.163155 0.029784
0.820520 0.161915 0.029549
0.087299 0.208407 0.063348
0.146928 0.207363 0.060543
0.196910 0.207607 0.058379
0.249642 0.209183 0.056344
0.307137 0.212725 0.054373
0.372004 0.217877 0.052463
0.442667 0.224103 0.050477
0.510313 0.229471 0.048310
0.574297 0.233787 0.046030
0.636726 0.237190 0.043628
0.679014 0.238020 0.041759
0.720135 0.238415 0.040012
0.758721 0.238335 0.038450
0.784300 0.237609 0.037657
0.808829 0.236826 0.037087
0.832501 0.236072 0.036739
0.117079 0.288133 0.073386
0.175300 0.288322 0.071114
0.223013 0.289176 0.069174
0.275408 0.291305 0.067201
0.331132 0.294260 0.065093
0.395869 0.298917 0.062904
0.463731 0.304471 0.060567
0.528701 0.309482 0.058054
0.590488 0.313786 0.055442
0.651897 0.317623 0.052682
0.694355 0.318701 0.050517
0.734275 0.319356 0.048540
0.773574 0.319764 0.046684
0.800621 0.319203 0.045621
0.824561 0.318451 0.044913
0.847726 0.317780 0.044435
0.151453 0.364250 0.083266
0.203209 0.364918 0.081320
0.251879 0.366694 0.079565
0.300599 0.368829 0.077650
0.355210 0.372207 0.075488
0.420944 0.377982 0.073127
0.486282 0.383980 0.070541
0.548352 0.389546 0.067763
0.608330 0.394618 0.064865
0.668063 0.399418 0.061810
0.710593 0.401406 0.059380
0.749632 0.402839 0.057181
0.788184 0.404132 0.055094
0.817602 0.404380 0.053706
0.841208 0.404024 0.052867
0.863991 0.403758 0.052257
