tools/decompiled/apktool/res/raw/marshall.cube
LUT_3D_SIZE 6
0.025508 -0.002223 -0.004744
0.300385 0.027630 -0.005507
0.601475 0.036680 -0.014258
0.712272 0.020103 -0.022620
0.771659 0.001970 -0.028786
0.805186 -0.010752 -0.031397
0.088942 0.139633 -0.000018
0.241432 0.145374 -0.000562
0.448665 0.163836 -0.003156
0.634433 0.173198 -0.010065
0.746012 0.170528 -0.017599
0.813777 0.165997 -0.021538
0.190220 0.369860 0.003543
0.327177 0.376430 0.001543
0.512509 0.394276 -0.001543
0.682250 0.408415 -0.010244
0.794773 0.411419 -0.020294
0.864183 0.409184 -0.024614
0.312889 0.566060 0.014651
0.431869 0.580195 0.009773
0.579961 0.597429 0.002869
0.726299 0.613038 -0.002728
0.832920 0.620137 -0.010628
0.900759 0.620618 -0.013907
0.470788 0.724879 0.047864
0.547264 0.735842 0.042349
0.657415 0.750552 0.033560
0.768558 0.764198 0.023986
0.864745 0.774036 0.016425
0.927160 0.777392 0.014404
0.606307 0.844287 0.116196
0.658565 0.852041 0.111532
0.737892 0.863824 0.103980
0.813394 0.873705 0.096615
0.891780 0.883736 0.090039
0.948339 0.889418 0.088175
-0.023811 0.015054 0.058807
0.250449 0.031999 0.033346
0.523108 0.048248 0.026299
0.689541 0.033600 0.019012
0.770617 0.013335 0.015297
0.811135 -0.000674 0.015200
0.055404 0.137014 0.054336
0.224905 0.140206 0.046520
0.426863 0.156167 0.041264
0.624440 0.166945 0.035270
0.745280 0.165500 0.030864
0.820520 0.161915 0.029549
0.151453 0.364250 0.083266
0.300599 0.368829 0.077650
0.486282 0.383980 0.070541
0.668063 0.399418 0.061810
0.788184 0.404132 0.055094
0.863991 0.403758 0.052257
0.271313 0.572052 0.121401
0.399155 0.581325 0.115085
0.557984 0.596947 0.105451
0.716602 0.613109 0.093975
0.825348 0.619951 0.085647
0.900964 0.621843 0.082033
0.437369 0.735783 0.176734
0.522495 0.745163 0.171369
0.638477 0.758890 0.162781
0.759593 0.772936 0.152566
0.858055 0.782122 0.144089
0.926441 0.785981 0.140031
0.583984 0.856598 0.251283
0.639063 0.864061 0.247406
0.726275 0.876555 0.240884
0.804154 0.885940 0.233668
0.888042 0.895973 0.226325
0.945675 0.901052 0.222475
-0.055850 0.018163 0.249625
0.198744 0.033706 0.194870
0.452989 0.052018 0.182258
0.652140 0.046014 0.171387
0.761851 0.026802 0.160922
0.822329 0.011165 0.154822
-0.034884 0.155384 0.242148
0.204895 0.155993 0.220221
0.411161 0.168421 0.208461
0.617044 0.178409 0.200048
0.749730 0.176564 0.191747
0.828239 0.172255 0.186285
0.054241 0.379268 0.289632
0.262054 0.381736 0.277852
0.461314 0.393426 0.266867
0.650865 0.407046 0.256297
0.782178 0.411720 0.246155
0.866505 0.411209 0.239097
0.190220 0.586210 0.342054
0.349115 0.593637 0.335165
0.528605 0.608021 0.325986
0.697651 0.623126 0.315047
0.815293 0.629838 0.304252
0.898992 0.631933 0.296388
0.380892 0.750021 0.402062
0.480939 0.758937 0.397263
0.607805 0.771723 0.389332
0.742565 0.786187 0.379189
0.844482 0.794645 0.369211
0.920323 0.798740 0.361461
0.544922 0.871684 0.474876
0.604784 0.878852 0.471127
0.699404 0.890891 0.464866
0.785721 0.900652 0.456270
0.875444 0.910749 0.447592
0.936794 0.915607 0.440627
-0.067334 0.006698 0.433117
0.178779 0.021740 0.407894
0.406601 0.041326 0.406015
0.623532 0.042411 0.406339
0.750615 0.026493 0.399422
0.824388 0.009644 0.392813
-0.089174 0.166782 0.470396
0.187229 0.166574 0.453836
0.394431 0.176532 0.448302
0.600304 0.186397 0.446081
0.741410 0.185661 0.439875
0.828194 0.181486 0.433120
-0.128241 0.390452 0.537477
0.216603 0.392070 0.529363
0.432670 0.401725 0.523314
0.628399 0.414256 0.518472
0.768928 0.419451 0.510499
0.860983 0.418794 0.502007
0.048941 0.595637 0.598746
0.287915 0.601836 0.594780
0.492647 0.615346 0.590934
0.669160 0.629449 0.585047
0.797289 0.636946 0.576369
0.888909 0.639677 0.567749
0.309996 0.758700 0.654786
0.429382 0.767148 0.652819
0.570317 0.779711 0.648803
0.718952 0.794792 0.643334
0.823767 0.802826 0.634664
0.907247 0.807657 0.626401
0.499637 0.880573 0.710274
0.564886 0.887478 0.708747
0.665074 0.899244 0.705898
0.762121 0.910228 0.699823
0.854253 0.919895 0.692752
0.922538 0.925424 0.685134
-0.065632 0.021781 0.569681
0.177007 0.028036 0.564289
0.384079 0.042489 0.574144
0.596679 0.046698 0.587402
0.735739 0.034077 0.589939
0.816744 0.020094 0.587944
-0.101809 0.181488 0.625081
0.180499 0.180442 0.619563
0.385053 0.188260 0.625078
0.587292 0.197448 0.634603
0.732638 0.197588 0.636595
0.824883 0.193659 0.634245
-0.205524 0.399938 0.705395
0.190156 0.401199 0.704155
0.414857 0.409562 0.708151
0.611684 0.421122 0.713749
0.756753 0.426600 0.713749
0.853925 0.426945 0.710091
-0.119338 0.600083 0.774003
0.247842 0.605724 0.775214
0.467482 0.618396 0.779780
0.647770 0.631923 0.782672
0.781628 0.639982 0.781457
0.878216 0.643256 0.777254
0.259563 0.761130 0.829764
0.394163 0.769323 0.831628
0.543626 0.781518 0.833762
0.698749 0.796843 0.835558
0.806333 0.804965 0.832761
0.894899 0.810571 0.828453
0.467519 0.883328 0.876110
0.536072 0.889971 0.876948
0.639655 0.901606 0.878032
0.743511 0.912994 0.877304
0.836496 0.922815 0.874483
0.909838 0.929031 0.870496
-0.064010 0.062860 0.653639
0.181593 0.062116 0.662651
0.375163 0.069140 0.684864
0.578360 0.072815 0.710499
0.722057 0.063520 0.724041
0.811540 0.051192 0.729770
-0.106444 0.209803 0.717249
0.183367 0.204876 0.722919
0.381845 0.210593 0.740478
0.578830 0.218910 0.762140
0.725864 0.219570 0.774378
0.821984 0.215821 0.779258
-0.220708 0.414376 0.806186
0.179582 0.415550 0.813033
0.406156 0.423015 0.827338
0.600850 0.433570 0.843989
0.747823 0.439074 0.853651
0.848237 0.439619 0.855984
-0.177255 0.605778 0.882807
0.229498 0.611151 0.889282
0.453326 0.623030 0.902221
0.633209 0.635948 0.914491
0.769765 0.644245 0.920948
0.869717 0.647922 0.922823
0.232580 0.762865 0.942568
0.374306 0.770658 0.948432
0.526694 0.782489 0.956800
0.681760 0.797161 0.966331
0.792914 0.805871 0.969238
0.884999 0.812083 0.970584
0.447215 0.883915 0.988274
0.517083 0.890477 0.991854
0.621589 0.901590 0.997431
0.729519 0.913674 1.002466
0.822263 0.923323 1.004486
0.899294 0.930408 1.004729
