tools/decompiled/apktool/res/raw/punch.cube
LUT_3D_SIZE 6
0.000000 0.000000 0.000000
0.228472 -0.012144 -0.012144
0.456944 -0.024288 -0.024288
0.685416 -0.036433 -0.036433
0.913887 -0.048577 -0.048577
1.142359 -0.060721 -0.060721
-0.023842 0.216774 -0.023842
0.204630 0.204630 -0.035986
0.433102 0.192486 -0.048130
0.661574 0.180342 -0.060274
0.890046 0.168198 -0.072418
1.118518 0.156053 -0.084563
-0.047683 0.433549 -0.047683
0.180789 0.421405 -0.059827
0.409260 0.409260 -0.071972
0.637732 0.397116 -0.084116
0.866204 0.384972 -0.096260
1.094676 0.372828 -0.108404
-0.071525 0.650323 -0.071525
0.156947 0.638179 -0.083669
0.385419 0.626035 -0.095813
0.613891 0.613891 -0.107957
0.842363 0.601746 -0.120102
1.070834 0.589602 -0.132246
-0.095366 0.867098 -0.095366
0.133105 0.854953 -0.107511
0.361577 0.842809 -0.119655
0.590049 0.830665 -0.131799
0.818521 0.818521 -0.143943
1.046993 0.806377 -0.156087
-0.119208 1.083872 -0.119208
0.109264 1.071728 -0.131352
0.337736 1.059584 -0.143496
0.566208 1.047440 -0.155641
0.794679 1.035295 -0.167785
1.023151 1.023151 -0.179929
-0.004630 -0.004630 0.235986
0.223842 -0.016774 0.223842
0.452313 -0.028919 0.211697
0.680785 -0.041063 0.199553
0.909257 -0.053207 0.187409
1.137729 -0.065351 0.175265
-0.028472 0.212144 0.212144
0.200000 0.200000 0.200000
0.428472 0.187856 0.187856
0.656944 0.175712 0.175712
0.885415 0.163567 0.163567
1.113887 0.151423 0.151423
-0.052313 0.428919 0.188303
0.176158 0.416774 0.176158
0.404630 0.404630 0.164014
0.633102 0.392486 0.151870
0.861574 0.380342 0.139726
1.090046 0.368198 0.127582
-0.076155 0.645693 0.164461
0.152317 0.633549 0.152317
0.380789 0.621405 0.140173
0.609260 0.609260 0.128028
0.837732 0.597116 0.115884
1.066204 0.584972 0.103740
-0.099997 0.862467 0.140619
0.128475 0.850323 0.128475
0.356947 0.838179 0.116331
0.585419 0.826035 0.104187
0.813891 0.813891 0.092043
1.042362 0.801746 0.079898
-0.123838 1.079242 0.116778
0.104634 1.067098 0.104634
0.333105 1.054953 0.092489
0.561577 1.042809 0.080345
0.790049 1.030665 0.068201
1.018521 1.018521 0.056057
-0.009260 -0.009260 0.471972
0.219211 -0.021405 0.459827
0.447683 -0.033549 0.447683
0.676155 -0.045693 0.435539
0.904627 -0.057837 0.423395
1.133099 -0.069981 0.411251
-0.033102 0.207514 0.448130
0.195370 0.195370 0.435986
0.423842 0.183226 0.423842
0.652313 0.171081 0.411697
0.880785 0.158937 0.399553
1.109257 0.146793 0.387409
-0.056944 0.424288 0.424288
0.171528 0.412144 0.412144
0.400000 0.400000 0.400000
0.628472 0.387856 0.387856
0.856944 0.375712 0.375712
1.085415 0.363567 0.363567
-0.080785 0.641063 0.400447
0.147687 0.628919 0.388303
0.376158 0.616774 0.376158
0.604630 0.604630 0.364014
0.833102 0.592486 0.351870
1.061574 0.580342 0.339726
-0.104627 0.857837 0.376605
0.123845 0.845693 0.364461
0.352317 0.833549 0.352317
0.580789 0.821405 0.340173
0.809260 0.809260 0.328028
1.037732 0.797116 0.315884
-0.128468 1.074612 0.352764
0.100003 1.062467 0.340619
0.328475 1.050323 0.328475
0.556947 1.038179 0.316331
0.785419 1.026035 0.304187
1.013891 1.013891 0.292043
-0.013891 -0.013891 0.707957
0.214581 -0.026035 0.695813
0.443053 -0.038179 0.683669
0.671525 -0.050323 0.671525
0.899997 -0.062467 0.659381
1.128469 -0.074612 0.647236
-0.037732 0.202884 0.684116
0.190740 0.190740 0.671972
0.419211 0.178595 0.659827
0.647683 0.166451 0.647683
0.876155 0.154307 0.635539
1.104627 0.142163 0.623395
-0.061574 0.419658 0.660274
0.166898 0.407514 0.648130
0.395370 0.395370 0.635986
0.623842 0.383226 0.623842
0.852313 0.371081 0.611697
1.080785 0.358937 0.599553
-0.085415 0.636433 0.636433
0.143056 0.624288 0.624288
0.371528 0.612144 0.612144
0.600000 0.600000 0.600000
0.828472 0.587856 0.587856
1.056944 0.575712 0.575712
-0.109257 0.853207 0.612591
0.119215 0.841063 0.600447
0.347687 0.828919 0.588303
0.576158 0.816774 0.576158
0.804630 0.804630 0.564014
1.033102 0.792486 0.551870
-0.133099 1.069981 0.588749
0.095373 1.057837 0.576605
0.323845 1.045693 0.564461
0.552317 1.033549 0.552317
0.780789 1.021405 0.540173
1.009260 1.009260 0.528028
-0.018521 -0.018521 0.943943
0.209951 -0.030665 0.931799
0.438423 -0.042809 0.919655
0.666895 -0.054953 0.907511
0.895366 -0.067098 0.895366
1.123838 -0.079242 0.883222
-0.042363 0.198254 0.920102
0.186109 0.186109 0.907957
0.414581 0.173965 0.895813
0.643053 0.161821 0.883669
0.871525 0.149677 0.871525
1.099997 0.137533 0.859381
-0.066204 0.415028 0.896260
0.162268 0.402884 0.884116
0.390740 0.390740 0.871972
0.619211 0.378595 0.859827
0.847683 0.366451 0.847683
1.076155 0.354307 0.835539
-0.090046 0.631802 0.872418
0.138426 0.619658 0.860274
0.366898 0.607514 0.848130
0.595370 0.595370 0.835986
0.823842 0.583226 0.823842
1.052313 0.571081 0.811697
-0.113887 0.848577 0.848577
0.114585 0.836433 0.836433
0.343056 0.824288 0.824288
0.571528 0.812144 0.812144
0.800000 0.800000 0.800000
1.028472 0.787856 0.787856
-0.137729 1.065351 0.824735
0.090743 1.053207 0.812591
0.319215 1.041063 0.800447
0.547687 1.028919 0.788303
0.776158 1.016774 0.776158
1.004630 1.004630 0.764014
-0.023151 -0.023151 1.179929
0.205321 -0.035295 1.167785
0.433793 -0.047439 1.155640
0.662264 -0.059584 1.143496
0.890736 -0.071728 1.131352
1.119208 -0.083872 1.119208
-0.046993 0.193623 1.156087
0.181479 0.181479 1.143943
0.409951 0.169335 1.131799
0.638423 0.157191 1.119655
0.866895 0.145047 1.107511
1.095366 0.132902 1.095366
-0.070834 0.410398 1.132246
0.157638 0.398254 1.120102
0.386109 0.386109 1.107957
0.614581 0.373965 1.095813
0.843053 0.361821 1.083669
1.071525 0.349677 1.071525
-0.094676 0.627172 1.108404
0.133796 0.615028 1.096260
0.362268 0.602884 1.084116
0.590740 0.590740 1.071972
0.819211 0.578595 1.059827
1.047683 0.566451 1.047683
-0.118518 0.843947 1.084563
0.109954 0.831802 1.072418
0.338426 0.819658 1.060274
0.566898 0.807514 1.048130
0.795370 0.795370 1.035986
1.023842 0.783226 1.023842
-0.142359 1.060721 1.060721
0.086113 1.048577 1.048577
0.314585 1.036433 1.036433
0.543056 1.024288 1.024288
0.771528 1.012144 1.012144
1.000000 1.000000 1.000000
