tools/decompiled/apktool/res/raw/punch.cube
LUT_3D_SIZE 16
0.000000 0.000000 0.000000
0.076157 -0.004048 -0.004048
0.152315 -0.008096 -0.008096
0.228472 -0.012144 -0.012144
0.304629 -0.016192 -0.016192
0.380786 -0.020240 -0.020240
0.456944 -0.024288 -0.024288
0.533101 -0.028336 -0.028336
0.609258 -0.032384 -0.032384
0.685416 -0.036433 -0.036433
0.761573 -0.040481 -0.040481
0.837730 -0.044529 -0.044529
0.913887 -0.048577 -0.048577
0.990045 -0.052625 -0.052625
1.066202 -0.056673 -0.056673
1.142359 -0.060721 -0.060721
-0.007947 0.072258 -0.007947
0.068210 0.068210 -0.011995
0.144367 0.064162 -0.016043
0.220525 0.060114 -0.020091
0.296682 0.056066 -0.024139
0.372839 0.052018 -0.028188
0.448996 0.047970 -0.032236
0.525154 0.043922 -0.036284
0.601311 0.039874 -0.040332
0.677468 0.035826 -0.044380
0.753626 0.031778 -0.048428
0.829783 0.027729 -0.052476
0.905940 0.023681 -0.056524
0.982097 0.019633 -0.060572
1.058255 0.015585 -0.064620
1.134412 0.011537 -0.068668
-0.015894 0.144516 -0.015894
0.060263 0.140468 -0.019942
0.136420 0.136420 -0.023991
0.212577 0.132372 -0.028039
0.288735 0.128324 -0.032087
0.364892 0.124276 -0.036135
0.441049 0.120228 -0.040183
0.517207 0.116180 -0.044231
0.593364 0.112132 -0.048279
0.669521 0.108084 -0.052327
0.745678 0.104036 -0.056375
0.821836 0.099988 -0.060423
0.897993 0.095940 -0.064471
0.974150 0.091891 -0.068519
1.050307 0.087843 -0.072567
1.126465 0.083795 -0.076615
-0.023842 0.216774 -0.023842
0.052316 0.212726 -0.027890
0.128473 0.208678 -0.031938
0.204630 0.204630 -0.035986
0.280788 0.200582 -0.040034
0.356945 0.196534 -0.044082
0.433102 0.192486 -0.048130
0.509259 0.188438 -0.052178
0.585417 0.184390 -0.056226
0.661574 0.180342 -0.060274
0.737731 0.176294 -0.064322
0.813888 0.172246 -0.068370
0.890046 0.168198 -0.072418
0.966203 0.164150 -0.076466
1.042360 0.160102 -0.080514
1.118518 0.156053 -0.084563
-0.031789 0.289033 -0.031789
0.044368 0.284984 -0.035837
0.120526 0.280936 -0.039885
0.196683 0.276888 -0.043933
0.272840 0.272840 -0.047981
0.348998 0.268792 -0.052029
0.425155 0.264744 -0.056077
0.501312 0.260696 -0.060125
0.577469 0.256648 -0.064173
0.653627 0.252600 -0.068221
0.729784 0.248552 -0.072269
0.805941 0.244504 -0.076317
0.882098 0.240456 -0.080366
0.958256 0.236408 -0.084414
1.034413 0.232360 -0.088462
1.110570 0.228312 -0.092510
-0.039736 0.361291 -0.039736
0.036421 0.357243 -0.043784
0.112579 0.353195 -0.047832
0.188736 0.349147 -0.051880
0.264893 0.345098 -0.055928
0.341050 0.341050 -0.059976
0.417208 0.337002 -0.064024
0.493365 0.332954 -0.068072
0.569522 0.328906 -0.072120
0.645679 0.324858 -0.076169
0.721837 0.320810 -0.080217
0.797994 0.316762 -0.084265
0.874151 0.312714 -0.088313
0.950309 0.308666 -0.092361
1.026466 0.304618 -0.096409
1.102623 0.300570 -0.100457
-0.047683 0.433549 -0.047683
0.028474 0.429501 -0.051731
0.104631 0.425453 -0.055779
0.180789 0.421405 -0.059827
0.256946 0.417357 -0.063875
0.333103 0.413309 -0.067924
0.409260 0.409260 -0.071972
0.485418 0.405212 -0.076020
0.561575 0.401164 -0.080068
0.637732 0.397116 -0.084116
0.713890 0.393068 -0.088164
0.790047 0.389020 -0.092212
0.866204 0.384972 -0.096260
0.942361 0.380924 -0.100308
1.018519 0.376876 -0.104356
1.094676 0.372828 -0.108404
-0.055630 0.505807 -0.055630
0.020527 0.501759 -0.059678
0.096684 0.497711 -0.063727
0.172841 0.493663 -0.067775
0.248999 0.489615 -0.071823
0.325156 0.485567 -0.075871
0.401313 0.481519 -0.079919
0.477471 0.477471 -0.083967
0.553628 0.473422 -0.088015
0.629785 0.469374 -0.092063
0.705942 0.465326 -0.096111
0.782100 0.461278 -0.100159
0.858257 0.457230 -0.104207
0.934414 0.453182 -0.108255
1.010571 0.449134 -0.112303
1.086729 0.445086 -0.116351
-0.063578 0.578065 -0.063578
0.012580 0.574017 -0.067626
0.088737 0.569969 -0.071674
0.164894 0.565921 -0.075722
0.241052 0.561873 -0.079770
0.317209 0.557825 -0.083818
0.393366 0.553777 -0.087866
0.469523 0.549729 -0.091914
0.545681 0.545681 -0.095962
0.621838 0.541633 -0.100010
0.697995 0.537584 -0.104058
0.774152 0.533536 -0.108106
0.850310 0.529488 -0.112154
0.926467 0.525440 -0.116202
1.002624 0.521392 -0.120250
1.078781 0.517344 -0.124299
-0.071525 0.650323 -0.071525
0.004632 0.646275 -0.075573
0.080790 0.642227 -0.079621
0.156947 0.638179 -0.083669
0.233104 0.634131 -0.087717
0.309262 0.630083 -0.091765
0.385419 0.626035 -0.095813
0.461576 0.621987 -0.099861
0.537733 0.617939 -0.103909
0.613891 0.613891 -0.107957
0.690048 0.609843 -0.112005
0.766205 0.605795 -0.116053
0.842363 0.601746 -0.120102
0.918520 0.597698 -0.124150
0.994677 0.593650 -0.128198
1.070834 0.589602 -0.132246
-0.079472 0.722581 -0.079472
-0.003315 0.718533 -0.083520
0.072843 0.714485 -0.087568
0.149000 0.710437 -0.091616
0.225157 0.706389 -0.095664
0.301314 0.702341 -0.099712
0.377472 0.698293 -0.103760
0.453629 0.694245 -0.107808
0.529786 0.690197 -0.111857
0.605944 0.686149 -0.115905
0.682101 0.682101 -0.119953
0.758258 0.678053 -0.124001
0.834415 0.674005 -0.128049
0.910573 0.669957 -0.132097
0.986730 0.665909 -0.136145
1.062887 0.661860 -0.140193
-0.087419 0.794840 -0.087419
-0.011262 0.790791 -0.091467
0.064895 0.786743 -0.095515
0.141053 0.782695 -0.099563
0.217210 0.778647 -0.103611
0.293367 0.774599 -0.107660
0.369524 0.770551 -0.111708
0.445682 0.766503 -0.115756
0.521839 0.762455 -0.119804
0.597996 0.758407 -0.123852
0.674154 0.754359 -0.127900
0.750311 0.750311 -0.131948
0.826468 0.746263 -0.135996
0.902625 0.742215 -0.140044
0.978783 0.738167 -0.144092
1.054940 0.734119 -0.148140
-0.095366 0.867098 -0.095366
-0.019209 0.863050 -0.099414
0.056948 0.859002 -0.103463
0.133105 0.854953 -0.107511
0.209263 0.850905 -0.111559
0.285420 0.846857 -0.115607
0.361577 0.842809 -0.119655
0.437735 0.838761 -0.123703
0.513892 0.834713 -0.127751
0.590049 0.830665 -0.131799
0.666206 0.826617 -0.135847
0.742364 0.822569 -0.139895
0.818521 0.818521 -0.143943
0.894678 0.814473 -0.147991
0.970835 0.810425 -0.152039
1.046993 0.806377 -0.156087
-0.103314 0.939356 -0.103314
-0.027156 0.935308 -0.107362
0.049001 0.931260 -0.111410
0.125158 0.927212 -0.115458
0.201316 0.923164 -0.119506
0.277473 0.919115 -0.123554
0.353630 0.915067 -0.127602
0.429787 0.911019 -0.131650
0.505945 0.906971 -0.135698
0.582102 0.902923 -0.139746
0.658259 0.898875 -0.143794
0.734416 0.894827 -0.147842
0.810574 0.890779 -0.151890
0.886731 0.886731 -0.155938
0.962888 0.882683 -0.159986
1.039046 0.878635 -0.164035
-0.111261 1.011614 -0.111261
-0.035104 1.007566 -0.115309
0.041054 1.003518 -0.119357
0.117211 0.999470 -0.123405
0.193368 0.995422 -0.127453
0.269526 0.991374 -0.131501
0.345683 0.987326 -0.135549
0.421840 0.983277 -0.139597
0.497997 0.979229 -0.143645
0.574155 0.975181 -0.147693
0.650312 0.971133 -0.151741
0.726469 0.967085 -0.155789
0.802626 0.963037 -0.159838
0.878784 0.958989 -0.163886
0.954941 0.954941 -0.167934
1.031098 0.950893 -0.171982
-0.119208 1.083872 -0.119208
-0.043051 1.079824 -0.123256
0.033107 1.075776 -0.127304
0.109264 1.071728 -0.131352
0.185421 1.067680 -0.135400
0.261578 1.063632 -0.139448
0.337736 1.059584 -0.143496
0.413893 1.055536 -0.147544
0.490050 1.051488 -0.151592
0.566208 1.047440 -0.155641
0.642365 1.043391 -0.159689
0.718522 1.039343 -0.163737
0.794679 1.035295 -0.167785
0.870837 1.031247 -0.171833
0.946994 1.027199 -0.175881
1.023151 1.023151 -0.179929
-0.001543 -0.001543 0.078662
0.074614 -0.005591 0.074614
0.150771 -0.009640 0.070566
0.226928 -0.013688 0.066518
0.303086 -0.017736 0.062470
0.379243 -0.021784 0.058422
0.455400 -0.025832 0.054374
0.531558 -0.029880 0.050325
0.607715 -0.033928 0.046277
0.683872 -0.037976 0.042229
0.760029 -0.042024 0.038181
0.836187 -0.046072 0.034133
0.912344 -0.050120 0.030085
0.988501 -0.054168 0.026037
1.064658 -0.058216 0.021989
1.140816 -0.062264 0.017941
-0.009491 0.070715 0.070715
0.066667 0.066667 0.066667
0.142824 0.062619 0.062619
0.218981 0.058571 0.058571
0.295139 0.054522 0.054522
0.371296 0.050474 0.050474
0.447453 0.046426 0.046426
0.523610 0.042378 0.042378
0.599768 0.038330 0.038330
0.675925 0.034282 0.034282
0.752082 0.030234 0.030234
0.828239 0.026186 0.026186
0.904397 0.022138 0.022138
0.980554 0.018090 0.018090
1.056711 0.014042 0.014042
1.132869 0.009994 0.009994
-0.017438 0.142973 0.062768
0.058719 0.138925 0.058719
0.134877 0.134877 0.054671
0.211034 0.130829 0.050623
0.287191 0.126781 0.046575
0.363349 0.122733 0.042527
0.439506 0.118685 0.038479
0.515663 0.114636 0.034431
0.591820 0.110588 0.030383
0.667978 0.106540 0.026335
0.744135 0.102492 0.022287
0.820292 0.098444 0.018239
0.896450 0.094396 0.014191
0.972607 0.090348 0.010143
1.048764 0.086300 0.006095
1.124921 0.082252 0.002047
-0.025385 0.215231 0.054820
0.050772 0.211183 0.050772
0.126930 0.207135 0.046724
0.203087 0.203087 0.042676
0.279244 0.199039 0.038628
0.355401 0.194991 0.034580
0.431559 0.190943 0.030532
0.507716 0.186895 0.026484
0.583873 0.182847 0.022436
0.660030 0.178798 0.018388
0.736188 0.174750 0.014340
0.812345 0.170702 0.010292
0.888502 0.166654 0.006244
0.964660 0.162606 0.002196
1.040817 0.158558 -0.001853
1.116974 0.154510 -0.005901
-0.033332 0.287489 0.046873
0.042825 0.283441 0.042825
0.118982 0.279393 0.038777
0.195140 0.275345 0.034729
0.271297 0.271297 0.030681
0.347454 0.267249 0.026633
0.423611 0.263201 0.022585
0.499769 0.259153 0.018537
0.575926 0.255105 0.014489
0.652083 0.251057 0.010441
0.728241 0.247009 0.006393
0.804398 0.242960 0.002344
0.880555 0.238912 -0.001704
0.956712 0.234864 -0.005752
1.032870 0.230816 -0.009800
1.109027 0.226768 -0.013848
-0.041279 0.359747 0.038926
0.034878 0.355699 0.034878
0.111035 0.351651 0.030830
0.187192 0.347603 0.026782
0.263350 0.343555 0.022734
0.339507 0.339507 0.018686
0.415664 0.335459 0.014638
0.491822 0.331411 0.010589
0.567979 0.327363 0.006541
0.644136 0.323315 0.002493
0.720293 0.319267 -0.001555
0.796451 0.315219 -0.005603
0.872608 0.311171 -0.009651
0.948765 0.307122 -0.013699
1.024922 0.303074 -0.017747
1.101080 0.299026 -0.021795
-0.049227 0.432005 0.030979
0.026931 0.427957 0.026931
0.103088 0.423909 0.022883
0.179245 0.419861 0.018835
0.255403 0.415813 0.014786
0.331560 0.411765 0.010738
0.407717 0.407717 0.006690
0.483874 0.403669 0.002642
0.560032 0.399621 -0.001406
0.636189 0.395573 -0.005454
0.712346 0.391525 -0.009502
0.788503 0.387477 -0.013550
0.864661 0.383429 -0.017598
0.940818 0.379381 -0.021646
1.016975 0.375333 -0.025694
1.093132 0.371284 -0.029742
-0.057174 0.504264 0.023032
0.018983 0.500215 0.018983
0.095141 0.496167 0.014935
0.171298 0.492119 0.010887
0.247455 0.488071 0.006839
0.323613 0.484023 0.002791
0.399770 0.479975 -0.001257
0.475927 0.475927 -0.005305
0.552084 0.471879 -0.009353
0.628242 0.467831 -0.013401
0.704399 0.463783 -0.017449
0.780556 0.459735 -0.021497
0.856714 0.455687 -0.025545
0.932871 0.451639 -0.029593
1.009028 0.447591 -0.033641
1.085185 0.443543 -0.037689
-0.065121 0.576522 0.015084
0.011036 0.572474 0.011036
0.087194 0.568426 0.006988
0.163351 0.564378 0.002940
0.239508 0.560329 -0.001108
0.315665 0.556281 -0.005156
0.391823 0.552233 -0.009204
0.467980 0.548185 -0.013252
0.544137 0.544137 -0.017300
0.620295 0.540089 -0.021348
0.696452 0.536041 -0.025396
0.772609 0.531993 -0.029444
0.848766 0.527945 -0.033492
0.924924 0.523897 -0.037540
1.001081 0.519849 -0.041589
1.077238 0.515801 -0.045637
-0.073068 0.648780 0.007137
0.003089 0.644732 0.003089
0.079246 0.640684 -0.000959
0.155404 0.636636 -0.005007
0.231561 0.632588 -0.009055
0.307718 0.628540 -0.013103
0.383875 0.624491 -0.017151
0.460033 0.620443 -0.021199
0.536190 0.616395 -0.025247
0.612347 0.612347 -0.029295
0.688505 0.608299 -0.033343
0.764662 0.604251 -0.037392
0.840819 0.600203 -0.041440
0.916976 0.596155 -0.045488
0.993134 0.592107 -0.049536
1.069291 0.588059 -0.053584
-0.081015 0.721038 -0.000810
-0.004858 0.716990 -0.004858
0.071299 0.712942 -0.008906
0.147456 0.708894 -0.012954
0.223614 0.704846 -0.017002
0.299771 0.700798 -0.021050
0.375928 0.696750 -0.025098
0.452086 0.692702 -0.029146
0.528243 0.688653 -0.033195
0.604400 0.684605 -0.037243
0.680557 0.680557 -0.041291
0.756715 0.676509 -0.045339
0.832872 0.672461 -0.049387
0.909029 0.668413 -0.053435
0.985186 0.664365 -0.057483
1.061344 0.660317 -0.061531
-0.088963 0.793296 -0.008757
-0.012805 0.789248 -0.012805
0.063352 0.785200 -0.016853
0.139509 0.781152 -0.020901
0.215667 0.777104 -0.024950
0.291824 0.773056 -0.028998
0.367981 0.769008 -0.033046
0.444138 0.764960 -0.037094
0.520296 0.760912 -0.041142
0.596453 0.756864 -0.045190
0.672610 0.752815 -0.049238
0.748767 0.748767 -0.053286
0.824925 0.744719 -0.057334
0.901082 0.740671 -0.061382
0.977239 0.736623 -0.065430
1.053396 0.732575 -0.069478
-0.096910 0.865554 -0.016704
-0.020753 0.861506 -0.020753
0.055405 0.857458 -0.024801
0.131562 0.853410 -0.028849
0.207719 0.849362 -0.032897
0.283877 0.845314 -0.036945
0.360034 0.841266 -0.040993
0.436191 0.837218 -0.045041
0.512348 0.833170 -0.049089
0.588506 0.829122 -0.053137
0.664663 0.825074 -0.057185
0.740820 0.821026 -0.061233
0.816978 0.816978 -0.065281
0.893135 0.812929 -0.069329
0.969292 0.808881 -0.073377
1.045449 0.804833 -0.077425
-0.104857 0.937812 -0.024652
-0.028700 0.933764 -0.028700
0.047458 0.929716 -0.032748
0.123615 0.925668 -0.036796
0.199772 0.921620 -0.040844
0.275929 0.917572 -0.044892
0.352087 0.913524 -0.048940
0.428244 0.909476 -0.052988
0.504401 0.905428 -0.057036
0.580558 0.901380 -0.061084
0.656716 0.897332 -0.065132
0.732873 0.893284 -0.069180
0.809030 0.889236 -0.073228
0.885188 0.885188 -0.077276
0.961345 0.881140 -0.081325
1.037502 0.877091 -0.085373
-0.112804 1.010071 -0.032599
-0.036647 1.006022 -0.036647
0.039510 1.001974 -0.040695
0.115668 0.997926 -0.044743
0.191825 0.993878 -0.048791
0.267982 0.989830 -0.052839
0.344139 0.985782 -0.056887
0.420297 0.981734 -0.060935
0.496454 0.977686 -0.064983
0.572611 0.973638 -0.069031
0.648769 0.969590 -0.073080
0.724926 0.965542 -0.077128
0.801083 0.961494 -0.081176
0.877240 0.957446 -0.085224
0.953398 0.953398 -0.089272
1.029555 0.949350 -0.093320
-0.120751 1.082329 -0.040546
-0.044594 1.078281 -0.044594
0.031563 1.074233 -0.048642
0.107720 1.070184 -0.052690
0.183878 1.066136 -0.056738
0.260035 1.062088 -0.060786
0.336192 1.058040 -0.064834
0.412350 1.053992 -0.068883
0.488507 1.049944 -0.072931
0.564664 1.045896 -0.076979
0.640821 1.041848 -0.081027
0.716979 1.037800 -0.085075
0.793136 1.033752 -0.089123
0.869293 1.029704 -0.093171
0.945450 1.025656 -0.097219
1.021608 1.021608 -0.101267
-0.003087 -0.003087 0.157324
0.073070 -0.007135 0.153276
0.149228 -0.011183 0.149228
0.225385 -0.015231 0.145180
0.301542 -0.019279 0.141132
0.377700 -0.023327 0.137084
0.453857 -0.027375 0.133035
0.530014 -0.031423 0.128987
0.606171 -0.035471 0.124939
0.682329 -0.039519 0.120891
0.758486 -0.043567 0.116843
0.834643 -0.047615 0.112795
0.910801 -0.051664 0.108747
0.986958 -0.055712 0.104699
1.063115 -0.059760 0.100651
1.139272 -0.063808 0.096603
-0.011034 0.069171 0.149377
0.065123 0.065123 0.145329
0.141281 0.061075 0.141281
0.217438 0.057027 0.137232
0.293595 0.052979 0.133184
0.369752 0.048931 0.129136
0.445910 0.044883 0.125088
0.522067 0.040835 0.121040
0.598224 0.036787 0.116992
0.674381 0.032739 0.112944
0.750539 0.028691 0.108896
0.826696 0.024643 0.104848
0.902853 0.020595 0.100800
0.979011 0.016547 0.096752
1.055168 0.012498 0.092704
1.131325 0.008450 0.088656
-0.018981 0.141429 0.141429
0.057176 0.137381 0.137381
0.133333 0.133333 0.133333
0.209491 0.129285 0.129285
0.285648 0.125237 0.125237
0.361805 0.121189 0.121189
0.437962 0.117141 0.117141
0.514120 0.113093 0.113093
0.590277 0.109045 0.109045
0.666434 0.104997 0.104997
0.742592 0.100949 0.100949
0.818749 0.096901 0.096901
0.894906 0.092853 0.092853
0.971063 0.088805 0.088805
1.047221 0.084757 0.084757
1.123378 0.080709 0.080709
-0.026928 0.213688 0.133482
0.049229 0.209640 0.129434
0.125386 0.205591 0.125386
0.201543 0.201543 0.121338
0.277701 0.197495 0.117290
0.353858 0.193447 0.113242
0.430015 0.189399 0.109194
0.506173 0.185351 0.105146
0.582330 0.181303 0.101098
0.658487 0.177255 0.097050
0.734644 0.173207 0.093002
0.810802 0.169159 0.088954
0.886959 0.165111 0.084906
0.963116 0.161063 0.080857
1.039273 0.157015 0.076809
1.115431 0.152967 0.072761
-0.034876 0.285946 0.125535
0.041282 0.281898 0.121487
0.117439 0.277850 0.117439
0.193596 0.273802 0.113391
0.269754 0.269754 0.109343
0.345911 0.265705 0.105295
0.422068 0.261657 0.101247
0.498225 0.257609 0.097199
0.574383 0.253561 0.093151
0.650540 0.249513 0.089103
0.726697 0.245465 0.085054
0.802854 0.241417 0.081006
0.879012 0.237369 0.076958
0.955169 0.233321 0.072910
1.031326 0.229273 0.068862
1.107484 0.225225 0.064814
-0.042823 0.358204 0.117588
0.033334 0.354156 0.113540
0.109492 0.350108 0.109492
0.185649 0.346060 0.105444
0.261806 0.342012 0.101396
0.337964 0.337964 0.097348
0.414121 0.333916 0.093299
0.490278 0.329867 0.089251
0.566435 0.325819 0.085203
0.642593 0.321771 0.081155
0.718750 0.317723 0.077107
0.794907 0.313675 0.073059
0.871064 0.309627 0.069011
0.947222 0.305579 0.064963
1.023379 0.301531 0.060915
1.099536 0.297483 0.056867
-0.050770 0.430462 0.109641
0.025387 0.426414 0.105593
0.101545 0.422366 0.101545
0.177702 0.418318 0.097496
0.253859 0.414270 0.093448
0.330016 0.410222 0.089400
0.406174 0.406174 0.085352
0.482331 0.402126 0.081304
0.558488 0.398078 0.077256
0.634645 0.394029 0.073208
0.710803 0.389981 0.069160
0.786960 0.385933 0.065112
0.863117 0.381885 0.061064
0.939275 0.377837 0.057016
1.015432 0.373789 0.052968
1.091589 0.369741 0.048920
-0.058717 0.502720 0.101693
0.017440 0.498672 0.097645
0.093597 0.494624 0.093597
0.169755 0.490576 0.089549
0.245912 0.486528 0.085501
0.322069 0.482480 0.081453
0.398226 0.478432 0.077405
0.474384 0.474384 0.073357
0.550541 0.470336 0.069309
0.626698 0.466288 0.065261
0.702856 0.462240 0.061213
0.779013 0.458191 0.057165
0.855170 0.454143 0.053117
0.931327 0.450095 0.049069
1.007485 0.446047 0.045021
1.083642 0.441999 0.040973
-0.066664 0.574978 0.093746
0.009493 0.570930 0.089698
0.085650 0.566882 0.085650
0.161807 0.562834 0.081602
0.237965 0.558786 0.077554
0.314122 0.554738 0.073506
0.390279 0.550690 0.069458
0.466437 0.546642 0.065410
0.542594 0.542594 0.061362
0.618751 0.538546 0.057314
0.694908 0.534498 0.053266
0.771066 0.530450 0.049218
0.847223 0.526402 0.045169
0.923380 0.522353 0.041121
0.999537 0.518305 0.037073
1.075695 0.514257 0.033025
-0.074612 0.647236 0.085799
0.001546 0.643188 0.081751
0.077703 0.639140 0.077703
0.153860 0.635092 0.073655
0.230017 0.631044 0.069607
0.306175 0.626996 0.065559
0.382332 0.622948 0.061511
0.458489 0.618900 0.057463
0.534647 0.614852 0.053415
0.610804 0.610804 0.049366
0.686961 0.606756 0.045318
0.763118 0.602708 0.041270
0.839276 0.598660 0.037222
0.915433 0.594612 0.033174
0.991590 0.590564 0.029126
1.067747 0.586515 0.025078
-0.082559 0.719495 0.077852
-0.006402 0.715447 0.073804
0.069756 0.711398 0.069756
0.145913 0.707350 0.065708
0.222070 0.703302 0.061660
0.298228 0.699254 0.057612
0.374385 0.695206 0.053563
0.450542 0.691158 0.049515
0.526699 0.687110 0.045467
0.602857 0.683062 0.041419
0.679014 0.679014 0.037371
0.755171 0.674966 0.033323
0.831329 0.670918 0.029275
0.907486 0.666870 0.025227
0.983643 0.662822 0.021179
1.059800 0.658774 0.017131
-0.090506 0.791753 0.069905
-0.014349 0.787705 0.065857
0.061809 0.783657 0.061809
0.137966 0.779608 0.057760
0.214123 0.775560 0.053712
0.290280 0.771512 0.049664
0.366438 0.767464 0.045616
0.442595 0.763416 0.041568
0.518752 0.759368 0.037520
0.594909 0.755320 0.033472
0.671067 0.751272 0.029424
0.747224 0.747224 0.025376
0.823381 0.743176 0.021328
0.899539 0.739128 0.017280
0.975696 0.735080 0.013232
1.051853 0.731032 0.009184
-0.098453 0.864011 0.061957
-0.022296 0.859963 0.057909
0.053861 0.855915 0.053861
0.130019 0.851867 0.049813
0.206176 0.847819 0.045765
0.282333 0.843771 0.041717
0.358490 0.839722 0.037669
0.434648 0.835674 0.033621
0.510805 0.831626 0.029573
0.586962 0.827578 0.025525
0.663120 0.823530 0.021477
0.739277 0.819482 0.017429
0.815434 0.815434 0.013381
0.891591 0.811386 0.009333
0.967749 0.807338 0.005285
1.043906 0.803290 0.001236
-0.106400 0.936269 0.054010
-0.030243 0.932221 0.049962
0.045914 0.928173 0.045914
0.122071 0.924125 0.041866
0.198229 0.920077 0.037818
0.274386 0.916029 0.033770
0.350543 0.911981 0.029722
0.426701 0.907933 0.025674
0.502858 0.903884 0.021626
0.579015 0.899836 0.017578
0.655172 0.895788 0.013530
0.731330 0.891740 0.009482
0.807487 0.887692 0.005433
0.883644 0.883644 0.001385
0.959801 0.879596 -0.002663
1.035959 0.875548 -0.006711
-0.114348 1.008527 0.046063
-0.038190 1.004479 0.042015
0.037967 1.000431 0.037967
0.114124 0.996383 0.033919
0.190282 0.992335 0.029871
0.266439 0.988287 0.025823
0.342596 0.984239 0.021775
0.418753 0.980191 0.017727
0.494911 0.976143 0.013679
0.571068 0.972095 0.009631
0.647225 0.968046 0.005582
0.723382 0.963998 0.001534
0.799540 0.959950 -0.002514
0.875697 0.955902 -0.006562
0.951854 0.951854 -0.010610
1.028011 0.947806 -0.014658
-0.122295 1.080785 0.038116
-0.046138 1.076737 0.034068
0.030020 1.072689 0.030020
0.106177 1.068641 0.025972
0.182334 1.064593 0.021924
0.258492 1.060545 0.017876
0.334649 1.056497 0.013828
0.410806 1.052449 0.009779
0.486963 1.048401 0.005731
0.563121 1.044353 0.001683
0.639278 1.040305 -0.002365
0.715435 1.036257 -0.006413
0.791592 1.032208 -0.010461
0.867750 1.028160 -0.014509
0.943907 1.024112 -0.018557
1.020064 1.020064 -0.022605
-0.004630 -0.004630 0.235986
0.071527 -0.008678 0.231938
0.147684 -0.012726 0.227890
0.223842 -0.016774 0.223842
0.299999 -0.020822 0.219794
0.376156 -0.024871 0.215745
0.452313 -0.028919 0.211697
0.528471 -0.032967 0.207649
0.604628 -0.037015 0.203601
0.680785 -0.041063 0.199553
0.756943 -0.045111 0.195505
0.833100 -0.049159 0.191457
0.909257 -0.053207 0.187409
0.985414 -0.057255 0.183361
1.061572 -0.061303 0.179313
1.137729 -0.065351 0.175265
-0.012577 0.067628 0.228039
0.063580 0.063580 0.223991
0.139737 0.059532 0.219942
0.215894 0.055484 0.215894
0.292052 0.051436 0.211846
0.368209 0.047388 0.207798
0.444366 0.043340 0.203750
0.520524 0.039291 0.199702
0.596681 0.035243 0.195654
0.672838 0.031195 0.191606
0.748995 0.027147 0.187558
0.825153 0.023099 0.183510
0.901310 0.019051 0.179462
0.977467 0.015003 0.175414
1.053624 0.010955 0.171366
1.129782 0.006907 0.167318
-0.020525 0.139886 0.220091
0.055633 0.135838 0.216043
0.131790 0.131790 0.211995
0.207947 0.127742 0.207947
0.284104 0.123694 0.203899
0.360262 0.119646 0.199851
0.436419 0.115598 0.195803
0.512576 0.111550 0.191755
0.588734 0.107502 0.187707
0.664891 0.103453 0.183659
0.741048 0.099405 0.179611
0.817205 0.095357 0.175563
0.893363 0.091309 0.171515
0.969520 0.087261 0.167467
1.045677 0.083213 0.163419
1.121835 0.079165 0.159370
-0.028472 0.212144 0.212144
0.047685 0.208096 0.208096
0.123843 0.204048 0.204048
0.200000 0.200000 0.200000
0.276157 0.195952 0.195952
0.352315 0.191904 0.191904
0.428472 0.187856 0.187856
0.504629 0.183808 0.183808
0.580786 0.179760 0.179760
0.656944 0.175712 0.175712
0.733101 0.171664 0.171664
0.809258 0.167616 0.167616
0.885415 0.163567 0.163567
0.961573 0.159519 0.159519
1.037730 0.155471 0.155471
1.113887 0.151423 0.151423
-0.036419 0.284402 0.204197
0.039738 0.280354 0.200149
0.115896 0.276306 0.196101
0.192053 0.272258 0.192053
0.268210 0.268210 0.188005
0.344367 0.264162 0.183957
0.420525 0.260114 0.179909
0.496682 0.256066 0.175861
0.572839 0.252018 0.171813
0.648996 0.247970 0.167764
0.725154 0.243922 0.163716
0.801311 0.239874 0.159668
0.877468 0.235826 0.155620
0.953626 0.231778 0.151572
1.029783 0.227729 0.147524
1.105940 0.223681 0.143476
-0.044366 0.356660 0.196250
0.031791 0.352612 0.192202
0.107948 0.348564 0.188154
0.184106 0.344516 0.184106
0.260263 0.340468 0.180058
0.336420 0.336420 0.176010
0.412577 0.332372 0.171961
0.488735 0.328324 0.167913
0.564892 0.324276 0.163865
0.641049 0.320228 0.159817
0.717207 0.316180 0.155769
0.793364 0.312132 0.151721
0.869521 0.308084 0.147673
0.945678 0.304036 0.143625
1.021836 0.299988 0.139577
1.097993 0.295940 0.135529
-0.052313 0.428919 0.188303
0.023844 0.424871 0.184255
0.100001 0.420823 0.180206
