tools/decompiled/apktool/res/raw/retro.cube
LUT_3D_SIZE 6
0.171881 0.107139 0.080962
0.309301 0.126105 0.082694
0.446199 0.155678 0.101218
0.548371 0.161242 0.102318
0.638775 0.154882 0.089511
0.727458 0.143710 0.068530
0.230174 0.226163 0.064771
0.351264 0.245883 0.060898
0.486139 0.290156 0.109803
0.603011 0.322628 0.150788
0.697904 0.332661 0.160005
0.786215 0.335248 0.157994
0.248818 0.348175 0.000000
0.401826 0.399235 0.079739
0.546069 0.459166 0.182750
0.671541 0.503914 0.248608
0.771997 0.521048 0.271094
0.862757 0.527420 0.277183
0.250624 0.477890 0.000220
0.414443 0.528496 0.048928
0.576132 0.604871 0.227147
0.713775 0.660801 0.313929
0.824822 0.686723 0.349849
0.921486 0.697132 0.361314
0.214957 0.593107 0.000269
0.402605 0.641525 0.000000
0.581592 0.728936 0.232253
0.731086 0.792556 0.337739
0.852762 0.825897 0.384899
0.957391 0.842066 0.402895
0.125466 0.704760 0.000000
0.373848 0.749939 0.000000
0.571385 0.842348 0.206211
0.734612 0.914078 0.337404
0.867378 0.954831 0.393746
0.980027 0.975210 0.415059
0.186449 0.114430 0.152440
0.311713 0.125838 0.175012
0.433279 0.140788 0.204718
0.546996 0.156536 0.236511
0.641348 0.153997 0.249700
0.731964 0.145483 0.259841
0.205496 0.205208 0.162905
0.323534 0.219227 0.176482
0.450253 0.251439 0.213527
0.576550 0.291598 0.265130
0.681538 0.312065 0.295044
0.776286 0.321724 0.312733
0.230801 0.331732 0.186089
0.378651 0.373818 0.234321
0.514869 0.422572 0.295726
0.647267 0.474758 0.365221
0.757744 0.503571 0.404724
0.854229 0.516342 0.423612
0.245677 0.475421 0.224120
0.399523 0.512555 0.272545
0.558247 0.583989 0.369619
0.701188 0.645754 0.452982
0.819744 0.680579 0.499118
0.922038 0.697118 0.520788
0.220281 0.601409 0.238400
0.384746 0.623155 0.268293
0.573007 0.719799 0.407457
0.727908 0.789497 0.500999
0.856639 0.830756 0.552648
0.965391 0.850676 0.575772
0.138590 0.716201 0.229636
0.347385 0.723458 0.237238
0.567607 0.839951 0.418259
0.733831 0.914612 0.516592
0.872711 0.960965 0.570765
0.988963 0.986121 0.594101
0.203230 0.122118 0.248630
0.322384 0.129960 0.276735
0.437668 0.140318 0.311199
0.550146 0.154775 0.350294
0.647204 0.155554 0.373946
0.738045 0.147463 0.390337
0.208249 0.207361 0.261977
0.328760 0.222885 0.286729
0.449193 0.248671 0.326348
0.572881 0.285417 0.380933
0.680814 0.309066 0.419545
0.777661 0.320576 0.444060
0.231372 0.334121 0.309138
0.375909 0.371593 0.357631
0.506445 0.412867 0.412956
0.636481 0.461546 0.479117
0.750937 0.494832 0.525899
0.851888 0.512285 0.552819
0.249849 0.483101 0.374491
0.390513 0.503872 0.401504
0.550401 0.575464 0.495414
0.693019 0.636346 0.575053
0.816440 0.676384 0.627522
0.922635 0.697121 0.654401
0.231661 0.616363 0.415826
0.378746 0.619207 0.419038
0.568729 0.716491 0.546287
0.724711 0.786597 0.634240
0.858158 0.832729 0.688767
0.970503 0.856614 0.714855
0.155025 0.732376 0.430064
0.357174 0.738379 0.436737
0.564653 0.839010 0.567533
0.733336 0.915488 0.658192
0.876626 0.966559 0.711311
0.996253 0.995211 0.734708
0.211892 0.123338 0.350601
0.322893 0.124252 0.373939
0.434342 0.129878 0.408494
0.544554 0.140619 0.449422
0.642423 0.140618 0.477364
0.732580 0.128234 0.495744
0.214204 0.212325 0.369448
0.333568 0.225752 0.396705
0.448545 0.245701 0.434189
0.568012 0.277546 0.487436
0.676600 0.301235 0.529801
0.774369 0.313432 0.557625
0.228978 0.334637 0.421231
0.375864 0.372298 0.474673
0.501115 0.406629 0.524233
0.627623 0.450413 0.586172
0.742866 0.484025 0.634399
0.845040 0.502817 0.664016
0.248941 0.487160 0.501542
0.389656 0.505339 0.527007
0.545903 0.571401 0.614004
0.686096 0.628461 0.688151
0.810164 0.669027 0.739809
0.917935 0.691040 0.767893
0.235647 0.626158 0.557719
0.383419 0.628201 0.561210
0.565533 0.714678 0.670658
0.720610 0.783066 0.752231
0.856360 0.830761 0.804900
0.971219 0.856983 0.830777
0.166075 0.746570 0.584757
0.364658 0.751200 0.590669
0.562413 0.839010 0.697157
0.732251 0.915316 0.780213
0.876685 0.967181 0.827194
0.997612 0.996904 0.846467
0.213144 0.117345 0.453077
0.320691 0.113090 0.472425
0.428426 0.112921 0.504336
0.535617 0.117717 0.543204
0.632669 0.112522 0.571760
0.721551 0.089433 0.589976
0.218656 0.216106 0.481831
0.333742 0.223680 0.503570
0.446022 0.239949 0.539197
0.561939 0.267158 0.589394
0.669084 0.288613 0.631013
0.765867 0.298949 0.658443
0.238009 0.347344 0.549030
0.374681 0.372288 0.588112
0.496357 0.401068 0.632259
0.619245 0.439743 0.688804
0.733456 0.471720 0.735274
0.834385 0.488520 0.763036
0.242540 0.486537 0.616925
0.395306 0.515030 0.656346
0.541903 0.567940 0.726400
0.677492 0.618568 0.791164
0.801019 0.657817 0.839849
0.907721 0.678324 0.865349
0.233337 0.631249 0.683448
0.383146 0.632074 0.686072
0.563840 0.714800 0.787547
0.716025 0.778128 0.858975
0.850067 0.823649 0.904657
0.963435 0.847881 0.925167
0.166153 0.755468 0.717919
0.366380 0.758834 0.722315
0.561169 0.840146 0.814965
0.727816 0.911424 0.884711
0.872756 0.963077 0.923415
0.994190 0.992191 0.935583
0.208539 0.103568 0.554758
0.316135 0.094468 0.571945
0.421685 0.087512 0.600747
0.525032 0.082004 0.634609
0.619878 0.060139 0.660558
0.707014 0.000000 0.676930
0.218178 0.215775 0.593600
0.332531 0.219714 0.611272
0.443056 0.232835 0.644059
0.555766 0.255784 0.689985
0.660910 0.274206 0.728827
0.756720 0.282619 0.754897
0.244848 0.358614 0.676174
0.372831 0.371719 0.700030
0.491749 0.395709 0.738391
0.611082 0.429252 0.788285
0.723510 0.458359 0.831277
0.823445 0.473478 0.856740
0.230377 0.481946 0.723914
0.400197 0.524024 0.780581
0.538774 0.565797 0.835112
0.669895 0.609938 0.890376
0.791372 0.646150 0.933435
0.896600 0.664624 0.955190
0.225217 0.632583 0.798315
0.378909 0.632061 0.799432
0.563543 0.716905 0.898605
0.709838 0.771897 0.955982
0.842017 0.814580 0.995034
0.954526 0.836704 1.000031
0.157697 0.760476 0.836382
0.362860 0.760574 0.837378
0.562452 0.844604 0.925014
0.724614 0.909059 0.978752
0.867902 0.957679 1.000031
0.988476 0.985020 1.000031
