tools/decompiled/apktool/res/raw/retro.cube
LUT_3D_SIZE 16
0.171881 0.107139 0.080962
0.211452 0.109340 0.079657
0.261168 0.117596 0.080860
0.309301 0.126105 0.082694
0.359186 0.137677 0.088523
0.404487 0.147596 0.095015
0.446199 0.155678 0.101218
0.483082 0.160084 0.104266
0.516030 0.160951 0.103531
0.548371 0.161242 0.102318
0.578931 0.159765 0.098925
0.609007 0.157521 0.094496
0.638775 0.154882 0.089511
0.668567 0.151888 0.083968
0.698042 0.148112 0.076987
0.727458 0.143710 0.068530
0.187358 0.138311 0.078758
0.223694 0.139419 0.074969
0.268481 0.146791 0.073110
0.315164 0.156699 0.073350
0.360581 0.166911 0.075638
0.407690 0.180211 0.083922
0.451707 0.192129 0.093556
0.493485 0.203057 0.104107
0.530374 0.209530 0.109842
0.564628 0.213689 0.113055
0.597197 0.216335 0.114633
0.627443 0.216556 0.112575
0.657334 0.216193 0.109881
0.687056 0.215523 0.106777
0.716350 0.214334 0.102781
0.745215 0.212058 0.096461
0.209268 0.179788 0.073630
0.244303 0.180335 0.067643
0.286716 0.187578 0.064864
0.331619 0.198167 0.065891
0.375933 0.209438 0.070348
0.422530 0.224374 0.082961
0.466556 0.237983 0.096633
0.508605 0.250613 0.110716
0.546665 0.259627 0.120610
0.581143 0.265232 0.126070
0.614334 0.269563 0.130163
0.645222 0.271484 0.130486
0.675377 0.272592 0.129892
0.705451 0.273615 0.129235
0.735302 0.274274 0.128261
0.764176 0.273554 0.124472
0.230174 0.226163 0.064771
0.265621 0.226961 0.056760
0.307285 0.234666 0.055420
0.351264 0.245883 0.060898
0.395186 0.258386 0.071425
0.441393 0.274457 0.090157
0.486139 0.290156 0.109803
0.528599 0.304433 0.128343
0.567932 0.315776 0.142689
0.603011 0.322628 0.150788
0.636570 0.328193 0.157087
0.667824 0.331134 0.159519
0.697904 0.332661 0.160005
0.727731 0.334153 0.160036
0.757368 0.335325 0.160178
0.786215 0.335248 0.157994
0.242834 0.269819 0.044618
0.282958 0.274598 0.039511
0.327853 0.285934 0.050377
0.373426 0.299674 0.067641
0.418423 0.314363 0.087325
0.464655 0.331624 0.111777
0.509892 0.348945 0.136069
0.552597 0.364269 0.157276
0.592619 0.376897 0.174684
0.628431 0.385192 0.185402
0.662416 0.391527 0.193343
0.694255 0.395343 0.197654
0.724198 0.397318 0.199039
0.754243 0.398967 0.200091
0.783755 0.400550 0.200999
0.812887 0.401272 0.200903
0.243777 0.305669 0.000147
0.290390 0.315866 0.000000
0.341606 0.333725 0.038288
0.389698 0.350583 0.074205
0.436316 0.367446 0.102651
0.483382 0.386194 0.131972
0.529950 0.405469 0.160996
0.573485 0.422091 0.185179
0.614864 0.436624 0.205970
0.652053 0.446502 0.219602
0.686772 0.453887 0.229372
0.719619 0.458793 0.235742
0.750032 0.461248 0.238031
0.780108 0.463401 0.240116
0.810079 0.465296 0.241849
0.839540 0.466649 0.242649
0.248818 0.348175 0.000000
0.290438 0.352165 0.000170
0.349872 0.378037 0.000000
0.401826 0.399235 0.079739
0.450508 0.418589 0.116751
0.498366 0.438516 0.150004
0.546069 0.459166 0.182750
0.590472 0.476814 0.209251
0.633232 0.492883 0.233014
0.671541 0.503914 0.248608
0.707000 0.512001 0.259719
0.740704 0.517957 0.267545
0.771997 0.521048 0.271094
0.802327 0.523477 0.273457
0.832594 0.525461 0.275415
0.862757 0.527420 0.277183
0.254483 0.393980 0.000000
0.294108 0.394305 0.000000
0.351566 0.417532 0.000203
0.408855 0.444109 0.077159
0.459698 0.465668 0.124589
0.509219 0.487271 0.163416
0.558687 0.509820 0.200498
0.604397 0.528842 0.229914
0.648770 0.546659 0.256791
0.688273 0.558856 0.274214
0.724813 0.567934 0.286969
0.759768 0.574991 0.296793
0.791884 0.578924 0.301413
0.823193 0.581691 0.304261
0.854043 0.584386 0.307356
0.884858 0.586901 0.310008
0.255208 0.437370 0.000000
0.294912 0.435548 0.000000
0.350996 0.455857 0.000000
0.414017 0.488438 0.073511
0.467453 0.512420 0.133120
0.518479 0.535266 0.176051
0.569073 0.558949 0.216260
0.615640 0.578510 0.247285
0.661053 0.597045 0.275656
0.701615 0.610250 0.294686
0.739616 0.620246 0.308983
0.776022 0.628711 0.320546
0.809306 0.633710 0.326993
0.841234 0.637070 0.330836
0.873014 0.640297 0.334818
0.904408 0.643257 0.338099
0.250624 0.477890 0.000220
0.293433 0.476562 0.000000
0.348205 0.493833 0.000000
0.414443 0.528496 0.048928
0.470408 0.554687 0.132406
0.523553 0.579428 0.182291
0.576132 0.604871 0.227147
0.624610 0.626145 0.261479
0.671572 0.646083 0.292415
0.713775 0.660801 0.313929
0.752585 0.671546 0.329186
0.790108 0.680668 0.341762
0.824822 0.686723 0.349849
0.857360 0.690431 0.354146
0.889551 0.693822 0.358060
0.921486 0.697132 0.361314
0.243409 0.517849 0.000000
0.290035 0.517548 0.000000
0.342159 0.529255 0.000000
0.412507 0.567159 0.000000
0.470805 0.595038 0.125960
0.525490 0.620819 0.182794
0.579179 0.646744 0.230587
0.628660 0.668720 0.266708
0.676468 0.689043 0.298574
0.720625 0.705493 0.323477
0.760998 0.717261 0.340587
0.799969 0.727607 0.355061
0.836315 0.735343 0.365489
0.870030 0.739980 0.370939
0.903203 0.744081 0.375621
0.935860 0.747728 0.379747
0.231764 0.556309 0.000000
0.283528 0.557340 0.000000
0.332301 0.562613 0.000000
0.409100 0.605515 0.000000
0.469992 0.634949 0.116596
0.526316 0.661841 0.181437
0.581158 0.688435 0.232515
0.631713 0.711064 0.271184
0.680388 0.731597 0.304491
0.726421 0.749472 0.331423
0.767630 0.761508 0.348990
0.807054 0.772227 0.363942
0.844898 0.780868 0.375515
0.879123 0.785605 0.381153
0.912938 0.790003 0.386180
0.946402 0.794271 0.390924
0.214957 0.593107 0.000269
0.272559 0.594626 0.000000
0.321613 0.596642 0.000275
0.402605 0.641525 0.000000
0.466111 0.672493 0.095199
0.524891 0.700920 0.175824
0.581592 0.728936 0.232253
0.633799 0.752465 0.273957
0.683433 0.773696 0.308225
0.731086 0.792556 0.337739
0.772854 0.804916 0.355483
0.813397 0.815893 0.370980
0.852762 0.825897 0.384899
0.888523 0.831616 0.391506
0.923174 0.836973 0.397592
0.957391 0.842066 0.402895
0.193870 0.630157 0.000284
0.259406 0.632214 0.000000
0.312132 0.634330 0.000291
0.394408 0.677259 0.000000
0.459737 0.708553 0.045459
0.520412 0.737726 0.161682
0.578495 0.766080 0.224139
0.632090 0.790316 0.269064
0.683353 0.812934 0.306445
0.733698 0.834111 0.340113
0.777413 0.848140 0.360635
0.819767 0.860471 0.378517
0.860646 0.871692 0.393388
0.897752 0.878479 0.401284
0.932977 0.883875 0.407389
0.967852 0.888792 0.412912
0.165974 0.667415 0.000000
0.242695 0.669817 0.000000
0.300495 0.671931 0.000000
0.384604 0.713237 0.000329
0.452720 0.744806 0.000000
0.515680 0.775237 0.145383
0.575155 0.804017 0.215717
0.630109 0.828796 0.264084
0.682883 0.851736 0.303824
0.734553 0.874109 0.339683
0.779294 0.888852 0.360835
0.822780 0.901948 0.379295
0.864748 0.913545 0.395204
0.903179 0.921488 0.404824
0.939670 0.927315 0.410967
0.975131 0.932566 0.416384
0.125466 0.704760 0.000000
0.222325 0.707628 0.000000
0.287030 0.710186 0.000000
0.373848 0.749939 0.000000
0.444679 0.781886 0.000000
0.510302 0.813379 0.127074
0.571385 0.842348 0.206211
0.627465 0.867657 0.257583
0.681256 0.890945 0.299093
0.734612 0.914078 0.337404
0.780177 0.929016 0.359074
0.824625 0.942680 0.377678
0.867378 0.954831 0.393746
0.907009 0.963517 0.404103
0.943999 0.969470 0.410229
0.980027 0.975210 0.415059
0.173936 0.108075 0.099774
0.212363 0.109590 0.100591
0.257933 0.115163 0.104830
0.303535 0.121558 0.110136
0.347450 0.127898 0.115960
0.391590 0.135666 0.123930
0.433491 0.143050 0.132225
0.473558 0.149774 0.140522
0.510148 0.153903 0.146424
0.543099 0.154456 0.148778
0.575039 0.154259 0.150501
0.605996 0.152883 0.151198
0.636390 0.150479 0.151239
0.666710 0.147863 0.151388
0.696711 0.144816 0.151234
0.726734 0.141192 0.151161
0.179739 0.133099 0.098451
0.215110 0.133399 0.096855
0.256581 0.137996 0.097938
0.300443 0.144950 0.101018
0.344348 0.152944 0.105670
0.389353 0.163235 0.113718
0.434342 0.174859 0.124673
0.476918 0.185625 0.135997
0.517462 0.195333 0.147142
0.553296 0.200829 0.153790
0.587460 0.204756 0.159016
0.620433 0.207614 0.163189
0.651620 0.208613 0.165319
0.681975 0.208642 0.166456
0.712319 0.208432 0.167540
0.742499 0.207847 0.168432
0.194955 0.168745 0.098959
0.230115 0.169048 0.096317
0.270441 0.174102 0.096629
0.313682 0.182416 0.099972
0.357466 0.192420 0.105916
0.402092 0.204336 0.115501
0.447210 0.218059 0.128866
0.489804 0.230491 0.142144
0.531093 0.242414 0.156033
0.567815 0.250048 0.164979
0.602183 0.255395 0.171481
0.635459 0.259721 0.176917
0.666716 0.261906 0.179745
0.697278 0.263243 0.181616
0.727749 0.264508 0.183702
0.758631 0.265916 0.186170
0.213427 0.211817 0.099934
0.249204 0.212562 0.096810
0.289661 0.218567 0.098132
0.332542 0.228018 0.103244
0.376239 0.239493 0.112084
0.420452 0.252718 0.124568
0.465746 0.268239 0.141461
0.508483 0.282070 0.157523
0.550244 0.295615 0.174094
0.587709 0.305074 0.185817
0.622370 0.311581 0.193902
0.656143 0.317241 0.201124
0.687825 0.320602 0.205275
0.718607 0.322955 0.208285
0.749162 0.325183 0.211280
0.779971 0.327311 0.214316
0.231235 0.259226 0.101865
0.269684 0.261970 0.100623
0.311734 0.269986 0.105426
0.355141 0.280849 0.114495
0.399089 0.293813 0.127355
0.443075 0.308099 0.143412
0.488486 0.324984 0.164000
0.531250 0.339834 0.182620
0.573393 0.354656 0.201775
0.611606 0.365404 0.215836
0.646521 0.372665 0.225213
0.680800 0.379289 0.233880
0.712734 0.383387 0.239089
0.743499 0.386293 0.242777
0.774284 0.388986 0.246382
0.805041 0.391456 0.249778
0.236553 0.298947 0.093589
0.282068 0.307639 0.100196
0.329147 0.320702 0.113607
0.374943 0.334548 0.129143
0.420469 0.349903 0.147610
0.465456 0.365894 0.167866
0.511837 0.384557 0.192562
0.555504 0.400994 0.214275
0.598411 0.417175 0.236290
0.637590 0.429460 0.252608
0.673231 0.437717 0.263616
0.708187 0.445108 0.273815
0.740688 0.449941 0.280469
0.771859 0.453107 0.284335
0.802671 0.456144 0.288235
0.833454 0.458866 0.291761
0.239332 0.339094 0.081282
0.283946 0.345683 0.086451
0.340413 0.368009 0.118443
0.389384 0.385512 0.141903
0.436753 0.403028 0.165648
0.482927 0.420539 0.189584
0.530388 0.440729 0.217617
0.574996 0.458495 0.242120
0.618946 0.475730 0.266357
0.659594 0.489684 0.285236
0.696142 0.498896 0.297795
0.731651 0.507049 0.309020
0.765030 0.512728 0.316604
0.796362 0.516014 0.320722
0.827386 0.519064 0.324814
0.858314 0.521900 0.328547
0.245894 0.385846 0.077676
0.286903 0.386999 0.073172
0.344013 0.409428 0.113707
0.398819 0.432791 0.150619
0.448842 0.453107 0.180624
0.496844 0.472743 0.209027
0.546050 0.494832 0.240874
0.592087 0.514087 0.268332
0.636915 0.532341 0.294035
0.678976 0.547662 0.315392
0.716493 0.557706 0.329193
0.752573 0.566263 0.340792
0.787170 0.572992 0.349711
0.819021 0.576448 0.354315
0.850412 0.579849 0.358885
0.881675 0.582916 0.362576
0.249422 0.432164 0.074496
0.289866 0.430699 0.061473
0.344776 0.449473 0.104455
0.405528 0.478832 0.157878
0.458122 0.501609 0.193932
0.507885 0.522819 0.226060
0.558484 0.546300 0.260881
0.606019 0.566922 0.290636
0.651760 0.586008 0.318033
0.695484 0.602809 0.341475
0.733920 0.613645 0.356357
0.771212 0.622958 0.369111
0.806895 0.630821 0.379569
0.839304 0.634813 0.384793
0.871475 0.638427 0.389355
0.903150 0.641620 0.393494
0.247241 0.475097 0.061019
0.290573 0.474246 0.044615
0.343249 0.488571 0.089842
0.408478 0.521938 0.160543
0.464523 0.548091 0.204421
0.516930 0.571605 0.241631
0.569294 0.596838 0.279599
0.617870 0.618265 0.310966
0.664634 0.637869 0.339458
0.709716 0.655917 0.364642
0.749057 0.667291 0.380187
0.787033 0.676946 0.393579
0.823803 0.685510 0.404801
0.856856 0.689756 0.410271
0.889333 0.693501 0.414814
0.921647 0.697222 0.419246
0.241237 0.516648 0.030222
0.288091 0.516272 0.000000
0.336620 0.523665 0.049575
0.407066 0.561215 0.155502
0.465708 0.589316 0.206367
0.519663 0.614227 0.247148
0.573614 0.640270 0.287784
0.623999 0.663292 0.322034
0.672269 0.684144 0.352339
0.719400 0.704173 0.380302
0.759955 0.716269 0.397450
0.799458 0.727216 0.411983
0.837611 0.736899 0.424917
0.871949 0.742086 0.431484
0.905378 0.746372 0.436760
0.938187 0.750592 0.441596
0.231336 0.556899 0.000000
0.283147 0.557654 0.000000
0.329280 0.559869 0.000260
0.403708 0.599883 0.147420
0.465480 0.630037 0.207018
0.521387 0.656270 0.251383
0.576580 0.683178 0.294343
0.628042 0.706607 0.329937
0.677233 0.727951 0.361056
0.725677 0.748841 0.390654
0.767481 0.761854 0.408602
0.808026 0.773309 0.424138
0.847325 0.783781 0.437943
0.883076 0.790117 0.445730
0.917163 0.794932 0.451421
0.950777 0.799462 0.456437
0.215540 0.594712 0.000269
0.273353 0.596262 0.000000
0.322367 0.598337 0.000276
0.397789 0.636666 0.132747
0.462741 0.669258 0.203516
0.521460 0.697305 0.253911
0.578266 0.725341 0.299549
0.631223 0.749493 0.336567
0.681442 0.771327 0.368888
0.731224 0.792857 0.399921
0.774267 0.806867 0.418557
0.815667 0.818701 0.434631
0.855647 0.829401 0.448441
0.892593 0.836651 0.456948
0.927178 0.841594 0.462649
0.961100 0.846013 0.467469
0.194910 0.632214 0.000000
0.260318 0.634346 0.000000
0.313460 0.636493 0.000292
0.389382 0.672650 0.109382
0.457208 0.706067 0.194341
0.518110 0.735441 0.250206
0.576867 0.764475 0.299048
0.631376 0.789895 0.338923
0.683357 0.812899 0.373035
0.734708 0.835755 0.405706
0.779404 0.850437 0.425838
0.821819 0.863027 0.442231
0.862780 0.874025 0.456617
0.900942 0.882282 0.466120
0.936340 0.887590 0.471774
0.970914 0.892422 0.476526
0.168326 0.670247 0.000000
0.244866 0.672622 0.000305
0.302442 0.675016 0.000000
0.379747 0.708397 0.074716
0.450222 0.742895 0.182472
0.513725 0.773536 0.244995
0.573843 0.802788 0.296366
0.629560 0.828396 0.337192
0.682362 0.851617 0.372020
0.734750 0.874696 0.405507
0.780949 0.890608 0.427108
0.824548 0.904199 0.444337
0.866754 0.916009 0.459325
0.906524 0.925474 0.470181
0.942883 0.931054 0.476279
0.978100 0.936674 0.481112
0.130917 0.708589 0.000000
0.224979 0.711048 0.000000
0.288936 0.713267 0.000000
0.368191 0.744293 0.000000
0.441948 0.779581 0.168137
0.508210 0.811608 0.238085
0.569892 0.841172 0.292219
0.626642 0.866809 0.334375
0.680573 0.890334 0.369933
0.734015 0.914060 0.403630
0.781498 0.930474 0.426229
0.826078 0.944486 0.443667
0.868821 0.956844 0.458624
0.910041 0.966958 0.470293
0.947235 0.973417 0.476174
0.983045 0.978881 0.481516
0.179424 0.110836 0.123936
0.218551 0.112719 0.127031
0.262604 0.117578 0.133731
0.306379 0.122883 0.141332
0.348204 0.127712 0.148753
0.390303 0.133812 0.157960
0.432050 0.140821 0.168431
0.472096 0.147344 0.178641
0.510022 0.152684 0.187826
0.544446 0.155002 0.194032
0.576410 0.154743 0.197518
0.607926 0.153896 0.200807
0.638804 0.152426 0.203560
0.669113 0.149723 0.205623
0.699137 0.146645 0.207432
0.729162 0.143018 0.209296
0.180290 0.133228 0.122135
0.216000 0.133690 0.122319
0.256225 0.137347 0.125586
0.298951 0.143341 0.131352
0.341277 0.149956 0.138117
0.384583 0.158405 0.147466
0.428976 0.169210 0.160042
0.471790 0.179789 0.173111
0.513241 0.190241 0.186589
0.551485 0.197926 0.197456
0.585462 0.201747 0.203974
0.618943 0.204984 0.210015
0.651555 0.207666 0.215639
0.682564 0.208175 0.219026
0.712927 0.208140 0.221982
0.743252 0.207666 0.224570
0.192195 0.166529 0.125884
0.228126 0.167317 0.125516
0.267761 0.171716 0.128262
0.310235 0.179189 0.134208
0.352686 0.187735 0.141821
0.395562 0.197788 0.151847
0.440031 0.210488 0.165686
0.482796 0.222672 0.179914
0.524599 0.234878 0.194925
0.563799 0.245001 0.208004
0.598338 0.250517 0.215779
0.632318 0.255525 0.223137
0.665366 0.259615 0.229643
0.696364 0.261342 0.233344
0.726958 0.262774 0.236836
0.757581 0.263916 0.240186
0.207860 0.207161 0.131861
0.244420 0.208357 0.131313
0.283860 0.213298 0.134213
0.325978 0.221729 0.140985
0.368452 0.231761 0.150130
0.411101 0.243065 0.161568
0.455593 0.257401 0.177519
0.498549 0.271086 0.193620
0.540535 0.284634 0.210364
0.580856 0.296897 0.226083
0.615912 0.303780 0.235259
0.650641 0.310345 0.244269
0.684308 0.315881 0.252246
0.715608 0.318874 0.257002
0.746522 0.321432 0.261336
0.777545 0.323764 0.265537
0.224999 0.253693 0.140729
0.263624 0.256288 0.141465
0.304470 0.262912 0.146482
0.346950 0.272676 0.155522
0.389968 0.284279 0.167278
0.432740 0.296916 0.181240
0.477631 0.312836 0.200047
0.520766 0.327846 0.218610
0.562995 0.342542 0.237236
0.603928 0.356312 0.255279
0.639368 0.364070 0.265625
0.674284 0.371387 0.275564
0.708168 0.377733 0.284386
0.739622 0.381095 0.289422
0.770587 0.384086 0.294054
0.801540 0.386833 0.298351
0.232296 0.295193 0.142978
0.277238 0.303023 0.149704
0.322641 0.314124 0.160688
0.367562 0.326733 0.174268
0.412033 0.340687 0.190196
0.455733 0.355025 0.207310
0.501356 0.372587 0.229360
0.545109 0.389012 0.250545
0.587921 0.404736 0.271264
0.629663 0.419946 0.291407
0.665748 0.428559 0.303215
0.701051 0.436452 0.313897
0.735516 0.443635 0.323803
0.767263 0.447527 0.329358
0.798483 0.450784 0.334249
0.829528 0.454002 0.339031
0.234324 0.334608 0.141291
0.280438 0.342279 0.148350
0.334518 0.362047 0.171341
0.382671 0.378071 0.190701
0.429173 0.394450 0.210938
0.474163 0.410461 0.231398
0.521025 0.429783 0.256567
0.566081 0.447916 0.280670
0.609798 0.464875 0.303554
0.653021 0.481701 0.326366
0.689995 0.491447 0.339526
0.725936 0.499949 0.351019
0.761090 0.507728 0.361785
0.793153 0.512015 0.367630
0.824625 0.515486 0.372536
0.855879 0.518716 0.377231
0.241721 0.382107 0.148717
0.283004 0.383330 0.147864
0.339260 0.404450 0.175019
0.393103 0.426571 0.204041
0.442394 0.445810 0.229403
0.489137 0.463744 0.253263
0.537498 0.484855 0.281878
0.584069 0.504554 0.308532
0.628791 0.522626 0.333200
0.673033 0.540551 0.357698
0.711164 0.551301 0.372332
0.747653 0.560161 0.384420
0.783561 0.568599 0.395849
0.816304 0.573230 0.402390
0.848004 0.576933 0.407247
0.879694 0.580340 0.411909
0.246659 0.430059 0.157521
0.286866 0.427999 0.151917
0.340165 0.444736 0.174856
0.399715 0.472453 0.213984
0.452102 0.494754 0.244974
0.500910 0.514825 0.272638
0.551258 0.537852 0.304557
0.599294 0.559049 0.333910
0.645132 0.578106 0.359827
0.690629 0.597064 0.386135
0.729968 0.608885 0.401957
0.767508 0.618629 0.415194
0.804269 0.627678 0.427450
0.838127 0.633045 0.434664
0.870469 0.637057 0.439964
0.902419 0.640679 0.444872
0.245501 0.474143 0.161338
0.289294 0.473438 0.157498
0.338939 0.484420 0.172984
0.403940 0.517116 0.222465
0.460066 0.543037 0.260042
0.511239 0.565243 0.291588
0.563146 0.589679 0.325992
0.612365 0.611729 0.356898
0.659079 0.631346 0.383888
0.705672 0.651206 0.411001
0.746262 0.663850 0.427906
0.784557 0.674096 0.441802
0.822182 0.683517 0.454408
0.857108 0.689775 0.462307
0.889915 0.693647 0.467659
0.922115 0.697602 0.472375
0.239990 0.516395 0.161936
0.287314 0.516217 0.158944
0.332322 0.519653 0.162359
0.402389 0.556423 0.222788
0.461979 0.585276 0.266222
0.515522 0.609537 0.301517
0.569677 0.635914 0.339321
0.620739 0.659772 0.372511
0.669170 0.680682 0.401958
0.717216 0.701549 0.430569
0.759220 0.715476 0.448963
0.798683 0.726415 0.463373
0.837145 0.736322 0.476277
0.873066 0.743175 0.485230
0.906434 0.747650 0.490472
0.939192 0.751396 0.495287
0.231711 0.558454 0.162177
0.283402 0.558972 0.160251
0.328616 0.559986 0.159356
0.399001 0.594948 0.220736
0.461942 0.626505 0.270540
0.517724 0.652425 0.309063
0.573427 0.679688 0.349025
0.625650 0.704153 0.383332
0.674981 0.725742 0.413062
0.724235 0.746954 0.442667
0.767605 0.761982 0.462554
0.808282 0.773762 0.477755
0.847619 0.784387 0.491129
0.884781 0.792144 0.501298
0.919034 0.796867 0.506755
0.952578 0.801430 0.511705
0.217312 0.597403 0.156088
0.275201 0.599100 0.156381
0.324371 0.601281 0.158035
0.392684 0.631533 0.214520
0.460158 0.666789 0.272813
0.518573 0.694529 0.315188
0.575750 0.722574 0.356876
0.629122 0.747581 0.392393
0.679598 0.769360 0.422773
0.729751 0.791277 0.452479
0.774224 0.806982 0.473120
0.815844 0.819057 0.488584
0.855943 0.829912 0.502057
0.894402 0.838373 0.512752
0.929008 0.843606 0.518212
0.963098 0.848064 0.523186
0.197186 0.635526 0.145514
0.262683 0.637508 0.147376
0.315507 0.639683 0.148889
0.383639 0.666551 0.203896
0.454722 0.703831 0.269218
0.516013 0.733560 0.316093
0.575154 0.763113 0.360281
0.630483 0.788974 0.397738
0.682084 0.811971 0.429161
0.733378 0.834399 0.459828
0.779476 0.851206 0.481379
0.822202 0.863877 0.497651
0.863563 0.875158 0.511552
0.902822 0.884472 0.522350
0.938248 0.889749 0.528166
0.972791 0.894578 0.532816
0.170939 0.673479 0.133016
0.246820 0.675860 0.135371
0.304401 0.677978 0.137126
0.372790 0.701542 0.190546
0.447524 0.740409 0.263578
0.511422 0.771608 0.314491
0.572169 0.801488 0.360121
0.628494 0.827761 0.398208
0.681657 0.851065 0.430874
0.734187 0.874601 0.462141
0.781913 0.892367 0.485241
0.825992 0.906084 0.501962
0.868567 0.918072 0.516478
0.909010 0.928270 0.528085
0.945716 0.934511 0.534277
0.981070 0.939692 0.539137
0.133395 0.711877 0.116836
0.226615 0.714041 0.119066
0.290728 0.716156 0.121711
0.359728 0.736507 0.173740
0.438949 0.777226 0.256372
0.506071 0.810086 0.311986
0.568590 0.840197 0.359326
0.625968 0.866768 0.397926
0.680021 0.890325 0.430909
0.733717 0.914005 0.462518
0.782692 0.932248 0.486026
0.827450 0.946409 0.502772
0.870721 0.958923 0.517084
0.912441 0.969982 0.528866
0.949955 0.976968 0.535253
0.986132 0.982681 0.539814
0.186449 0.114430 0.152440
0.226085 0.116621 0.157429
0.269246 0.121149 0.165914
0.311713 0.125838 0.175012
0.351748 0.129546 0.183209
0.392243 0.134442 0.193050
0.433279 0.140788 0.204718
0.473198 0.147277 0.216603
0.510906 0.152446 0.227156
0.546996 0.156536 0.236511
0.578946 0.156288 0.241256
0.610536 0.155504 0.245776
0.641348 0.153997 0.249700
0.672327 0.152367 0.253986
0.702124 0.149197 0.256952
0.731964 0.145483 0.259841
0.183688 0.135154 0.149359
0.220124 0.136023 0.151275
0.259743 0.139300 0.156128
0.301599 0.144776 0.163733
0.342676 0.150425 0.171895
0.384335 0.157455 0.182003
0.427688 0.167220 0.195574
0.470398 0.177534 0.210148
0.511761 0.187792 0.224800
0.551254 0.196865 0.238473
0.586089 0.201525 0.247121
0.619396 0.204703 0.254174
0.652122 0.207191 0.260682
0.684124 0.208981 0.266604
0.714573 0.208839 0.270443
0.744874 0.208456 0.274279
0.192922 0.166888 0.154694
0.229593 0.168185 0.156131
0.268817 0.172193 0.160496
0.310699 0.179163 0.168245
0.352181 0.186797 0.177198
0.393773 0.195520 0.187786
0.437340 0.207240 0.202303
0.480017 0.219369 0.217806
0.521695 0.231097 0.233422
0.562246 0.242615 0.249136
0.597670 0.248939 0.258812
0.631506 0.253815 0.266959
0.664855 0.258233 0.274683
0.697094 0.261405 0.281065
0.727516 0.262492 0.285092
0.758137 0.263597 0.289313
0.205496 0.205208 0.162905
0.242794 0.206830 0.164119
0.281869 0.211322 0.168343
0.323534 0.219227 0.176482
0.365200 0.228246 0.186283
0.406569 0.238200 0.197692
0.450253 0.251439 0.213527
0.493291 0.264984 0.230390
0.535038 0.278114 0.247309
0.576550 0.291598 0.265130
0.612688 0.299531 0.276303
0.647409 0.306023 0.285858
0.681538 0.312065 0.295044
0.714394 0.316821 0.302746
0.745349 0.319403 0.307827
0.776286 0.321724 0.312733
0.220753 0.250039 0.175020
0.260123 0.253077 0.177540
0.300654 0.259172 0.183479
0.343248 0.268838 0.193622
0.385735 0.279693 0.205729
0.427487 0.291167 0.219094
0.471624 0.306093 0.237268
0.514996 0.321179 0.256274
0.557139 0.335563 0.274858
0.599006 0.350301 0.294440
0.635861 0.359614 0.307082
0.670758 0.366905 0.317456
0.705043 0.373504 0.327207
0.737918 0.378671 0.334945
0.769022 0.381597 0.340056
0.799876 0.384343 0.345000
0.228428 0.291839 0.182329
0.273876 0.299908 0.190398
0.318817 0.310265 0.201361
0.363375 0.322408 0.215092
0.407037 0.335155 0.230097
0.449482 0.348004 0.245614
0.494220 0.364456 0.266268
0.538288 0.380921 0.287622
0.580826 0.396320 0.307780
0.623334 0.412225 0.329007
0.661080 0.422735 0.343364
0.696351 0.430699 0.354401
0.731154 0.438221 0.364909
0.764629 0.444011 0.373392
0.795839 0.447284 0.378764
0.826844 0.450449 0.383858
0.230801 0.331732 0.186089
0.277266 0.339478 0.194043
0.330705 0.358158 0.215633
0.378651 0.373818 0.234321
0.424506 0.389285 0.253242
0.468620 0.404116 0.271970
0.514869 0.422572 0.295726
0.560086 0.440766 0.319843
0.603745 0.457615 0.342080
0.647267 0.474758 0.365221
0.686168 0.486835 0.381460
0.722258 0.495461 0.393273
0.757744 0.503571 0.404724
0.791602 0.509690 0.413653
0.822915 0.513095 0.418604
0.854229 0.516342 0.423612
0.239415 0.380508 0.199679
0.280603 0.381379 0.199460
0.335492 0.400745 0.222939
0.389314 0.422588 0.250372
0.437993 0.440985 0.273800
0.483866 0.457713 0.295654
0.531704 0.478008 0.322333
0.578375 0.497835 0.348788
