tools/decompiled/apktool/res/raw/silk.cube
LUT_3D_SIZE 6
0.003862 0.008195 0.008416
0.110777 0.062392 0.048587
0.316605 0.147754 0.118526
0.570392 0.216386 0.194117
0.683550 0.234675 0.225088
0.719725 0.243068 0.235612
0.085490 0.129972 0.089877
0.147203 0.145313 0.100839
0.381877 0.215555 0.158068
0.644252 0.275569 0.225366
0.746665 0.293586 0.251699
0.774206 0.310931 0.261676
0.141652 0.271955 0.175793
0.157273 0.301051 0.176472
0.440867 0.366648 0.222434
0.712682 0.414717 0.273396
0.807106 0.429021 0.293388
0.831306 0.453602 0.303384
0.225938 0.435780 0.266715
0.236904 0.477241 0.271558
0.492759 0.566440 0.293115
0.778278 0.625260 0.338759
0.881922 0.646262 0.360312
0.908188 0.667997 0.371129
0.248394 0.503557 0.297564
0.270975 0.558571 0.298032
0.528425 0.648695 0.320365
0.830166 0.733968 0.380624
0.944507 0.772184 0.410152
0.966352 0.783687 0.417845
0.276346 0.554452 0.329419
0.356365 0.628055 0.323393
0.613699 0.690715 0.354575
0.861341 0.765407 0.398422
0.973863 0.808302 0.427799
0.974948 0.811383 0.449880
0.038932 0.059747 0.085747
0.117502 0.073266 0.105346
0.336336 0.154639 0.147187
0.599524 0.222807 0.212192
0.713348 0.237063 0.240850
0.746486 0.245553 0.251353
0.084208 0.142157 0.134601
0.149993 0.159375 0.144539
0.402026 0.226917 0.186854
0.672152 0.286076 0.245278
0.774001 0.301916 0.269338
0.799303 0.318882 0.280425
0.151370 0.289965 0.210987
0.165403 0.319513 0.213712
0.457489 0.383962 0.250428
0.738436 0.430907 0.295946
0.832699 0.443938 0.314431
0.854392 0.470987 0.326449
0.230684 0.461120 0.300171
0.250931 0.498357 0.307148
0.508513 0.593492 0.324167
0.809510 0.655404 0.366124
0.914984 0.678700 0.387407
0.937465 0.699057 0.398939
0.257552 0.523473 0.342174
0.277453 0.572236 0.350018
0.532378 0.670756 0.361991
0.855541 0.762010 0.414173
0.973211 0.804101 0.443458
0.974734 0.809512 0.461339
0.281410 0.578486 0.414950
0.310991 0.653100 0.417198
0.593985 0.717018 0.441915
0.865728 0.796475 0.486349
0.982681 0.841604 0.515261
0.983975 0.843600 0.541532
0.074443 0.125911 0.224754
0.115286 0.064775 0.280230
0.350225 0.144255 0.294318
0.617669 0.217558 0.312591
0.727140 0.233896 0.325085
0.758690 0.243079 0.337442
0.109198 0.193561 0.277051
0.109693 0.175425 0.325389
0.410605 0.241203 0.342245
0.688004 0.295322 0.357270
0.784399 0.309072 0.365538
0.807936 0.328260 0.381602
0.179076 0.335878 0.339255
0.188349 0.353644 0.357563
0.449119 0.415099 0.395207
0.743983 0.454593 0.411525
0.837076 0.464564 0.419688
0.857077 0.492495 0.434636
0.250472 0.500387 0.412957
0.265724 0.535428 0.430519
0.475600 0.627851 0.451803
0.813385 0.694316 0.485756
0.921909 0.716641 0.502017
0.944382 0.738760 0.517620
0.275634 0.561031 0.456869
0.293323 0.604593 0.476056
0.487402 0.705726 0.496411
0.858838 0.805442 0.551118
0.982948 0.850276 0.578585
0.988080 0.856120 0.595602
0.297354 0.611352 0.523918
0.322990 0.675283 0.549693
0.567279 0.750531 0.575797
0.866697 0.834386 0.621521
0.991339 0.885615 0.657111
0.998473 0.890543 0.676223
0.122452 0.208258 0.360900
0.117210 0.098203 0.458183
0.360624 0.145829 0.481236
0.625823 0.213097 0.480703
0.731122 0.240853 0.479097
0.763817 0.250107 0.491014
0.154600 0.273446 0.413844
0.156074 0.270073 0.450736
0.414669 0.232216 0.549694
0.695422 0.289570 0.536526
0.792902 0.304437 0.533999
0.814267 0.327498 0.545989
0.209880 0.394887 0.481647
0.216935 0.408610 0.508638
0.424285 0.439174 0.588702
0.741031 0.476819 0.590859
0.836488 0.484385 0.588437
0.856431 0.515168 0.600773
0.273279 0.547557 0.542216
0.286828 0.579250 0.567276
0.414714 0.662564 0.625062
0.807614 0.732652 0.658918
0.925854 0.758832 0.677580
0.949713 0.781649 0.690955
0.296094 0.603702 0.574665
0.312627 0.644115 0.602841
0.420054 0.742806 0.659684
0.856506 0.849470 0.720966
0.994157 0.904182 0.761937
1.000037 0.915626 0.774164
0.312619 0.641796 0.614777
0.335673 0.699305 0.654148
0.529112 0.777289 0.699882
0.863295 0.869316 0.757345
1.000037 0.930091 0.805443
1.000037 0.941839 0.822213
0.146737 0.253686 0.420384
0.114547 0.114547 0.541624
0.367517 0.157944 0.565975
0.629412 0.219578 0.564760
0.735747 0.246424 0.563561
0.767810 0.255221 0.573507
0.177334 0.315916 0.481219
0.180633 0.318702 0.509564
0.412162 0.224351 0.650261
0.699339 0.284266 0.633572
0.798906 0.299787 0.628338
0.820007 0.329965 0.637085
0.224429 0.422333 0.544466
0.231223 0.435257 0.574770
0.407100 0.448231 0.678170
0.734361 0.483130 0.677877
0.835802 0.492248 0.677475
0.856281 0.522812 0.685025
0.284034 0.569671 0.599339
0.295236 0.596426 0.624320
0.366814 0.672279 0.703520
0.798788 0.744573 0.741990
0.924492 0.771524 0.762954
0.950758 0.795623 0.776162
0.307309 0.621247 0.620994
0.324762 0.659482 0.651053
0.359208 0.752990 0.725210
0.847718 0.863996 0.794738
0.998563 0.926677 0.845972
1.000037 0.943035 0.860287
0.318119 0.654302 0.647854
0.340649 0.708917 0.689623
0.504092 0.784530 0.744061
0.858139 0.879808 0.807284
1.000037 0.946869 0.863849
1.000037 0.966463 0.884634
0.163231 0.286175 0.456940
0.158901 0.262448 0.516120
0.397084 0.172468 0.629571
0.668876 0.233287 0.618997
0.770856 0.258256 0.614134
0.800584 0.266588 0.626649
0.193379 0.349559 0.513633
0.197593 0.354425 0.545604
0.413150 0.297365 0.677010
0.706643 0.340070 0.666097
0.809540 0.353421 0.662757
0.830754 0.382317 0.669907
0.234151 0.444511 0.562515
0.241403 0.458738 0.593527
0.398795 0.475270 0.696343
0.733997 0.509182 0.698441
0.839352 0.518087 0.700197
0.862723 0.550117 0.708530
0.286477 0.574921 0.609698
0.298828 0.604555 0.637356
0.340163 0.673937 0.716850
0.792879 0.748393 0.757759
0.924967 0.777727 0.781278
0.951308 0.799484 0.793124
0.306039 0.624396 0.629363
0.322700 0.664908 0.661804
0.360035 0.753950 0.735875
0.838534 0.863667 0.805503
0.997745 0.928622 0.859620
1.000037 0.946719 0.875946
0.319546 0.657430 0.654044
0.341674 0.711009 0.695764
0.491390 0.783977 0.751010
0.849339 0.879021 0.814264
1.000037 0.948313 0.873281
1.000037 0.972283 0.896899
