tools/decompiled/apktool/res/raw/silk.cube
LUT_3D_SIZE 16
0.003862 0.008195 0.008416
0.042354 0.021476 0.022312
0.075309 0.040607 0.034638
0.110777 0.062392 0.048587
0.159264 0.086561 0.066703
0.228137 0.115780 0.090156
0.316605 0.147754 0.118526
0.412244 0.177704 0.148131
0.501199 0.201459 0.174486
0.570392 0.216386 0.194117
0.623027 0.225770 0.208585
0.660516 0.231674 0.218804
0.683550 0.234675 0.225088
0.700158 0.237788 0.229850
0.712620 0.241012 0.233469
0.719725 0.243068 0.235612
0.051237 0.060115 0.045594
0.062672 0.059965 0.046020
0.086377 0.066065 0.051292
0.120934 0.080749 0.062325
0.171658 0.102379 0.078385
0.244591 0.130265 0.100523
0.336297 0.162081 0.128262
0.434250 0.191893 0.157538
0.525512 0.215072 0.183792
0.598484 0.230812 0.204182
0.649253 0.239265 0.217792
0.682209 0.243389 0.226394
0.704983 0.247736 0.232835
0.719620 0.251007 0.237018
0.729719 0.254258 0.240024
0.738532 0.259489 0.243132
0.071762 0.092110 0.067049
0.080393 0.093660 0.067901
0.100103 0.098110 0.071453
0.133445 0.108739 0.079698
0.186399 0.127829 0.093974
0.263425 0.154493 0.114987
0.359659 0.184808 0.141902
0.459421 0.213150 0.170045
0.550162 0.235115 0.194886
0.622549 0.249986 0.214315
0.673053 0.258732 0.227694
0.705401 0.263723 0.236144
0.726821 0.267964 0.241926
0.740106 0.271627 0.245813
0.748966 0.275832 0.248780
0.756576 0.281507 0.251668
0.085490 0.129972 0.089877
0.093654 0.131108 0.090820
0.111599 0.135076 0.093641
0.147203 0.145313 0.100839
0.202324 0.163022 0.113675
0.279890 0.186551 0.132160
0.381877 0.215555 0.158068
0.484252 0.242418 0.184786
0.573429 0.261763 0.207377
0.644252 0.275569 0.225366
0.694890 0.284711 0.238387
0.727265 0.290115 0.246712
0.746665 0.293586 0.251699
0.759321 0.298449 0.255605
0.768272 0.304849 0.259054
0.774206 0.310931 0.261676
0.090872 0.173398 0.113987
0.095581 0.173871 0.114072
0.117593 0.178014 0.116861
0.158334 0.188885 0.124005
0.216487 0.206044 0.135972
0.294485 0.227350 0.152177
0.400641 0.254233 0.175883
0.506090 0.279512 0.200866
0.595679 0.297181 0.221804
0.666164 0.310061 0.238536
0.715852 0.318440 0.250502
0.746714 0.322819 0.257968
0.764730 0.326039 0.262513
0.776740 0.331752 0.266385
0.786005 0.339760 0.270110
0.792542 0.347710 0.273281
0.118195 0.218531 0.144328
0.115774 0.221165 0.142876
0.119751 0.229194 0.142062
0.163063 0.240311 0.148894
0.227315 0.257472 0.160519
0.313926 0.279730 0.176645
0.420174 0.304133 0.197321
0.527281 0.327026 0.219617
0.620352 0.345262 0.239765
0.689568 0.356679 0.254771
0.737313 0.363397 0.265280
0.767547 0.367667 0.272220
0.785191 0.371155 0.276541
0.796256 0.376159 0.279795
0.804607 0.384053 0.283191
0.811559 0.393899 0.286783
0.141652 0.271955 0.175793
0.147034 0.274073 0.176723
0.148066 0.285249 0.175005
0.157273 0.301051 0.176472
0.237467 0.318568 0.187733
0.331847 0.341906 0.203461
0.440867 0.366648 0.222434
0.549224 0.388308 0.242091
0.643548 0.404660 0.260008
0.712682 0.414717 0.273396
0.759555 0.420753 0.282861
0.789569 0.425297 0.289354
0.807106 0.429021 0.293388
0.817346 0.433975 0.296332
0.824600 0.442307 0.299561
0.831306 0.453602 0.303384
0.170820 0.330413 0.209858
0.172200 0.334332 0.210010
0.180440 0.344017 0.212660
0.187189 0.366931 0.209196
0.243135 0.386743 0.216238
0.346575 0.411571 0.231221
0.461120 0.437855 0.248973
0.571133 0.459280 0.266424
0.664657 0.474358 0.282001
0.734668 0.484379 0.294214
0.782103 0.490215 0.302830
0.811603 0.493502 0.308449
0.828788 0.497353 0.312209
0.838930 0.503038 0.315249
0.845791 0.511703 0.318421
0.852271 0.522956 0.322113
0.202968 0.388077 0.242047
0.199806 0.393158 0.242156
0.208590 0.404727 0.245186
0.215248 0.428165 0.243071
0.239864 0.454431 0.242869
0.358880 0.480708 0.257168
0.479057 0.508224 0.273568
0.591581 0.530766 0.289565
0.685530 0.547107 0.303775
0.756224 0.558257 0.315476
0.804539 0.564490 0.324459
0.834372 0.567530 0.330046
0.852621 0.571921 0.334274
0.863922 0.578366 0.337962
0.871948 0.586915 0.341660
0.878496 0.597191 0.345688
0.225938 0.435780 0.266715
0.222404 0.443384 0.267619
0.227743 0.455808 0.270430
0.236904 0.477241 0.271558
0.251045 0.511413 0.264604
0.367734 0.538232 0.277586
0.492759 0.566440 0.293115
0.609125 0.591681 0.308332
0.705166 0.610882 0.324946
0.778278 0.625260 0.338759
0.829604 0.634964 0.348936
0.862442 0.641308 0.355771
0.881922 0.646262 0.360312
0.893135 0.651674 0.363754
0.901215 0.658893 0.367222
0.908188 0.667997 0.371129
0.234004 0.469882 0.282584
0.237795 0.478808 0.283774
0.243258 0.491695 0.286175
0.253105 0.515487 0.285256
0.267361 0.550471 0.279946
0.378708 0.578857 0.291666
0.505526 0.608166 0.306755
0.623575 0.635866 0.324285
0.723822 0.659686 0.343049
0.800422 0.678305 0.358450
0.854516 0.691901 0.370175
0.889474 0.700833 0.378134
0.909430 0.706623 0.383092
0.921064 0.711618 0.386516
0.928611 0.717204 0.389574
0.934555 0.723671 0.392619
0.247351 0.490042 0.293705
0.246887 0.499996 0.294927
0.252677 0.513945 0.297464
0.262418 0.537708 0.296925
0.277132 0.574226 0.289379
0.392540 0.603791 0.300573
0.518053 0.634073 0.315141
0.635817 0.664191 0.335246
0.738339 0.691338 0.355248
0.818660 0.714152 0.372513
0.874780 0.730448 0.385478
0.909816 0.740594 0.394094
0.929809 0.747320 0.399460
0.941337 0.752531 0.403062
0.948387 0.757033 0.405772
0.952598 0.760424 0.407680
0.248394 0.503557 0.297564
0.256977 0.514412 0.302497
0.260407 0.532428 0.302766
0.270975 0.558571 0.298032
0.283619 0.590083 0.293707
0.405254 0.618263 0.306150
0.528425 0.648695 0.320365
0.645587 0.680041 0.341708
0.748673 0.709321 0.362492
0.830166 0.733968 0.380624
0.887946 0.752601 0.394780
0.923958 0.764726 0.404285
0.944507 0.772184 0.410152
0.956138 0.777584 0.414014
0.962959 0.781628 0.416563
0.966352 0.783687 0.417845
0.251303 0.510370 0.301234
0.257825 0.526079 0.304685
0.265304 0.544208 0.308079
0.276029 0.570889 0.302693
0.291563 0.601214 0.297493
0.419568 0.628037 0.309969
0.539818 0.658185 0.324717
0.655785 0.690089 0.346187
0.757367 0.719557 0.366962
0.837834 0.744579 0.385197
0.895882 0.764125 0.399875
0.933281 0.777960 0.410262
0.954938 0.786353 0.416778
0.966335 0.791564 0.420500
0.971032 0.794826 0.422552
0.971338 0.796276 0.423132
0.258359 0.527020 0.310552
0.270653 0.546549 0.314603
0.276560 0.571949 0.310810
0.287150 0.598477 0.302934
0.357734 0.618297 0.309835
0.459990 0.642580 0.321229
0.568435 0.670997 0.335468
0.675371 0.701391 0.352098
0.770621 0.729496 0.371921
0.847951 0.753967 0.389778
0.904824 0.773758 0.404417
0.942370 0.788108 0.415257
0.964508 0.797227 0.422153
0.972474 0.801544 0.425197
0.972949 0.803288 0.425886
0.973164 0.804635 0.426346
0.276346 0.554452 0.329419
0.282506 0.586000 0.323471
0.293303 0.613290 0.317983
0.356365 0.628055 0.323393
0.430988 0.643683 0.330109
0.519592 0.665044 0.340835
0.613699 0.690715 0.354575
0.705282 0.716979 0.368934
0.789814 0.742213 0.383953
0.861341 0.765407 0.398422
0.915847 0.784950 0.411219
0.952684 0.799444 0.420852
0.973863 0.808302 0.427799
0.974763 0.810694 0.434036
0.975132 0.812258 0.439276
0.974948 0.811383 0.449880
0.021209 0.008544 0.036292
0.048932 0.033591 0.039704
0.078427 0.046821 0.046174
0.113654 0.065055 0.056744
0.164174 0.090050 0.073608
0.236793 0.119568 0.096710
0.326003 0.151433 0.123770
0.420177 0.180283 0.151778
0.507958 0.202414 0.177380
0.578866 0.217869 0.197236
0.632275 0.227670 0.211920
0.669616 0.233231 0.222123
0.692389 0.236295 0.228206
0.708150 0.238693 0.232555
0.720557 0.241447 0.236274
0.729417 0.244551 0.239074
0.055453 0.061434 0.052962
0.065540 0.063498 0.055323
0.088082 0.070007 0.059853
0.123687 0.084196 0.069154
0.176827 0.106387 0.084649
0.251972 0.134600 0.105924
0.346027 0.165522 0.133014
0.443196 0.194433 0.161481
0.531983 0.217065 0.186689
0.605096 0.231795 0.206762
0.657392 0.240385 0.220739
0.691108 0.245474 0.229647
0.713222 0.249240 0.235702
0.727500 0.251925 0.239656
0.737685 0.255248 0.242706
0.746852 0.260993 0.246213
0.073252 0.094970 0.073671
0.082764 0.096517 0.074050
0.101396 0.100876 0.077228
0.135371 0.111705 0.085249
0.190532 0.131077 0.099028
0.269536 0.158157 0.119559
0.367832 0.188476 0.146439
0.468297 0.216386 0.174220
0.558249 0.237683 0.198184
0.630458 0.251886 0.217297
0.681878 0.260758 0.230834
0.714330 0.265792 0.239238
0.734001 0.268705 0.244426
0.747289 0.272415 0.248295
0.757319 0.277574 0.251706
0.764816 0.283119 0.254712
0.085345 0.132864 0.095447
0.095267 0.133953 0.095287
0.113869 0.138545 0.098452
0.148674 0.148537 0.105800
0.205006 0.165095 0.117536
0.286019 0.189670 0.136431
0.388989 0.219004 0.162278
0.492652 0.245763 0.188706
0.583365 0.265712 0.211445
0.653957 0.278953 0.229097
0.704561 0.287721 0.241855
0.736717 0.293097 0.250063
0.754525 0.295881 0.254663
0.767015 0.300642 0.258558
0.776909 0.307427 0.262303
0.783169 0.313727 0.265088
0.092331 0.176050 0.118707
0.095274 0.177365 0.118214
0.120282 0.182174 0.121692
0.160200 0.192753 0.128766
0.218980 0.208774 0.139635
0.301440 0.230949 0.156561
0.408078 0.257745 0.179956
0.514406 0.283002 0.204492
0.605847 0.302102 0.226111
0.676218 0.314221 0.242564
0.725559 0.321887 0.254164
0.756751 0.327017 0.261774
0.774837 0.330797 0.266494
0.786420 0.335799 0.270091
0.795031 0.343182 0.273551
0.801693 0.351631 0.276953
0.120181 0.222318 0.148649
0.118053 0.225491 0.147576
0.121837 0.233141 0.147101
0.165093 0.244865 0.153450
0.231603 0.262883 0.165048
0.320727 0.284843 0.181317
0.428659 0.309272 0.201917
0.535759 0.332026 0.223638
0.628682 0.349400 0.243242
0.699373 0.361118 0.258654
0.747422 0.367903 0.269264
0.777132 0.371806 0.275908
0.795051 0.375588 0.280353
0.805917 0.380663 0.283682
0.813588 0.388434 0.286926
0.820554 0.397996 0.290493
0.143534 0.275556 0.180025
0.145339 0.279255 0.180624
0.150449 0.289885 0.180536
0.158527 0.306776 0.181455
0.242448 0.325038 0.192715
0.340469 0.349094 0.208573
0.450664 0.373879 0.227452
0.558369 0.394557 0.246488
0.652148 0.409697 0.263735
0.722806 0.421179 0.277777
0.770000 0.427733 0.287420
0.798874 0.430362 0.293212
0.816617 0.434424 0.297472
0.826858 0.439903 0.300668
0.833828 0.448184 0.303845
0.840692 0.459912 0.307791
0.173084 0.335987 0.213850
0.178588 0.340430 0.216002
0.180353 0.351547 0.217445
0.189667 0.372060 0.215086
0.246903 0.392866 0.220872
0.353824 0.418514 0.235883
0.469805 0.445041 0.253636
0.580194 0.465879 0.270870
0.673911 0.480047 0.286055
0.745034 0.491731 0.298877
0.792862 0.498847 0.307893
0.821819 0.501627 0.313283
0.839215 0.505289 0.317246
0.848765 0.509573 0.319940
0.855214 0.517428 0.322827
0.862540 0.531338 0.327630
0.201473 0.395805 0.246871
0.204079 0.402519 0.247928
0.208799 0.413118 0.250188
0.218284 0.434911 0.246523
0.241455 0.460343 0.246966
0.360900 0.486756 0.261208
0.484835 0.514800 0.277945
0.599534 0.537721 0.294134
0.693528 0.553250 0.307986
0.765790 0.565331 0.319763
0.816201 0.574085 0.329012
0.847209 0.578815 0.335288
0.864846 0.582839 0.339347
0.874430 0.586087 0.341874
0.881443 0.592737 0.344893
0.889768 0.606520 0.350188
0.222925 0.444452 0.272022
0.226159 0.451922 0.272978
0.230994 0.463217 0.274906
0.239862 0.484158 0.274744
0.253879 0.518068 0.268963
0.373382 0.545429 0.282175
0.500585 0.574495 0.297998
0.617874 0.600170 0.313800
0.715315 0.619643 0.328993
0.790703 0.634929 0.343433
0.842871 0.645145 0.353981
0.875749 0.651810 0.360947
0.895798 0.658398 0.366127
0.906741 0.663665 0.369527
0.913632 0.669452 0.372402
0.920892 0.678735 0.376483
0.237384 0.477608 0.287565
0.241548 0.484807 0.290865
0.249298 0.497339 0.293202
0.260563 0.518646 0.294435
0.270041 0.556895 0.284128
0.386032 0.585887 0.296501
0.515711 0.616368 0.311988
0.634763 0.644875 0.328494
0.736020 0.669417 0.347641
0.814359 0.688718 0.363647
0.868809 0.702294 0.375540
0.903107 0.711138 0.383538
0.924170 0.718395 0.389211
0.935988 0.724283 0.393065
0.942360 0.729400 0.395842
0.947460 0.735271 0.398571
0.245563 0.496718 0.298019
0.250060 0.507474 0.299744
0.256185 0.522249 0.302449
0.266000 0.546249 0.300281
0.279474 0.579844 0.293537
0.395922 0.609575 0.305512
0.526507 0.641060 0.320988
0.647073 0.672155 0.339134
0.749830 0.699513 0.359264
0.831269 0.722690 0.376987
0.889101 0.740451 0.390915
0.924922 0.751966 0.400190
0.944446 0.758349 0.405530
0.954856 0.762589 0.408753
0.961376 0.767257 0.411480
0.966127 0.771732 0.413827
0.250686 0.508706 0.304897
0.255852 0.521161 0.307155
0.262691 0.537682 0.310413
0.272854 0.562880 0.307421
0.285787 0.595217 0.300353
0.407131 0.623741 0.312221
0.533464 0.654775 0.327314
0.654055 0.687046 0.344961
0.760206 0.717232 0.366533
0.842397 0.742246 0.385027
0.900922 0.761614 0.399733
0.938802 0.775191 0.410250
0.959283 0.782806 0.416296
0.969454 0.787692 0.419780
0.970057 0.790373 0.420851
0.970414 0.792130 0.421489
0.257331 0.514059 0.311793
0.266601 0.528924 0.315293
0.267220 0.548553 0.316002
0.277730 0.574657 0.312186
0.290864 0.607614 0.305571
0.422000 0.634251 0.318082
0.545260 0.664354 0.332885
0.664302 0.697247 0.349792
0.768116 0.727812 0.371133
0.850049 0.753278 0.389817
0.908926 0.773480 0.404929
0.946864 0.787830 0.415911
0.968034 0.796711 0.422656
0.972311 0.800941 0.424901
0.972813 0.802758 0.425683
0.972761 0.802593 0.429418
0.260516 0.531557 0.326884
0.269090 0.552566 0.329022
0.278310 0.575519 0.327343
0.289342 0.603369 0.318523
0.351930 0.625847 0.324711
0.459271 0.649894 0.335784
0.572394 0.678309 0.349930
0.682738 0.709687 0.366943
0.778327 0.738357 0.383743
0.856836 0.762966 0.398883
0.915132 0.783310 0.412032
0.952706 0.798106 0.422495
0.973905 0.807189 0.428769
0.974538 0.809857 0.434350
0.974934 0.811661 0.439194
0.974907 0.811051 0.449254
0.273132 0.561378 0.353286
0.284545 0.589841 0.352472
0.296119 0.619218 0.345156
0.335337 0.636494 0.347539
0.421369 0.652597 0.354658
0.513437 0.673767 0.364607
0.611244 0.699361 0.377451
0.706831 0.726420 0.392211
0.793149 0.752483 0.407813
0.864892 0.775264 0.421286
0.920345 0.794735 0.434112
0.958044 0.810334 0.446026
0.976750 0.818839 0.451143
0.977148 0.820163 0.456289
0.977566 0.821817 0.461593
0.977512 0.820981 0.473421
0.015712 0.024788 0.064411
0.048612 0.039439 0.065129
0.080218 0.053326 0.068094
0.116606 0.069701 0.074729
0.167924 0.092220 0.087283
0.241178 0.121920 0.106355
0.332133 0.153335 0.131149
0.428529 0.182189 0.158415
0.517757 0.205143 0.183305
0.589679 0.220401 0.202796
0.643128 0.229361 0.217113
0.679945 0.234058 0.226842
0.703298 0.236696 0.232850
0.719015 0.239329 0.237228
0.730659 0.242459 0.240952
0.739504 0.245651 0.244172
0.055488 0.066313 0.074527
0.067381 0.068227 0.075429
0.091083 0.075796 0.078585
0.127801 0.089171 0.085474
0.180935 0.109040 0.097271
0.256009 0.137232 0.115717
0.353590 0.168985 0.141339
0.454102 0.198164 0.169045
0.543748 0.220368 0.193504
0.616211 0.234544 0.212542
0.668239 0.242834 0.226110
0.702407 0.247685 0.235061
0.724303 0.250779 0.240807
0.738379 0.253468 0.244658
0.748232 0.257102 0.247924
0.756687 0.262249 0.251400
0.072481 0.099318 0.089566
0.082870 0.100543 0.090594
0.103576 0.105395 0.092937
0.138625 0.116029 0.098875
0.193959 0.134306 0.110709
0.274145 0.161494 0.129374
0.375076 0.191971 0.154515
0.477343 0.219794 0.181139
0.568121 0.241165 0.204712
0.640405 0.254873 0.223033
0.691995 0.263064 0.236054
0.724820 0.267866 0.244434
0.744603 0.270781 0.249556
0.757768 0.274604 0.253469
0.767246 0.279755 0.256964
0.774378 0.285287 0.260129
0.081899 0.136942 0.107946
0.093366 0.137825 0.108647
0.114370 0.142904 0.111488
0.150122 0.153191 0.117820
0.208103 0.169437 0.128834
0.292329 0.194056 0.146414
0.395941 0.222742 0.170234
0.499675 0.248805 0.195201
0.591412 0.268964 0.217459
0.664042 0.282874 0.235218
0.715068 0.291390 0.247782
0.746796 0.295893 0.255486
0.764811 0.298932 0.260123
0.777132 0.303496 0.263951
0.786336 0.309823 0.267614
0.792305 0.316305 0.270651
0.094631 0.179755 0.130774
0.095273 0.181109 0.129604
0.118406 0.187014 0.133005
0.160432 0.198223 0.140538
0.222825 0.214038 0.150782
0.309148 0.236484 0.166625
0.415423 0.262434 0.188281
0.521725 0.286659 0.211533
0.614950 0.305938 0.232598
0.687767 0.319342 0.249532
0.737448 0.327169 0.261082
0.767387 0.331155 0.267897
0.785363 0.334582 0.272375
0.796675 0.339553 0.275985
0.804332 0.346677 0.279492
0.810572 0.354862 0.282958
0.124168 0.227237 0.159915
0.120470 0.229722 0.158655
0.124762 0.238405 0.158692
0.164446 0.250749 0.164800
0.235063 0.268241 0.175399
0.327156 0.290861 0.190636
0.434541 0.314468 0.209967
0.542769 0.336395 0.230927
0.638515 0.354951 0.250632
0.710067 0.366464 0.265756
0.758018 0.372334 0.275654
0.787221 0.375465 0.281570
0.804955 0.379130 0.285955
0.815896 0.385286 0.289804
0.822973 0.393814 0.293588
0.829111 0.403138 0.297510
0.148267 0.281832 0.191256
0.148983 0.286129 0.192569
0.153057 0.294602 0.193735
0.161596 0.312667 0.192081
0.242987 0.330916 0.202071
0.343270 0.354374 0.216925
0.455461 0.378616 0.235020
0.565012 0.399246 0.253604
0.660380 0.414637 0.270686
0.731662 0.425580 0.284249
0.779395 0.431434 0.293400
0.808220 0.433915 0.298993
0.825982 0.438903 0.303527
0.836510 0.445677 0.307311
0.843349 0.454465 0.310931
0.849112 0.465740 0.315125
0.177344 0.342620 0.225093
0.179322 0.348802 0.226905
0.188476 0.357970 0.229559
0.192865 0.378514 0.226132
0.244556 0.400681 0.230435
0.354546 0.424741 0.244290
0.474901 0.450794 0.261396
0.587400 0.472334 0.278362
0.681038 0.485894 0.292990
0.753077 0.496995 0.305473
0.801882 0.503998 0.314476
0.831167 0.506949 0.320142
0.848546 0.511548 0.324490
0.858281 0.517207 0.327632
0.864852 0.525304 0.330733
0.871170 0.537234 0.334978
0.207192 0.403022 0.257533
0.207363 0.409359 0.258510
0.215069 0.419827 0.261136
0.221126 0.440932 0.259745
0.235016 0.469601 0.257037
0.363120 0.494832 0.270228
0.490839 0.522815 0.286370
0.607872 0.546676 0.302729
0.702586 0.561897 0.316517
0.775055 0.573505 0.328180
0.826319 0.582486 0.337412
0.858144 0.587646 0.343715
0.875590 0.591452 0.347797
0.885144 0.595862 0.350451
0.892094 0.603004 0.353312
0.898969 0.613689 0.357567
0.226741 0.452797 0.281481
0.229609 0.458595 0.284090
0.239128 0.469523 0.286302
0.243215 0.491660 0.284461
0.257226 0.525790 0.278609
0.375031 0.553879 0.291436
0.506939 0.583602 0.307232
0.626541 0.609668 0.323375
0.725579 0.629440 0.337970
0.802022 0.645259 0.350581
0.855407 0.656632 0.360315
0.888776 0.663968 0.367245
0.907778 0.669438 0.372148
0.918066 0.673721 0.374776
0.924787 0.679407 0.377360
0.931139 0.688747 0.381893
0.240611 0.484713 0.299477
0.244057 0.492928 0.300575
0.249279 0.505472 0.302833
0.258066 0.526715 0.304248
0.273253 0.564356 0.294455
0.385404 0.593756 0.306045
0.519809 0.624579 0.321667
0.642066 0.653941 0.338418
0.745357 0.679050 0.354402
0.825980 0.699387 0.368614
0.882114 0.714190 0.381249
0.916338 0.723524 0.389542
0.936490 0.730290 0.395060
0.946951 0.734687 0.398306
0.952962 0.739476 0.400890
0.958215 0.746413 0.404069
0.248945 0.504217 0.310936
0.252884 0.513637 0.312407
0.258944 0.528265 0.315497
0.268132 0.550763 0.317065
0.282949 0.587882 0.305408
0.393501 0.616822 0.316304
0.528638 0.648221 0.331914
0.652765 0.680416 0.349330
0.757837 0.708530 0.366171
0.841200 0.732518 0.381589
0.900456 0.751092 0.396099
0.936654 0.762771 0.405644
0.956120 0.769359 0.411213
0.966387 0.773984 0.414634
0.967438 0.777443 0.416015
0.967994 0.780779 0.418360
0.259042 0.514466 0.320761
0.258375 0.526327 0.323435
0.265496 0.543901 0.324677
0.274830 0.566985 0.324139
0.288898 0.602389 0.313519
0.403415 0.630956 0.325303
0.536479 0.662491 0.341069
0.660117 0.695615 0.358624
0.766266 0.725810 0.376398
0.850822 0.751574 0.392606
0.911603 0.772107 0.406173
0.949187 0.785914 0.415586
0.968880 0.793273 0.421569
0.971439 0.796489 0.424559
0.971974 0.799043 0.429433
0.972348 0.800736 0.432748
0.259630 0.521208 0.329107
0.268143 0.535744 0.333239
0.269945 0.554372 0.334760
0.280540 0.580911 0.329558
0.293627 0.613904 0.323272
0.416494 0.641650 0.334071
0.545723 0.672216 0.349001
0.666656 0.705154 0.366446
0.771136 0.735707 0.384079
0.855811 0.762272 0.400893
0.917168 0.783628 0.415194
0.955227 0.798158 0.425241
0.973689 0.806157 0.431414
0.974278 0.808957 0.436185
0.974527 0.809744 0.446747
0.974841 0.810849 0.450356
0.270361 0.538397 0.350870
0.272380 0.559526 0.352850
0.280788 0.580389 0.354702
0.292029 0.608835 0.346438
0.331009 0.634151 0.347900
0.450851 0.657830 0.358191
0.568039 0.686315 0.371457
0.680434 0.717405 0.387733
0.778776 0.746362 0.404239
0.859751 0.772122 0.420282
0.919685 0.793260 0.434180
0.958062 0.808204 0.444436
0.976279 0.816818 0.450463
0.976941 0.819344 0.456626
0.977023 0.819240 0.467808
0.977243 0.820176 0.472059
0.277009 0.569409 0.382137
0.287657 0.596018 0.383909
0.299160 0.625257 0.379064
0.307220 0.645528 0.379116
0.405187 0.661773 0.386095
0.502102 0.682755 0.395481
0.604020 0.708311 0.407817
0.703938 0.735818 0.422216
0.792904 0.762317 0.437256
0.866197 0.785669 0.450982
0.922336 0.805477 0.463313
0.960314 0.820680 0.473851
0.979754 0.829623 0.479784
0.980194 0.831592 0.484478
0.980222 0.831224 0.495515
0.980611 0.832416 0.500872
0.038932 0.059747 0.085747
0.043724 0.044062 0.100307
0.079521 0.057122 0.101308
0.117502 0.073266 0.105346
0.170022 0.094286 0.113296
0.244422 0.123467 0.127130
0.336336 0.154639 0.147187
0.435192 0.184308 0.171171
0.526902 0.208380 0.194160
0.599524 0.222807 0.212192
0.653176 0.230734 0.225584
0.690085 0.235023 0.234956
0.713348 0.237063 0.240850
0.728627 0.239449 0.245101
0.738944 0.242649 0.248581
0.746486 0.245553 0.251353
0.050172 0.072287 0.108348
0.065423 0.073289 0.107521
0.091148 0.080486 0.109743
0.129556 0.093218 0.115465
0.183392 0.111717 0.123225
0.259000 0.139334 0.135863
0.359343 0.171505 0.157461
0.462471 0.200933 0.182613
0.553494 0.222853 0.204534
0.626064 0.236996 0.222230
0.677902 0.244865 0.234814
0.711670 0.248770 0.242997
0.733338 0.251456 0.248766
0.747424 0.254783 0.252955
0.756907 0.258982 0.256204
0.764328 0.263441 0.259437
0.065608 0.104208 0.119676
0.078828 0.105325 0.119861
0.102354 0.110706 0.122572
0.140449 0.121783 0.128380
0.196921 0.139186 0.136545
0.277081 0.164357 0.149210
0.381355 0.194905 0.170649
0.485490 0.223104 0.194959
0.576423 0.243999 0.215773
0.649291 0.257539 0.232866
0.701057 0.265465 0.245316
0.734015 0.269965 0.253291
0.753960 0.273295 0.258507
0.766829 0.277281 0.262235
0.775719 0.282320 0.265621
0.782071 0.287815 0.269287
0.084208 0.142157 0.134601
0.084657 0.143833 0.136364
0.110193 0.149152 0.139307
0.149993 0.159375 0.144539
0.210547 0.175315 0.152806
0.296400 0.198840 0.166520
0.402026 0.226917 0.186854
0.506547 0.252605 0.208879
0.598507 0.272113 0.228572
0.672152 0.286076 0.245278
0.723564 0.294427 0.257463
0.755252 0.298448 0.264777
0.774001 0.301916 0.269338
0.785727 0.306500 0.272983
0.793757 0.312456 0.276646
0.799303 0.318882 0.280425
0.103082 0.184930 0.155430
0.099530 0.187668 0.155970
0.106689 0.194314 0.158509
0.156553 0.204595 0.163949
0.223163 0.219882 0.172068
0.313973 0.242905 0.186541
0.421087 0.268514 0.205406
0.527863 0.291389 0.225219
0.622292 0.309603 0.244093
0.695848 0.323172 0.259961
0.745454 0.330937 0.270827
0.775052 0.333946 0.276887
0.792892 0.337350 0.281233
0.803872 0.342743 0.285281
0.811023 0.349719 0.289129
0.816465 0.357291 0.292593
0.126019 0.233642 0.180021
0.126938 0.236149 0.181089
0.128709 0.244866 0.182972
0.155681 0.258092 0.186958
0.232966 0.274510 0.195649
0.329022 0.297087 0.209219
0.439286 0.320961 0.226529
0.549378 0.342582 0.245227
0.645942 0.360160 0.263058
0.717620 0.371042 0.276671
0.765711 0.376678 0.285932
0.794909 0.379921 0.291882
0.812203 0.383753 0.296133
0.822812 0.389949 0.300096
0.829577 0.398259 0.304005
0.834771 0.407210 0.307649
0.151370 0.289965 0.210987
0.153365 0.294040 0.212481
0.160110 0.301367 0.214379
0.165403 0.319513 0.213712
0.237484 0.338209 0.221865
0.339501 0.359731 0.233960
0.457489 0.383962 0.250428
0.571035 0.405883 0.268413
0.666742 0.420882 0.283788
0.738436 0.430907 0.295946
0.786647 0.436870 0.304849
0.815780 0.440104 0.310712
0.832699 0.443938 0.314431
0.842888 0.450992 0.318295
0.849686 0.460696 0.322627
0.854392 0.470987 0.326449
0.181257 0.351941 0.244449
0.183638 0.357105 0.245937
0.187649 0.365775 0.247369
0.196015 0.384451 0.246826
0.233939 0.409544 0.249194
0.349617 0.432207 0.261257
0.476069 0.457892 0.277047
0.592420 0.480277 0.293553
