tools/decompiled/apktool/res/raw/soul.cube
LUT_3D_SIZE 16
0.000000 0.000000 0.000000
0.103765 0.036794 0.036794
0.182469 0.064697 0.064697
0.259488 0.092012 0.092012
0.333019 0.118089 0.118089
0.400159 0.141904 0.141904
0.448555 0.159054 0.159054
0.486216 0.172409 0.172409
0.522128 0.185120 0.185120
0.557629 0.197734 0.197734
0.593225 0.210363 0.210363
0.629508 0.223222 0.223222
0.666166 0.236228 0.236228
0.703655 0.249530 0.249530
0.742016 0.263132 0.263132
0.781757 0.277193 0.277193
0.025596 0.045845 0.025596
0.109152 0.059038 0.043159
0.193429 0.082204 0.071694
0.279319 0.109136 0.101324
0.360080 0.134453 0.129195
0.421842 0.154341 0.150638
0.462614 0.168652 0.165064
0.499793 0.181647 0.178196
0.534976 0.193757 0.190595
0.569367 0.205545 0.202723
0.605006 0.217897 0.215272
0.641449 0.230626 0.228157
0.677967 0.243359 0.241078
0.714988 0.256267 0.254163
0.753292 0.269657 0.267703
0.792821 0.283519 0.281647
0.054937 0.098395 0.054937
0.115195 0.110773 0.064318
0.209847 0.129283 0.085472
0.299581 0.152635 0.116622
0.379623 0.172559 0.143272
0.438619 0.187017 0.162701
0.480283 0.201481 0.177394
0.518506 0.214300 0.190754
0.555183 0.225603 0.203401
0.591225 0.236292 0.215670
0.627087 0.246748 0.227865
0.663360 0.257408 0.240235
0.700471 0.268557 0.252921
0.738251 0.280123 0.265914
0.776600 0.291943 0.279101
0.816094 0.304420 0.292742
0.084805 0.151907 0.084805
0.130323 0.165308 0.095587
0.220912 0.183965 0.100448
0.317285 0.207301 0.130664
0.396564 0.225338 0.158712
0.455786 0.237854 0.178559
0.499510 0.253559 0.194246
0.538463 0.267573 0.208210
0.575594 0.278824 0.221016
0.611854 0.288311 0.233173
0.647703 0.296950 0.245004
0.684120 0.305636 0.256956
0.721132 0.314675 0.269166
0.759096 0.324158 0.281667
0.797774 0.334033 0.294533
0.837585 0.344531 0.307793
0.114152 0.204462 0.114152
0.150869 0.219499 0.124816
0.228112 0.239477 0.142737
0.326922 0.267224 0.146079
0.413787 0.288536 0.172457
0.474687 0.301518 0.194488
0.521521 0.318013 0.211982
0.561669 0.334225 0.227159
0.599226 0.345869 0.240712
0.635549 0.354943 0.253297
0.671404 0.362563 0.265369
0.707667 0.369875 0.277332
0.744389 0.377353 0.289376
0.782374 0.385200 0.301746
0.821025 0.393551 0.314356
0.860899 0.402143 0.327309
0.142844 0.255830 0.142844
0.174841 0.273088 0.154183
0.240519 0.294855 0.171296
0.330745 0.326579 0.192913
0.424758 0.354098 0.193340
0.490842 0.367207 0.208346
0.540717 0.381064 0.225849
0.581608 0.397307 0.241441
0.619596 0.408987 0.255620
0.656358 0.418203 0.269051
0.692855 0.426130 0.282095
0.729291 0.433191 0.294791
0.765976 0.440061 0.307337
0.803806 0.447220 0.320070
0.842477 0.454907 0.332981
0.882326 0.462781 0.346132
0.170879 0.306075 0.170879
0.199693 0.324550 0.182604
0.254683 0.347350 0.198970
0.339979 0.378776 0.223394
0.429290 0.411260 0.238193
0.498809 0.426280 0.233337
0.553062 0.437640 0.241158
0.595467 0.453513 0.254503
0.634574 0.465680 0.267707
0.672293 0.475213 0.280988
0.708727 0.483106 0.294061
0.744678 0.489668 0.306999
0.780998 0.496055 0.319972
0.818272 0.502710 0.333077
0.856284 0.509719 0.346328
0.895579 0.516979 0.359758
0.197827 0.354404 0.197827
0.224217 0.373218 0.209550
0.269814 0.396417 0.225178
0.349833 0.426149 0.247811
0.436038 0.459473 0.273680
0.503561 0.478337 0.275443
0.559489 0.489549 0.269589
0.603948 0.505194 0.275897
0.644370 0.517602 0.283886
0.682157 0.526842 0.293428
0.718324 0.534271 0.304293
0.754400 0.540152 0.316226
0.790924 0.545614 0.328918
0.828001 0.551299 0.342140
0.865874 0.557576 0.355615
0.904794 0.564199 0.369373
0.224034 0.401293 0.224034
0.248786 0.420785 0.235950
0.287478 0.443972 0.250936
0.360886 0.471630 0.271590
0.443351 0.504834 0.296645
0.511895 0.526119 0.314687
0.565329 0.538031 0.310179
0.610274 0.553888 0.309991
0.650660 0.566950 0.311821
0.688158 0.576077 0.314585
0.725460 0.583093 0.319772
0.762590 0.588318 0.327847
0.799772 0.592802 0.338454
0.837357 0.597632 0.350719
0.875444 0.603042 0.363995
0.914159 0.608835 0.377737
0.249263 0.446446 0.249263
0.273525 0.467943 0.262156
0.308099 0.490835 0.276604
0.373186 0.517081 0.295636
0.451140 0.549292 0.319446
0.522525 0.573669 0.339181
0.574702 0.585509 0.350097
0.618287 0.600811 0.351348
0.657019 0.614878 0.350530
0.693514 0.624351 0.347991
0.730830 0.631356 0.346420
0.768904 0.636305 0.347489
0.807381 0.640269 0.352522
0.845822 0.644293 0.361502
0.884183 0.648686 0.372966
0.923362 0.653705 0.386072
0.273295 0.489557 0.273295
0.298433 0.514822 0.288228
0.329676 0.537234 0.302164
0.386488 0.562507 0.319853
0.459844 0.593549 0.342377
0.533401 0.620872 0.363553
0.586498 0.633796 0.375780
0.630030 0.647384 0.387246
0.666235 0.661980 0.392386
0.700490 0.671835 0.389342
0.736652 0.679288 0.383665
0.774227 0.684362 0.378273
0.813059 0.688257 0.376191
0.852396 0.691665 0.378532
0.891844 0.695363 0.385502
0.931602 0.699553 0.395970
0.299191 0.535920 0.299191
0.323400 0.561451 0.314188
0.352155 0.582874 0.327409
0.400416 0.607800 0.344119
0.469553 0.637259 0.365232
0.543770 0.666979 0.387471
0.598664 0.682086 0.400737
0.643097 0.694271 0.411703
0.678624 0.708566 0.422738
0.710970 0.718420 0.428854
0.744725 0.726160 0.425585
0.780604 0.731605 0.417515
0.818372 0.735721 0.409716
0.857590 0.739205 0.405343
0.897885 0.742612 0.405527
0.938441 0.746005 0.410441
0.325719 0.583420 0.325719
0.348357 0.607628 0.339907
0.375126 0.628240 0.352543
0.416100 0.652668 0.368366
0.480570 0.680732 0.388190
0.553744 0.711791 0.410804
0.611312 0.729881 0.425690
0.656723 0.740828 0.436008
0.692078 0.754892 0.446831
0.723852 0.764727 0.455243
0.756115 0.772089 0.461736
0.789620 0.777925 0.458853
0.825257 0.782444 0.449898
0.863129 0.786107 0.440799
0.903064 0.789634 0.434785
0.944396 0.792894 0.433101
0.353602 0.633343 0.353602
0.373237 0.653657 0.365524
0.398853 0.674160 0.378073
0.434238 0.698106 0.393166
0.493600 0.724620 0.411688
0.564065 0.756183 0.434028
0.624815 0.777445 0.450724
0.670679 0.787992 0.460735
0.706255 0.801123 0.471081
0.737537 0.811211 0.479513
0.769137 0.818248 0.486520
0.801457 0.823669 0.492667
0.834594 0.828391 0.490722
0.870120 0.832482 0.481681
0.908696 0.836290 0.471750
0.949428 0.839835 0.464361
0.381367 0.683075 0.381367
0.397740 0.698570 0.390581
0.422957 0.720256 0.403643
0.454047 0.743648 0.418117
0.508470 0.769104 0.435624
0.575654 0.800295 0.457400
0.639024 0.824656 0.475738
0.685441 0.835754 0.485921
0.721178 0.847731 0.495661
0.752087 0.857872 0.503962
0.782934 0.864581 0.510656
0.814694 0.869981 0.516928
0.846637 0.874282 0.522677
0.880109 0.878285 0.521735
0.916307 0.882322 0.512739
0.955332 0.886226 0.502414
0.408611 0.731895 0.408611
0.422320 0.743575 0.415672
0.447677 0.767160 0.429713
0.476147 0.789891 0.443621
0.525383 0.814589 0.460252
0.589296 0.845214 0.481386
0.653973 0.871751 0.500785
0.700869 0.883504 0.511248
0.736848 0.894506 0.520419
0.767300 0.904564 0.528596
0.797481 0.910947 0.535033
0.828606 0.916545 0.541193
0.859843 0.920528 0.546717
0.892254 0.924020 0.552156
0.926390 0.927825 0.552075
0.963331 0.931996 0.543396
0.000453 0.000453 0.001998
0.100433 0.035614 0.035644
0.176552 0.062608 0.062622
0.251819 0.089292 0.089293
0.321202 0.113894 0.113902
0.388678 0.137831 0.137837
0.443842 0.157377 0.157381
0.483571 0.171476 0.171480
0.519676 0.184294 0.184279
0.555504 0.196972 0.196977
0.591260 0.209657 0.209661
0.627619 0.222552 0.222556
0.664585 0.235653 0.235656
0.702392 0.249075 0.249079
0.740384 0.262567 0.262570
0.779800 0.276494 0.276497
0.025210 0.045145 0.025282
0.102315 0.056886 0.040790
0.180643 0.077774 0.067203
0.264759 0.103879 0.096139
0.344010 0.128961 0.123553
0.412384 0.150937 0.147291
0.457381 0.166419 0.163142
0.494505 0.179351 0.176248
0.530279 0.191762 0.188876
0.565797 0.204078 0.201371
0.601348 0.216394 0.213949
0.637372 0.228950 0.226660
0.674185 0.241832 0.239686
0.711741 0.254964 0.252964
0.749933 0.268348 0.266468
0.789235 0.282125 0.280363
0.054029 0.096778 0.054069
0.110020 0.109864 0.065329
0.190602 0.125179 0.078598
0.283985 0.148515 0.111320
0.367781 0.170118 0.139458
0.432515 0.185603 0.160720
0.476962 0.199909 0.176138
0.515532 0.212449 0.189525
0.552177 0.223250 0.202051
0.587831 0.233221 0.214048
0.623255 0.243076 0.225988
0.659189 0.253306 0.238160
0.695598 0.264045 0.250562
0.732608 0.275332 0.263252
0.769757 0.286923 0.276118
0.808619 0.299289 0.289544
0.084342 0.151069 0.084375
0.128954 0.167995 0.096816
0.196215 0.186687 0.107626
0.305122 0.212695 0.127159
0.392626 0.234207 0.158878
0.455466 0.246088 0.180046
0.500724 0.259796 0.195879
0.539423 0.271720 0.209340
0.575905 0.280366 0.221448
0.611067 0.287343 0.232739
0.645743 0.293791 0.243752
0.681031 0.300649 0.254987
0.717264 0.308509 0.266673
0.754540 0.317065 0.278821
0.792507 0.326231 0.291292
0.832061 0.336528 0.304437
0.115023 0.206017 0.115046
0.153588 0.227352 0.129070
0.209836 0.248870 0.145314
0.315195 0.281990 0.156718
0.414925 0.308885 0.175822
0.478719 0.318428 0.197778
0.525597 0.329956 0.214868
0.564385 0.341499 0.229045
0.600407 0.348754 0.241524
0.635219 0.354361 0.253126
0.669598 0.358984 0.264187
0.704513 0.363770 0.275218
0.740210 0.369217 0.286501
0.777292 0.375678 0.298279
0.815500 0.383076 0.310522
0.854816 0.391397 0.323223
0.145198 0.260064 0.145218
0.179679 0.283693 0.160022
0.228120 0.306660 0.175982
0.324310 0.340258 0.202829
0.423659 0.372388 0.205450
0.493820 0.383298 0.212936
0.543655 0.391343 0.228178
0.583254 0.402363 0.242585
0.620194 0.410459 0.255974
0.655864 0.417136 0.268766
0.691199 0.422635 0.281112
0.726671 0.428037 0.293244
0.762945 0.433973 0.305449
0.800473 0.440580 0.317916
0.839053 0.447647 0.330584
0.878435 0.455106 0.343477
0.173412 0.310623 0.173433
0.203715 0.332657 0.187087
0.246896 0.354766 0.202004
0.333821 0.385890 0.226203
0.426116 0.419061 0.246959
0.498596 0.434860 0.239241
0.553912 0.443728 0.243553
0.596240 0.457027 0.255550
0.634903 0.467069 0.268040
0.671932 0.474819 0.280808
0.708150 0.481494 0.293702
0.744039 0.487520 0.306568
0.780425 0.493349 0.319454
0.817639 0.499726 0.332499
0.855937 0.506607 0.345773
0.895243 0.513534 0.359125
0.199969 0.358126 0.199957
0.226237 0.377183 0.211744
0.265107 0.398475 0.225828
0.342908 0.427318 0.247682
0.430912 0.460964 0.273809
0.501993 0.481286 0.278861
0.559135 0.491812 0.271370
0.604080 0.506772 0.276774
0.644433 0.518652 0.284350
0.682215 0.527522 0.293616
0.718328 0.534549 0.304359
0.754456 0.540223 0.316261
0.790891 0.545505 0.328905
0.828013 0.551203 0.342142
0.865949 0.557345 0.355624
0.904942 0.563810 0.369399
0.225137 0.403256 0.225143
0.248894 0.421026 0.236074
0.284309 0.442567 0.249944
0.353539 0.469461 0.269813
0.436695 0.503170 0.295115
0.509446 0.526751 0.314843
0.564454 0.538776 0.311230
0.610276 0.554461 0.310493
0.650767 0.567972 0.312528
0.688182 0.577227 0.315252
0.725338 0.584199 0.320227
0.762687 0.589254 0.328138
0.799800 0.593770 0.338640
0.837419 0.598549 0.350881
0.875514 0.603915 0.364135
0.914346 0.609664 0.377906
0.249256 0.446432 0.249260
0.272721 0.466427 0.261300
0.305159 0.487948 0.274910
0.365769 0.513846 0.293324
0.443811 0.546518 0.317297
0.519207 0.573244 0.338615
0.573461 0.585970 0.350478
0.618188 0.601158 0.351640
0.657035 0.615860 0.351444
0.693398 0.625518 0.349002
0.730794 0.632627 0.347311
0.768770 0.637559 0.348171
0.807339 0.641487 0.353017
0.845757 0.645360 0.361777
0.884213 0.649774 0.373235
0.923381 0.654725 0.386221
0.273050 0.489075 0.273053
0.297505 0.513038 0.287254
0.327538 0.534091 0.300392
0.378957 0.559488 0.317635
0.452449 0.590438 0.340085
0.529308 0.620082 0.362738
0.584873 0.634268 0.375861
0.629672 0.647702 0.387386
0.666242 0.662877 0.393158
0.700468 0.673037 0.390577
0.736592 0.680459 0.384809
0.774210 0.685728 0.379383
0.812929 0.689555 0.377048
0.852316 0.692891 0.379095
0.891876 0.696587 0.385886
0.931504 0.700585 0.396178
0.298901 0.535389 0.298903
0.322450 0.559645 0.313163
0.350445 0.579910 0.325738
0.393499 0.604938 0.342080
0.462482 0.634194 0.363056
0.538862 0.665709 0.386343
0.596833 0.682679 0.400861
0.642725 0.694824 0.411936
0.678670 0.709441 0.423223
0.711060 0.719817 0.429855
0.744780 0.727465 0.426857
0.780540 0.733176 0.418950
0.818338 0.737191 0.411018
0.857500 0.740479 0.406302
0.897588 0.743818 0.406199
0.938488 0.747448 0.410972
0.325739 0.583466 0.325742
0.347315 0.605774 0.338847
0.373673 0.625539 0.351055
0.410931 0.650213 0.366690
0.474424 0.678060 0.386351
0.548497 0.710225 0.409531
0.609603 0.730521 0.425848
0.656275 0.741722 0.436436
0.692267 0.756049 0.447391
0.724065 0.766043 0.455936
0.756317 0.773538 0.462661
0.789770 0.779302 0.460120
0.825126 0.783871 0.451450
0.862947 0.787606 0.442168
0.902744 0.790957 0.435839
0.944087 0.794364 0.433974
0.353597 0.633338 0.353601
0.371944 0.651252 0.364201
0.397719 0.671952 0.376846
0.430535 0.696047 0.391751
0.488497 0.722757 0.410224
0.559399 0.754849 0.432946
0.623330 0.778271 0.450983
0.670416 0.789311 0.461379
0.706584 0.802544 0.471786
0.737778 0.812737 0.480258
0.769289 0.819748 0.487293
0.801688 0.825290 0.493590
0.834639 0.829930 0.492153
0.870221 0.834085 0.483197
0.908490 0.837648 0.473053
0.949350 0.841370 0.465600
0.381460 0.683241 0.381462
0.396129 0.695600 0.388931
0.421980 0.718331 0.402617
0.451705 0.741787 0.416971
0.504065 0.767907 0.434597
0.571897 0.799626 0.456716
0.637779 0.825534 0.476021
0.685369 0.837327 0.486694
0.721548 0.849200 0.496389
0.752388 0.859476 0.504792
0.783285 0.866204 0.511532
0.814916 0.871479 0.517713
0.846792 0.875633 0.523444
0.880109 0.879788 0.523032
0.916156 0.883629 0.514155
0.955356 0.887571 0.503653
0.408842 0.732312 0.408844
0.420431 0.740167 0.413744
0.446655 0.765134 0.428601
0.474353 0.787856 0.442432
0.521101 0.813529 0.459326
0.585750 0.844470 0.480679
0.652825 0.872743 0.501178
0.701005 0.885294 0.512198
0.737356 0.896277 0.521383
0.767700 0.906231 0.529496
0.797996 0.912942 0.536055
0.828836 0.918145 0.542030
0.860121 0.922122 0.547541
0.892594 0.925560 0.552966
0.926439 0.929009 0.553187
0.963296 0.933325 0.544703
0.002083 0.002083 0.009199
0.097764 0.034753 0.035671
0.171640 0.060912 0.061437
0.246470 0.087432 0.087755
0.313486 0.111179 0.111390
0.380282 0.134860 0.134992
0.437765 0.155238 0.155344
0.481632 0.170801 0.170882
0.518210 0.183756 0.183840
0.553840 0.196400 0.196471
0.589443 0.209020 0.209093
0.625852 0.221922 0.221988
0.662601 0.234964 0.235034
0.700129 0.248270 0.248317
0.737514 0.261516 0.261553
0.776778 0.275445 0.275511
0.025111 0.044870 0.026844
0.099946 0.055156 0.041071
0.174136 0.075808 0.065721
0.258475 0.101952 0.094420
0.335513 0.126398 0.120882
0.404942 0.148476 0.144822
0.454575 0.165305 0.162218
0.492608 0.178519 0.175632
0.528751 0.191064 0.188385
0.564099 0.203348 0.200854
0.599477 0.215631 0.213332
0.635502 0.228207 0.226041
0.672218 0.241046 0.239015
0.709665 0.254167 0.252261
0.747932 0.267590 0.265788
0.787479 0.281437 0.279755
0.052788 0.094501 0.053763
0.109121 0.107323 0.064345
0.179961 0.122369 0.075751
0.270521 0.143460 0.106948
0.355452 0.164937 0.135128
0.424389 0.181464 0.157678
0.473824 0.196675 0.174644
0.513379 0.209750 0.188417
0.550070 0.220672 0.200948
0.585386 0.230531 0.212845
0.620570 0.240342 0.224688
0.656078 0.250581 0.236743
0.691805 0.261289 0.248959
0.727792 0.272413 0.261334
0.765094 0.284241 0.274257
0.804113 0.296834 0.287812
0.083334 0.149215 0.084022
0.128820 0.167622 0.097451
0.183360 0.186732 0.112418
0.286755 0.209285 0.121430
0.380282 0.231798 0.154844
0.448912 0.245488 0.178158
0.500977 0.261249 0.196322
0.540991 0.274613 0.210472
0.577688 0.283709 0.222728
0.612854 0.290679 0.234053
0.647405 0.296949 0.244975
0.682591 0.303643 0.256147
0.718547 0.310918 0.267644
0.755166 0.318821 0.279432
0.792897 0.327418 0.291715
0.831598 0.336898 0.304452
0.113983 0.204129 0.114503
0.154548 0.229507 0.130887
0.202416 0.252675 0.147013
0.291470 0.281998 0.164804
0.401293 0.312921 0.173727
0.473902 0.326544 0.197195
0.529457 0.342066 0.217693
0.570805 0.356489 0.233197
0.607795 0.365216 0.246375
0.642928 0.370883 0.258296
0.677304 0.374990 0.269440
0.712048 0.378672 0.280373
0.747214 0.382821 0.291351
0.783500 0.387565 0.302621
0.820717 0.392740 0.314128
0.858801 0.398535 0.325965
0.144453 0.258732 0.144858
0.182955 0.290466 0.164253
0.225968 0.315325 0.180556
0.303789 0.346383 0.203728
0.409169 0.383688 0.219154
0.489671 0.402832 0.220173
0.549687 0.416497 0.234524
0.592892 0.431213 0.249583
0.629736 0.439896 0.262659
0.664759 0.445048 0.275068
0.699364 0.448047 0.287085
0.734326 0.450395 0.298913
0.769947 0.452859 0.310657
0.806600 0.455944 0.322488
0.843905 0.459472 0.334328
0.882068 0.462853 0.346088
0.173177 0.310135 0.173471
0.209642 0.344475 0.193982
0.248880 0.369138 0.209769
0.316366 0.399938 0.231525
0.418047 0.438414 0.261467
0.496999 0.464644 0.264757
0.558651 0.478221 0.261914
0.602461 0.492522 0.269378
0.639648 0.500398 0.277200
0.675466 0.504471 0.286783
0.710879 0.506750 0.297872
0.746050 0.508202 0.309735
0.781822 0.509602 0.321988
0.818570 0.511719 0.334488
0.856109 0.514083 0.346963
0.895362 0.516912 0.359719
0.199830 0.357932 0.200051
0.234161 0.392565 0.220540
0.270248 0.416174 0.235504
0.328711 0.445762 0.255643
0.426641 0.483902 0.284608
0.505453 0.512461 0.306222
0.563226 0.525722 0.299251
0.607502 0.539769 0.299116
0.645345 0.547943 0.299804
0.682618 0.551708 0.302419
0.719105 0.553653 0.309123
0.755463 0.554722 0.318985
0.791572 0.555729 0.330535
0.828498 0.557853 0.343183
0.865967 0.561112 0.356213
0.904856 0.565575 0.369721
0.225172 0.403330 0.225351
0.257685 0.437837 0.245604
0.290911 0.459874 0.259506
0.342088 0.487617 0.277980
0.434016 0.523584 0.304956
0.514166 0.552914 0.328158
0.569073 0.564961 0.334772
0.613095 0.577977 0.331137
0.650662 0.588445 0.328860
0.688005 0.593690 0.325835
0.725510 0.596062 0.325861
0.762931 0.597123 0.330646
0.800133 0.598764 0.339838
0.837557 0.601709 0.351540
0.875533 0.606024 0.364499
0.914121 0.610939 0.378113
0.249851 0.447515 0.249974
0.281069 0.482181 0.270209
0.311313 0.501833 0.282642
0.356919 0.527450 0.299487
0.441076 0.560262 0.323896
0.521381 0.589871 0.347065
0.576905 0.601967 0.359250
0.620610 0.613813 0.362921
0.657342 0.626287 0.361448
0.693405 0.634003 0.356358
0.730754 0.638559 0.351658
0.768870 0.641064 0.350197
0.807177 0.643758 0.353974
0.845724 0.647188 0.362353
0.884238 0.651119 0.373594
0.923282 0.655952 0.386481
0.274358 0.491410 0.274461
0.303848 0.525007 0.293977
0.331324 0.542152 0.304895
0.372734 0.566029 0.320507
0.448705 0.596096 0.342589
0.528084 0.626609 0.365839
0.585733 0.641120 0.379275
0.630723 0.652692 0.390100
0.666679 0.666931 0.396687
0.700651 0.676448 0.393889
0.736614 0.683239 0.387439
0.774139 0.687743 0.381120
0.812863 0.690985 0.378054
0.852106 0.694154 0.379805
0.891597 0.697639 0.386329
0.931368 0.701682 0.396523
0.299788 0.536987 0.299882
0.326076 0.566433 0.317011
0.351888 0.582844 0.327418
0.389773 0.605845 0.342275
0.458381 0.634901 0.363062
0.536047 0.667089 0.386778
0.596501 0.685378 0.402171
0.642978 0.696923 0.413025
0.679048 0.711533 0.424254
0.711323 0.721622 0.431203
0.744964 0.728927 0.428341
0.780673 0.734561 0.420346
0.818265 0.738501 0.412275
0.857427 0.741822 0.407364
0.897575 0.745077 0.407028
0.938473 0.748681 0.411595
0.326016 0.583937 0.326058
0.349008 0.608855 0.340652
0.374111 0.626455 0.351596
0.408460 0.649865 0.366333
0.470909 0.677608 0.385817
0.545761 0.710370 0.409327
0.609043 0.731809 0.426486
0.656458 0.743370 0.437248
0.692482 0.757408 0.448180
0.724301 0.767738 0.456848
0.756474 0.774880 0.463634
0.789874 0.780695 0.461569
0.825144 0.785121 0.452740
0.862961 0.788901 0.443417
0.902709 0.792287 0.437020
0.944006 0.795722 0.434955
0.353061 0.632382 0.353113
0.372531 0.652280 0.364830
0.397526 0.671621 0.376641
0.428519 0.694921 0.391041
0.485076 0.721839 0.409521
0.556863 0.754706 0.432676
0.622773 0.779268 0.451452
0.670679 0.790924 0.462199
0.706822 0.804004 0.472598
0.738094 0.814291 0.481153
0.769738 0.821290 0.488186
0.801957 0.826788 0.494536
0.834898 0.831320 0.493468
0.870142 0.835330 0.484591
0.908458 0.838985 0.474422
0.949340 0.842681 0.466814
0.381265 0.682941 0.381334
0.396153 0.695731 0.388995
0.421548 0.717557 0.402178
0.450418 0.740451 0.416219
0.500549 0.767051 0.433875
0.569292 0.799215 0.456295
0.637226 0.826714 0.476587
0.685597 0.838999 0.487600
0.721887 0.850771 0.497245
0.752664 0.860947 0.505634
0.783616 0.867650 0.512350
0.815158 0.873079 0.518638
0.847013 0.876979 0.524244
0.880303 0.881042 0.524233
0.916133 0.884861 0.515467
0.955292 0.888772 0.504882
0.408873 0.732366 0.408918
0.420308 0.739859 0.413660
0.446290 0.764480 0.428268
0.473386 0.786522 0.441708
0.517782 0.812701 0.458671
0.583104 0.844055 0.480260
0.651924 0.873541 0.501505
0.701227 0.886855 0.512991
0.737631 0.897824 0.522232
0.767911 0.907677 0.530265
0.798207 0.914290 0.536885
0.829199 0.919561 0.542932
0.860309 0.923332 0.548296
0.892712 0.926787 0.553699
0.926574 0.930482 0.554442
0.963350 0.934608 0.546031
0.004950 0.004950 0.021856
0.096841 0.034844 0.040473
0.167603 0.059761 0.063306
0.242020 0.086056 0.088573
0.308758 0.109663 0.111490
0.374476 0.132926 0.134230
0.430868 0.152876 0.153837
0.477232 0.169304 0.170043
0.515752 0.182951 0.183605
0.551528 0.195619 0.196187
0.587211 0.208262 0.208777
0.623403 0.221099 0.221558
0.659944 0.234056 0.234481
0.696954 0.247172 0.247563
0.734389 0.260431 0.260790
0.773608 0.274369 0.274698
0.025521 0.045013 0.035044
0.098921 0.054839 0.047896
0.166939 0.073566 0.068109
0.251061 0.099677 0.095267
0.327922 0.124165 0.120672
0.398161 0.146433 0.144089
0.452990 0.164848 0.162819
0.492541 0.178479 0.176573
0.529220 0.191174 0.189344
0.564901 0.203529 0.201805
0.600398 0.215863 0.214213
0.636474 0.228457 0.226869
0.673316 0.241340 0.239806
0.710344 0.254341 0.252853
0.748262 0.267637 0.266196
0.787431 0.281412 0.280034
0.051732 0.092277 0.057642
0.108417 0.103614 0.067050
0.170865 0.117892 0.079069
0.260771 0.141034 0.108182
0.345545 0.162888 0.134884
0.418041 0.180276 0.157573
0.473312 0.196469 0.175886
0.513298 0.209511 0.189584
0.549981 0.220282 0.201857
0.585189 0.229948 0.213523
0.620136 0.239539 0.225111
0.655420 0.249623 0.236951
0.691206 0.260322 0.249088
0.727527 0.271550 0.261500
0.764568 0.283409 0.274301
0.803054 0.295875 0.287639
0.082382 0.147287 0.086830
0.128290 0.165949 0.101530
0.180498 0.185594 0.116968
0.273552 0.208589 0.123104
0.365888 0.228729 0.153363
0.442179 0.244729 0.178240
0.501682 0.261943 0.198285
0.541819 0.275219 0.212207
0.578213 0.283986 0.224095
0.612766 0.290158 0.234869
0.647115 0.295904 0.245451
0.681921 0.302184 0.256259
0.717675 0.309364 0.267549
0.754177 0.317170 0.279231
0.791453 0.325685 0.291296
0.830146 0.335157 0.304001
0.114184 0.204294 0.117836
0.154893 0.230024 0.135378
0.202035 0.254757 0.152427
0.271959 0.283433 0.173280
0.382482 0.311273 0.174061
0.466523 0.329436 0.197643
0.531340 0.347850 0.220737
0.573736 0.362896 0.236438
0.610566 0.371615 0.249403
0.645219 0.376745 0.260938
0.679246 0.380114 0.271720
0.713628 0.383255 0.282370
0.748862 0.387168 0.293193
0.785145 0.391888 0.304425
0.822298 0.397117 0.315867
0.860806 0.403194 0.327864
0.145912 0.261165 0.148960
0.184026 0.292469 0.168691
0.227643 0.320079 0.186609
0.282088 0.350246 0.206492
0.387597 0.383303 0.229115
0.480446 0.410449 0.226858
0.551358 0.428693 0.239678
0.597428 0.444063 0.254559
0.634887 0.452851 0.267347
0.669807 0.457891 0.279430
0.703940 0.460965 0.291130
0.738400 0.463383 0.302752
0.773439 0.466456 0.314395
0.809654 0.470176 0.326294
0.847126 0.474442 0.338394
0.886064 0.479245 0.350792
0.175766 0.314681 0.178195
0.211364 0.347741 0.198402
0.251888 0.376002 0.216253
0.299690 0.405787 0.235270
0.399740 0.441488 0.262629
0.489279 0.475097 0.279124
0.559298 0.495964 0.275765
0.607470 0.510189 0.280244
0.644905 0.517923 0.286125
0.680791 0.522439 0.294159
0.715757 0.525298 0.304079
0.750194 0.527537 0.315068
0.785162 0.530206 0.326838
0.820862 0.533507 0.339044
0.857958 0.537527 0.351739
0.896305 0.541954 0.364658
0.203030 0.363560 0.204935
0.236054 0.396132 0.224522
0.274348 0.425029 0.242421
0.317230 0.453491 0.260326
0.409325 0.489444 0.286769
0.498979 0.524875 0.313708
0.563963 0.547022 0.320352
0.611916 0.560730 0.316911
