tools/decompiled/apktool/res/raw/soul.cube
LUT_3D_SIZE 6
0.000000 0.000000 0.000000
0.259488 0.092012 0.092012
0.448555 0.159054 0.159054
0.557629 0.197734 0.197734
0.666166 0.236228 0.236228
0.781757 0.277193 0.277193
0.084805 0.151907 0.084805
0.317285 0.207301 0.130664
0.499510 0.253559 0.194246
0.611854 0.288311 0.233173
0.721132 0.314675 0.269166
0.837585 0.344531 0.307793
0.170879 0.306075 0.170879
0.339979 0.378776 0.223394
0.553062 0.437640 0.241158
0.672293 0.475213 0.280988
0.780998 0.496055 0.319972
0.895579 0.516979 0.359758
0.249263 0.446446 0.249263
0.373186 0.517081 0.295636
0.574702 0.585509 0.350097
0.693514 0.624351 0.347991
0.807381 0.640269 0.352522
0.923362 0.653705 0.386072
0.325719 0.583420 0.325719
0.416100 0.652668 0.368366
0.611312 0.729881 0.425690
0.723852 0.764727 0.455243
0.825257 0.782444 0.449898
0.944396 0.792894 0.433101
0.408611 0.731895 0.408611
0.476147 0.789891 0.443621
0.653973 0.871751 0.500785
0.767300 0.904564 0.528596
0.859843 0.920528 0.546717
0.963331 0.931996 0.543396
0.004950 0.004950 0.021856
0.242020 0.086056 0.088573
0.430868 0.152876 0.153837
0.551528 0.195619 0.196187
0.659944 0.234056 0.234481
0.773608 0.274369 0.274698
0.082382 0.147287 0.086830
0.273552 0.208589 0.123104
0.501682 0.261943 0.198285
0.612766 0.290158 0.234869
0.717675 0.309364 0.267549
0.830146 0.335157 0.304001
0.175766 0.314681 0.178195
0.299690 0.405787 0.235270
0.559298 0.495964 0.275765
0.680791 0.522439 0.294159
0.785162 0.530206 0.326838
0.896305 0.541954 0.364658
0.253334 0.453681 0.254443
0.353028 0.539783 0.306441
0.579988 0.630397 0.373753
0.696327 0.659789 0.380557
0.807488 0.666026 0.365142
0.923358 0.669458 0.389310
0.329907 0.590873 0.330462
0.412575 0.665024 0.374766
0.615070 0.751873 0.437199
0.726377 0.777541 0.462321
0.825295 0.790063 0.457966
0.943864 0.797823 0.436709
0.409554 0.733584 0.409860
0.474257 0.788650 0.442990
0.651478 0.875332 0.502497
0.768468 0.909362 0.531448
0.860480 0.924690 0.549341
0.963387 0.935902 0.547742
0.019310 0.019310 0.085262
0.231168 0.084702 0.123668
0.420925 0.151469 0.175975
0.543013 0.194197 0.211978
0.651318 0.232243 0.246071
0.766489 0.272845 0.284261
0.082370 0.142160 0.143995
0.231182 0.189193 0.196765
0.484731 0.255986 0.250037
0.604256 0.286336 0.277888
0.710257 0.305318 0.299844
0.823175 0.330697 0.327673
0.180602 0.320061 0.230038
0.298363 0.413511 0.305675
0.553896 0.523067 0.363206
0.693124 0.547696 0.371262
0.800148 0.557170 0.393471
0.911799 0.570438 0.421085
0.263017 0.468931 0.296833
0.361511 0.557219 0.364437
0.579378 0.665265 0.436860
0.715993 0.696398 0.452002
0.827366 0.706030 0.431778
0.944873 0.715306 0.446009
0.340648 0.608771 0.363454
0.424852 0.689138 0.419082
0.614226 0.792854 0.485881
0.750886 0.826351 0.515640
0.846248 0.836653 0.520901
0.960542 0.844553 0.492430
0.422148 0.755116 0.438174
0.489162 0.817002 0.476551
0.648690 0.914417 0.536482
0.790204 0.954664 0.573017
0.879270 0.963602 0.587652
0.978884 0.971859 0.592363
0.041232 0.041232 0.182040
0.227982 0.090310 0.211981
0.412490 0.152645 0.246811
0.536047 0.195697 0.273261
0.646476 0.234582 0.300093
0.764297 0.275995 0.332707
0.091314 0.144342 0.248525
0.228360 0.175975 0.303682
0.463730 0.233270 0.346164
0.591644 0.270723 0.369331
0.697904 0.293425 0.380507
0.811070 0.322697 0.397125
0.183429 0.314811 0.335647
0.297237 0.399060 0.421810
0.543440 0.513953 0.489008
0.681623 0.547291 0.515541
0.787630 0.558289 0.529033
0.900701 0.571034 0.545210
0.270449 0.474481 0.398903
0.367070 0.559748 0.480177
0.578429 0.671605 0.550315
0.718624 0.704759 0.571952
0.830943 0.714654 0.568573
0.943645 0.726630 0.589254
0.348387 0.616654 0.452453
0.429799 0.691603 0.523212
0.608282 0.801004 0.594989
0.754819 0.838187 0.626987
0.852594 0.848734 0.634453
0.968566 0.858460 0.616459
0.429637 0.763739 0.516518
0.491884 0.816377 0.563673
0.642349 0.929109 0.641767
0.798803 0.972704 0.678086
0.890767 0.981420 0.688715
0.991106 0.991106 0.694919
0.071325 0.071325 0.314918
0.230961 0.107315 0.347335
0.412630 0.162779 0.376478
0.535495 0.203239 0.394448
0.648987 0.241784 0.413826
0.766101 0.282294 0.437887
0.111668 0.156744 0.385515
0.235905 0.180104 0.442240
0.456523 0.227352 0.479504
0.582485 0.260316 0.490542
0.691911 0.290476 0.499731
0.805568 0.322313 0.505249
0.192547 0.312732 0.478039
0.301443 0.389173 0.575317
0.537549 0.499603 0.643506
0.674109 0.535202 0.664471
0.779716 0.545482 0.672095
0.892555 0.554963 0.680909
0.277046 0.471842 0.537148
0.375324 0.561177 0.634677
0.588527 0.678313 0.703784
0.721771 0.709343 0.726922
0.821955 0.721950 0.738415
0.930039 0.736153 0.752068
0.357230 0.620791 0.586238
0.437844 0.694672 0.667416
0.616454 0.806623 0.738696
0.758941 0.842448 0.765655
0.856500 0.852613 0.773630
0.970864 0.861510 0.775156
0.437221 0.767610 0.639715
0.499173 0.819771 0.696721
0.645578 0.932482 0.777487
0.801859 0.976353 0.809647
0.894858 0.984756 0.819300
0.994546 0.994546 0.828078
0.111381 0.111381 0.491778
0.247407 0.140210 0.533288
0.423365 0.186542 0.561007
0.542171 0.221646 0.571949
0.654400 0.256929 0.583730
0.770394 0.294890 0.599064
0.143334 0.179454 0.558168
0.252469 0.199210 0.613900
0.454799 0.240227 0.651708
0.581510 0.270023 0.651235
0.689392 0.298892 0.654309
0.804122 0.331934 0.660577
0.213812 0.319961 0.664500
0.314345 0.385322 0.775720
0.537644 0.483818 0.842960
0.672397 0.518205 0.858676
0.775620 0.526516 0.861915
0.887486 0.537532 0.866589
0.293926 0.477234 0.730497
0.391354 0.568283 0.843945
0.600554 0.687420 0.902030
0.730331 0.717250 0.917045
0.829018 0.729531 0.925600
0.936091 0.743407 0.936091
0.373492 0.629005 0.779294
0.451921 0.700643 0.867724
0.630019 0.815556 0.929603
0.768225 0.849577 0.947272
0.863034 0.859341 0.955505
0.965613 0.870857 0.965613
0.450984 0.774313 0.822503
0.513036 0.827510 0.889131
0.659056 0.940136 0.959795
0.810167 0.982240 0.982276
0.901871 0.990392 0.990392
1.000034 1.000034 1.000034
