tools/decompiled/apktool/res/raw/sunrise.cube
LUT_3D_SIZE 6
0.000000 0.000000 0.000000
0.214787 0.000000 0.000000
0.429575 0.000000 0.000000
0.644362 0.000000 0.000000
0.859150 0.000000 0.000000
1.073937 0.000000 0.000000
0.000000 0.200000 0.000000
0.214787 0.200000 0.000000
0.429575 0.200000 0.000000
0.644362 0.200000 0.000000
0.859150 0.200000 0.000000
1.073937 0.200000 0.000000
0.000000 0.400000 0.000000
0.214787 0.400000 0.000000
0.429575 0.400000 0.000000
0.644362 0.400000 0.000000
0.859150 0.400000 0.000000
1.073937 0.400000 0.000000
0.000000 0.600000 0.000000
0.214787 0.600000 0.000000
0.429575 0.600000 0.000000
0.644362 0.600000 0.000000
0.859150 0.600000 0.000000
1.073937 0.600000 0.000000
0.000000 0.800000 0.000000
0.214787 0.800000 0.000000
0.429575 0.800000 0.000000
0.644362 0.800000 0.000000
0.859150 0.800000 0.000000
1.073937 0.800000 0.000000
0.000000 1.000000 0.000000
0.214787 1.000000 0.000000
0.429575 1.000000 0.000000
0.644362 1.000000 0.000000
0.859150 1.000000 0.000000
1.073937 1.000000 0.000000
0.000000 0.000000 0.186231
0.214787 0.000000 0.186231
0.429575 0.000000 0.186231
0.644362 0.000000 0.186231
0.859150 0.000000 0.186231
1.073937 0.000000 0.186231
0.000000 0.200000 0.186231
0.214787 0.200000 0.186231
0.429575 0.200000 0.186231
0.644362 0.200000 0.186231
0.859150 0.200000 0.186231
1.073937 0.200000 0.186231
0.000000 0.400000 0.186231
0.214787 0.400000 0.186231
0.429575 0.400000 0.186231
0.644362 0.400000 0.186231
0.859150 0.400000 0.186231
1.073937 0.400000 0.186231
0.000000 0.600000 0.186231
0.214787 0.600000 0.186231
0.429575 0.600000 0.186231
0.644362 0.600000 0.186231
0.859150 0.600000 0.186231
1.073937 0.600000 0.186231
0.000000 0.800000 0.186231
0.214787 0.800000 0.186231
0.429575 0.800000 0.186231
0.644362 0.800000 0.186231
0.859150 0.800000 0.186231
1.073937 0.800000 0.186231
0.000000 1.000000 0.186231
0.214787 1.000000 0.186231
0.429575 1.000000 0.186231
0.644362 1.000000 0.186231
0.859150 1.000000 0.186231
1.073937 1.000000 0.186231
0.000000 0.000000 0.372461
0.214787 0.000000 0.372461
0.429575 0.000000 0.372461
0.644362 0.000000 0.372461
0.859150 0.000000 0.372461
1.073937 0.000000 0.372461
0.000000 0.200000 0.372461
0.214787 0.200000 0.372461
0.429575 0.200000 0.372461
0.644362 0.200000 0.372461
0.859150 0.200000 0.372461
1.073937 0.200000 0.372461
0.000000 0.400000 0.372461
0.214787 0.400000 0.372461
0.429575 0.400000 0.372461
0.644362 0.400000 0.372461
0.859150 0.400000 0.372461
1.073937 0.400000 0.372461
0.000000 0.600000 0.372461
0.214787 0.600000 0.372461
0.429575 0.600000 0.372461
0.644362 0.600000 0.372461
0.859150 0.600000 0.372461
1.073937 0.600000 0.372461
0.000000 0.800000 0.372461
0.214787 0.800000 0.372461
0.429575 0.800000 0.372461
0.644362 0.800000 0.372461
0.859150 0.800000 0.372461
1.073937 0.800000 0.372461
0.000000 1.000000 0.372461
0.214787 1.000000 0.372461
0.429575 1.000000 0.372461
0.644362 1.000000 0.372461
0.859150 1.000000 0.372461
1.073937 1.000000 0.372461
0.000000 0.000000 0.558692
0.214787 0.000000 0.558692
0.429575 0.000000 0.558692
0.644362 0.000000 0.558692
0.859150 0.000000 0.558692
1.073937 0.000000 0.558692
0.000000 0.200000 0.558692
0.214787 0.200000 0.558692
0.429575 0.200000 0.558692
0.644362 0.200000 0.558692
0.859150 0.200000 0.558692
1.073937 0.200000 0.558692
0.000000 0.400000 0.558692
0.214787 0.400000 0.558692
0.429575 0.400000 0.558692
0.644362 0.400000 0.558692
0.859150 0.400000 0.558692
1.073937 0.400000 0.558692
0.000000 0.600000 0.558692
0.214787 0.600000 0.558692
0.429575 0.600000 0.558692
0.644362 0.600000 0.558692
0.859150 0.600000 0.558692
1.073937 0.600000 0.558692
0.000000 0.800000 0.558692
0.214787 0.800000 0.558692
0.429575 0.800000 0.558692
0.644362 0.800000 0.558692
0.859150 0.800000 0.558692
1.073937 0.800000 0.558692
0.000000 1.000000 0.558692
0.214788 1.000000 0.558692
0.429575 1.000000 0.558692
0.644362 1.000000 0.558692
0.859150 1.000000 0.558692
1.073937 1.000000 0.558692
0.000000 0.000000 0.744922
0.214787 0.000000 0.744922
0.429575 0.000000 0.744922
0.644362 0.000000 0.744922
0.859150 0.000000 0.744922
1.073937 0.000000 0.744922
0.000000 0.200000 0.744922
0.214787 0.200000 0.744922
0.429575 0.200000 0.744922
0.644362 0.200000 0.744922
0.859150 0.200000 0.744922
1.073937 0.200000 0.744922
0.000000 0.400000 0.744922
0.214787 0.400000 0.744922
0.429575 0.400000 0.744922
0.644362 0.400000 0.744922
0.859150 0.400000 0.744922
1.073937 0.400000 0.744922
0.000000 0.600000 0.744922
0.214787 0.600000 0.744922
0.429575 0.600000 0.744922
0.644362 0.600000 0.744922
0.859150 0.600000 0.744922
1.073937 0.600000 0.744922
0.000000 0.800000 0.744922
0.214787 0.800000 0.744922
0.429575 0.800000 0.744922
0.644362 0.800000 0.744922
0.859150 0.800000 0.744922
1.073937 0.800000 0.744922
0.000000 1.000000 0.744922
0.214788 1.000000 0.744922
0.429575 1.000000 0.744922
0.644362 1.000000 0.744922
0.859150 1.000000 0.744922
1.073937 1.000000 0.744922
0.000000 0.000000 0.931153
0.214787 0.000000 0.931153
0.429575 0.000000 0.931153
0.644362 0.000000 0.931153
0.859150 0.000000 0.931153
1.073937 0.000000 0.931153
0.000000 0.200000 0.931153
0.214787 0.200000 0.931153
0.429575 0.200000 0.931153
0.644362 0.200000 0.931153
0.859150 0.200000 0.931153
1.073937 0.200000 0.931153
0.000000 0.400000 0.931153
0.214787 0.400000 0.931153
0.429575 0.400000 0.931153
0.644362 0.400000 0.931153
0.859150 0.400000 0.931153
1.073937 0.400000 0.931153
0.000000 0.600000 0.931153
0.214787 0.600000 0.931153
0.429575 0.600000 0.931153
0.644362 0.600000 0.931153
0.859150 0.600000 0.931153
1.073937 0.600000 0.931153
0.000000 0.800000 0.931153
0.214787 0.800000 0.931153
0.429575 0.800000 0.931153
0.644362 0.800000 0.931153
0.859150 0.800000 0.931153
1.073937 0.800000 0.931153
0.000000 1.000000 0.931153
0.214787 1.000000 0.931153
0.429575 1.000000 0.931153
0.644362 1.000000 0.931153
0.859150 1.000000 0.931153
1.073937 1.000000 0.931153
