tools/decompiled/apktool/res/raw/sunrise.cube
LUT_3D_SIZE 16
0.000000 0.000000 0.000000
0.071596 0.000000 0.000000
0.143192 0.000000 0.000000
0.214787 0.000000 0.000000
0.286383 0.000000 0.000000
0.357979 0.000000 0.000000
0.429575 0.000000 0.000000
0.501171 0.000000 0.000000
0.572767 0.000000 0.000000
0.644362 0.000000 0.000000
0.715958 0.000000 0.000000
0.787554 0.000000 0.000000
0.859150 0.000000 0.000000
0.930746 0.000000 0.000000
1.002342 0.000000 0.000000
1.073937 0.000000 0.000000
0.000000 0.066667 0.000000
0.071596 0.066667 0.000000
0.143192 0.066667 0.000000
0.214787 0.066667 0.000000
0.286383 0.066667 0.000000
0.357979 0.066667 0.000000
0.429575 0.066667 0.000000
0.501171 0.066667 0.000000
0.572767 0.066667 0.000000
0.644362 0.066667 0.000000
0.715958 0.066667 0.000000
0.787554 0.066667 0.000000
0.859150 0.066667 0.000000
0.930746 0.066667 0.000000
1.002342 0.066667 0.000000
1.073937 0.066667 0.000000
0.000000 0.133333 0.000000
0.071596 0.133333 0.000000
0.143192 0.133333 0.000000
0.214787 0.133333 0.000000
0.286383 0.133333 0.000000
0.357979 0.133333 0.000000
0.429575 0.133333 0.000000
0.501171 0.133333 0.000000
0.572767 0.133333 0.000000
0.644362 0.133333 0.000000
0.715958 0.133333 0.000000
0.787554 0.133333 0.000000
0.859150 0.133333 0.000000
0.930746 0.133333 0.000000
1.002342 0.133333 0.000000
1.073937 0.133333 0.000000
0.000000 0.200000 0.000000
0.071596 0.200000 0.000000
0.143192 0.200000 0.000000
0.214787 0.200000 0.000000
0.286383 0.200000 0.000000
0.357979 0.200000 0.000000
0.429575 0.200000 0.000000
0.501171 0.200000 0.000000
0.572767 0.200000 0.000000
0.644362 0.200000 0.000000
0.715958 0.200000 0.000000
0.787554 0.200000 0.000000
0.859150 0.200000 0.000000
0.930746 0.200000 0.000000
1.002342 0.200000 0.000000
1.073937 0.200000 0.000000
0.000000 0.266667 0.000000
0.071596 0.266667 0.000000
0.143192 0.266667 0.000000
0.214787 0.266667 0.000000
0.286383 0.266667 0.000000
0.357979 0.266667 0.000000
0.429575 0.266667 0.000000
0.501171 0.266667 0.000000
0.572767 0.266667 0.000000
0.644362 0.266667 0.000000
0.715958 0.266667 0.000000
0.787554 0.266667 0.000000
0.859150 0.266667 0.000000
0.930746 0.266667 0.000000
1.002342 0.266667 0.000000
1.073937 0.266667 0.000000
0.000000 0.333333 0.000000
0.071596 0.333333 0.000000
0.143192 0.333333 0.000000
0.214787 0.333333 0.000000
0.286383 0.333333 0.000000
0.357979 0.333333 0.000000
0.429575 0.333333 0.000000
0.501171 0.333333 0.000000
0.572767 0.333333 0.000000
0.644362 0.333333 0.000000
0.715958 0.333333 0.000000
0.787554 0.333333 0.000000
0.859150 0.333333 0.000000
0.930746 0.333333 0.000000
1.002342 0.333333 0.000000
1.073937 0.333333 0.000000
0.000000 0.400000 0.000000
0.071596 0.400000 0.000000
0.143192 0.400000 0.000000
0.214787 0.400000 0.000000
0.286383 0.400000 0.000000
0.357979 0.400000 0.000000
0.429575 0.400000 0.000000
0.501171 0.400000 0.000000
0.572767 0.400000 0.000000
0.644362 0.400000 0.000000
0.715958 0.400000 0.000000
0.787554 0.400000 0.000000
0.859150 0.400000 0.000000
0.930746 0.400000 0.000000
1.002342 0.400000 0.000000
1.073937 0.400000 0.000000
0.000000 0.466667 0.000000
0.071596 0.466667 0.000000
0.143192 0.466667 0.000000
0.214787 0.466667 0.000000
0.286383 0.466667 0.000000
0.357979 0.466667 0.000000
0.429575 0.466667 0.000000
0.501171 0.466667 0.000000
0.572767 0.466667 0.000000
0.644362 0.466667 0.000000
0.715958 0.466667 0.000000
0.787554 0.466667 0.000000
0.859150 0.466667 0.000000
0.930746 0.466667 0.000000
1.002342 0.466667 0.000000
1.073937 0.466667 0.000000
0.000000 0.533333 0.000000
0.071596 0.533333 0.000000
0.143192 0.533333 0.000000
0.214787 0.533333 0.000000
0.286383 0.533333 0.000000
0.357979 0.533333 0.000000
0.429575 0.533333 0.000000
0.501171 0.533333 0.000000
0.572767 0.533333 0.000000
0.644362 0.533333 0.000000
0.715958 0.533333 0.000000
0.787554 0.533333 0.000000
0.859150 0.533333 0.000000
0.930746 0.533333 0.000000
1.002342 0.533333 0.000000
1.073937 0.533333 0.000000
0.000000 0.600000 0.000000
0.071596 0.600000 0.000000
0.143192 0.600000 0.000000
0.214787 0.600000 0.000000
0.286383 0.600000 0.000000
0.357979 0.600000 0.000000
0.429575 0.600000 0.000000
0.501171 0.600000 0.000000
0.572767 0.600000 0.000000
0.644362 0.600000 0.000000
0.715958 0.600000 0.000000
0.787554 0.600000 0.000000
0.859150 0.600000 0.000000
0.930746 0.600000 0.000000
1.002342 0.600000 0.000000
1.073937 0.600000 0.000000
0.000000 0.666667 0.000000
0.071596 0.666667 0.000000
0.143192 0.666667 0.000000
0.214787 0.666667 0.000000
0.286383 0.666667 0.000000
0.357979 0.666667 0.000000
0.429575 0.666667 0.000000
0.501171 0.666667 0.000000
0.572767 0.666667 0.000000
0.644362 0.666667 0.000000
0.715958 0.666667 0.000000
0.787554 0.666667 0.000000
0.859150 0.666667 0.000000
0.930746 0.666667 0.000000
1.002342 0.666667 0.000000
1.073937 0.666667 0.000000
0.000000 0.733333 0.000000
0.071596 0.733333 0.000000
0.143192 0.733333 0.000000
0.214787 0.733333 0.000000
0.286383 0.733333 0.000000
0.357979 0.733333 0.000000
0.429575 0.733333 0.000000
0.501171 0.733333 0.000000
0.572767 0.733333 0.000000
0.644362 0.733333 0.000000
0.715958 0.733333 0.000000
0.787554 0.733333 0.000000
0.859150 0.733333 0.000000
0.930746 0.733333 0.000000
1.002342 0.733333 0.000000
1.073937 0.733333 0.000000
0.000000 0.800000 0.000000
0.071596 0.800000 0.000000
0.143192 0.800000 0.000000
0.214787 0.800000 0.000000
0.286383 0.800000 0.000000
0.357979 0.800000 0.000000
0.429575 0.800000 0.000000
0.501171 0.800000 0.000000
0.572767 0.800000 0.000000
0.644362 0.800000 0.000000
0.715958 0.800000 0.000000
0.787554 0.800000 0.000000
0.859150 0.800000 0.000000
0.930746 0.800000 0.000000
1.002342 0.800000 0.000000
1.073937 0.800000 0.000000
0.000000 0.866667 0.000000
0.071596 0.866667 0.000000
0.143192 0.866667 0.000000
0.214787 0.866667 0.000000
0.286383 0.866667 0.000000
0.357979 0.866667 0.000000
0.429575 0.866667 0.000000
0.501171 0.866667 0.000000
0.572767 0.866667 0.000000
0.644362 0.866667 0.000000
0.715958 0.866667 0.000000
0.787554 0.866667 0.000000
0.859150 0.866667 0.000000
0.930746 0.866667 0.000000
1.002342 0.866667 0.000000
1.073937 0.866667 0.000000
0.000000 0.933333 0.000000
0.071596 0.933333 0.000000
0.143192 0.933333 0.000000
0.214787 0.933333 0.000000
0.286383 0.933333 0.000000
0.357979 0.933333 0.000000
0.429575 0.933333 0.000000
0.501171 0.933333 0.000000
0.572767 0.933333 0.000000
0.644362 0.933333 0.000000
0.715958 0.933333 0.000000
0.787554 0.933333 0.000000
0.859150 0.933333 0.000000
0.930746 0.933333 0.000000
1.002342 0.933333 0.000000
1.073937 0.933333 0.000000
0.000000 1.000000 0.000000
0.071596 1.000000 0.000000
0.143192 1.000000 0.000000
0.214787 1.000000 0.000000
0.286383 1.000000 0.000000
0.357979 1.000000 0.000000
0.429575 1.000000 0.000000
0.501171 1.000000 0.000000
0.572767 1.000000 0.000000
0.644362 1.000000 0.000000
0.715958 1.000000 0.000000
0.787554 1.000000 0.000000
0.859150 1.000000 0.000000
0.930746 1.000000 0.000000
1.002342 1.000000 0.000000
1.073937 1.000000 0.000000
0.000000 0.000000 0.062077
0.071596 0.000000 0.062077
0.143192 0.000000 0.062077
0.214787 0.000000 0.062077
0.286383 0.000000 0.062077
0.357979 0.000000 0.062077
0.429575 0.000000 0.062077
0.501171 0.000000 0.062077
0.572767 0.000000 0.062077
0.644362 0.000000 0.062077
0.715958 0.000000 0.062077
0.787554 0.000000 0.062077
0.859150 0.000000 0.062077
0.930746 0.000000 0.062077
1.002342 0.000000 0.062077
1.073937 0.000000 0.062077
0.000000 0.066667 0.062077
0.071596 0.066667 0.062077
0.143192 0.066667 0.062077
0.214787 0.066667 0.062077
0.286383 0.066667 0.062077
0.357979 0.066667 0.062077
0.429575 0.066667 0.062077
0.501171 0.066667 0.062077
0.572767 0.066667 0.062077
0.644362 0.066667 0.062077
0.715958 0.066667 0.062077
0.787554 0.066667 0.062077
0.859150 0.066667 0.062077
0.930746 0.066667 0.062077
1.002342 0.066667 0.062077
1.073937 0.066667 0.062077
0.000000 0.133333 0.062077
0.071596 0.133333 0.062077
0.143192 0.133333 0.062077
0.214787 0.133333 0.062077
0.286383 0.133333 0.062077
0.357979 0.133333 0.062077
0.429575 0.133333 0.062077
0.501171 0.133333 0.062077
0.572767 0.133333 0.062077
0.644362 0.133333 0.062077
0.715958 0.133333 0.062077
0.787554 0.133333 0.062077
0.859150 0.133333 0.062077
0.930746 0.133333 0.062077
1.002342 0.133333 0.062077
1.073937 0.133333 0.062077
0.000000 0.200000 0.062077
0.071596 0.200000 0.062077
0.143192 0.200000 0.062077
0.214787 0.200000 0.062077
0.286383 0.200000 0.062077
0.357979 0.200000 0.062077
0.429575 0.200000 0.062077
0.501171 0.200000 0.062077
0.572767 0.200000 0.062077
0.644362 0.200000 0.062077
0.715958 0.200000 0.062077
0.787554 0.200000 0.062077
0.859150 0.200000 0.062077
0.930746 0.200000 0.062077
1.002342 0.200000 0.062077
1.073937 0.200000 0.062077
0.000000 0.266667 0.062077
0.071596 0.266667 0.062077
0.143192 0.266667 0.062077
0.214787 0.266667 0.062077
0.286383 0.266667 0.062077
0.357979 0.266667 0.062077
0.429575 0.266667 0.062077
0.501171 0.266667 0.062077
0.572767 0.266667 0.062077
0.644362 0.266667 0.062077
0.715958 0.266667 0.062077
0.787554 0.266667 0.062077
0.859150 0.266667 0.062077
0.930746 0.266667 0.062077
1.002342 0.266667 0.062077
1.073937 0.266667 0.062077
0.000000 0.333333 0.062077
0.071596 0.333333 0.062077
0.143192 0.333333 0.062077
0.214787 0.333333 0.062077
0.286383 0.333333 0.062077
0.357979 0.333333 0.062077
0.429575 0.333333 0.062077
0.501171 0.333333 0.062077
0.572767 0.333333 0.062077
0.644362 0.333333 0.062077
0.715958 0.333333 0.062077
0.787554 0.333333 0.062077
0.859150 0.333333 0.062077
0.930746 0.333333 0.062077
1.002342 0.333333 0.062077
1.073937 0.333333 0.062077
0.000000 0.400000 0.062077
0.071596 0.400000 0.062077
0.143192 0.400000 0.062077
0.214787 0.400000 0.062077
0.286383 0.400000 0.062077
0.357979 0.400000 0.062077
0.429575 0.400000 0.062077
0.501171 0.400000 0.062077
0.572767 0.400000 0.062077
0.644362 0.400000 0.062077
0.715958 0.400000 0.062077
0.787554 0.400000 0.062077
0.859150 0.400000 0.062077
0.930746 0.400000 0.062077
1.002342 0.400000 0.062077
1.073937 0.400000 0.062077
0.000000 0.466667 0.062077
0.071596 0.466667 0.062077
0.143192 0.466667 0.062077
0.214787 0.466667 0.062077
0.286383 0.466667 0.062077
0.357979 0.466667 0.062077
0.429575 0.466667 0.062077
0.501171 0.466667 0.062077
0.572767 0.466667 0.062077
0.644362 0.466667 0.062077
0.715958 0.466667 0.062077
0.787554 0.466667 0.062077
0.859150 0.466667 0.062077
0.930746 0.466667 0.062077
1.002342 0.466667 0.062077
1.073937 0.466667 0.062077
0.000000 0.533333 0.062077
0.071596 0.533333 0.062077
0.143192 0.533333 0.062077
0.214787 0.533333 0.062077
0.286383 0.533333 0.062077
0.357979 0.533333 0.062077
0.429575 0.533333 0.062077
0.501171 0.533333 0.062077
0.572767 0.533333 0.062077
0.644362 0.533333 0.062077
0.715958 0.533333 0.062077
0.787554 0.533333 0.062077
0.859150 0.533333 0.062077
0.930746 0.533333 0.062077
1.002342 0.533333 0.062077
1.073937 0.533333 0.062077
0.000000 0.600000 0.062077
0.071596 0.600000 0.062077
0.143192 0.600000 0.062077
0.214787 0.600000 0.062077
0.286383 0.600000 0.062077
0.357979 0.600000 0.062077
0.429575 0.600000 0.062077
0.501171 0.600000 0.062077
0.572767 0.600000 0.062077
0.644362 0.600000 0.062077
0.715958 0.600000 0.062077
0.787554 0.600000 0.062077
0.859150 0.600000 0.062077
0.930746 0.600000 0.062077
1.002342 0.600000 0.062077
1.073937 0.600000 0.062077
0.000000 0.666667 0.062077
0.071596 0.666667 0.062077
0.143192 0.666667 0.062077
0.214787 0.666667 0.062077
0.286383 0.666667 0.062077
0.357979 0.666667 0.062077
0.429575 0.666667 0.062077
0.501171 0.666667 0.062077
0.572767 0.666667 0.062077
0.644362 0.666667 0.062077
0.715958 0.666667 0.062077
0.787554 0.666667 0.062077
0.859150 0.666667 0.062077
0.930746 0.666667 0.062077
1.002342 0.666667 0.062077
1.073937 0.666667 0.062077
0.000000 0.733333 0.062077
0.071596 0.733333 0.062077
0.143192 0.733333 0.062077
0.214787 0.733333 0.062077
0.286383 0.733333 0.062077
0.357979 0.733333 0.062077
0.429575 0.733333 0.062077
0.501171 0.733333 0.062077
0.572767 0.733333 0.062077
0.644362 0.733333 0.062077
0.715958 0.733333 0.062077
0.787554 0.733333 0.062077
0.859150 0.733333 0.062077
0.930746 0.733333 0.062077
1.002342 0.733333 0.062077
1.073937 0.733333 0.062077
0.000000 0.800000 0.062077
0.071596 0.800000 0.062077
0.143192 0.800000 0.062077
0.214787 0.800000 0.062077
0.286383 0.800000 0.062077
0.357979 0.800000 0.062077
0.429575 0.800000 0.062077
0.501171 0.800000 0.062077
0.572767 0.800000 0.062077
0.644362 0.800000 0.062077
0.715958 0.800000 0.062077
0.787554 0.800000 0.062077
0.859150 0.800000 0.062077
0.930746 0.800000 0.062077
1.002342 0.800000 0.062077
1.073937 0.800000 0.062077
0.000000 0.866667 0.062077
0.071596 0.866667 0.062077
0.143192 0.866667 0.062077
0.214787 0.866667 0.062077
0.286383 0.866667 0.062077
0.357979 0.866667 0.062077
0.429575 0.866667 0.062077
0.501171 0.866667 0.062077
0.572767 0.866667 0.062077
0.644362 0.866667 0.062077
0.715958 0.866667 0.062077
0.787554 0.866667 0.062077
0.859150 0.866667 0.062077
0.930746 0.866667 0.062077
1.002342 0.866667 0.062077
1.073937 0.866667 0.062077
0.000000 0.933333 0.062077
0.071596 0.933333 0.062077
0.143192 0.933333 0.062077
0.214787 0.933333 0.062077
0.286383 0.933333 0.062077
0.357979 0.933333 0.062077
0.429575 0.933333 0.062077
0.501171 0.933333 0.062077
0.572767 0.933333 0.062077
0.644362 0.933333 0.062077
0.715958 0.933333 0.062077
0.787554 0.933333 0.062077
0.859150 0.933333 0.062077
0.930746 0.933333 0.062077
1.002342 0.933333 0.062077
1.073937 0.933333 0.062077
0.000000 1.000000 0.062077
0.071596 1.000000 0.062077
0.143192 1.000000 0.062077
0.214787 1.000000 0.062077
0.286383 1.000000 0.062077
0.357979 1.000000 0.062077
0.429575 1.000000 0.062077
0.501171 1.000000 0.062077
0.572767 1.000000 0.062077
0.644362 1.000000 0.062077
0.715958 1.000000 0.062077
0.787554 1.000000 0.062077
0.859150 1.000000 0.062077
0.930746 1.000000 0.062077
1.002342 1.000000 0.062077
1.073937 1.000000 0.062077
0.000000 0.000000 0.124154
0.071596 0.000000 0.124154
0.143192 0.000000 0.124154
0.214787 0.000000 0.124154
0.286383 0.000000 0.124154
0.357979 0.000000 0.124154
0.429575 0.000000 0.124154
0.501171 0.000000 0.124154
0.572767 0.000000 0.124154
0.644362 0.000000 0.124154
0.715958 0.000000 0.124154
0.787554 0.000000 0.124154
0.859150 0.000000 0.124154
0.930746 0.000000 0.124154
1.002342 0.000000 0.124154
1.073937 0.000000 0.124154
0.000000 0.066667 0.124154
0.071596 0.066667 0.124154
0.143192 0.066667 0.124154
0.214787 0.066667 0.124154
0.286383 0.066667 0.124154
0.357979 0.066667 0.124154
0.429575 0.066667 0.124154
0.501171 0.066667 0.124154
0.572767 0.066667 0.124154
0.644362 0.066667 0.124154
0.715958 0.066667 0.124154
0.787554 0.066667 0.124154
0.859150 0.066667 0.124154
0.930746 0.066667 0.124154
1.002342 0.066667 0.124154
1.073937 0.066667 0.124154
0.000000 0.133333 0.124154
0.071596 0.133333 0.124154
0.143192 0.133333 0.124154
0.214787 0.133333 0.124154
0.286383 0.133333 0.124154
0.357979 0.133333 0.124154
0.429575 0.133333 0.124154
0.501171 0.133333 0.124154
0.572767 0.133333 0.124154
0.644362 0.133333 0.124154
0.715958 0.133333 0.124154
0.787554 0.133333 0.124154
0.859150 0.133333 0.124154
0.930746 0.133333 0.124154
1.002342 0.133333 0.124154
1.073937 0.133333 0.124154
0.000000 0.200000 0.124154
0.071596 0.200000 0.124154
0.143192 0.200000 0.124154
0.214787 0.200000 0.124154
0.286383 0.200000 0.124154
0.357979 0.200000 0.124154
0.429575 0.200000 0.124154
0.501171 0.200000 0.124154
0.572767 0.200000 0.124154
0.644362 0.200000 0.124154
0.715958 0.200000 0.124154
0.787554 0.200000 0.124154
0.859150 0.200000 0.124154
0.930746 0.200000 0.124154
1.002342 0.200000 0.124154
1.073937 0.200000 0.124154
0.000000 0.266667 0.124154
0.071596 0.266667 0.124154
0.143192 0.266667 0.124154
0.214787 0.266667 0.124154
0.286383 0.266667 0.124154
0.357979 0.266667 0.124154
0.429575 0.266667 0.124154
0.501171 0.266667 0.124154
0.572767 0.266667 0.124154
0.644362 0.266667 0.124154
0.715958 0.266667 0.124154
0.787554 0.266667 0.124154
0.859150 0.266667 0.124154
0.930746 0.266667 0.124154
1.002342 0.266667 0.124154
1.073937 0.266667 0.124154
0.000000 0.333333 0.124154
0.071596 0.333333 0.124154
0.143192 0.333333 0.124154
0.214787 0.333333 0.124154
0.286383 0.333333 0.124154
0.357979 0.333333 0.124154
0.429575 0.333333 0.124154
0.501171 0.333333 0.124154
0.572767 0.333333 0.124154
0.644362 0.333333 0.124154
0.715958 0.333333 0.124154
0.787554 0.333333 0.124154
0.859150 0.333333 0.124154
0.930746 0.333333 0.124154
1.002342 0.333333 0.124154
1.073937 0.333333 0.124154
0.000000 0.400000 0.124154
0.071596 0.400000 0.124154
0.143192 0.400000 0.124154
0.214787 0.400000 0.124154
0.286383 0.400000 0.124154
0.357979 0.400000 0.124154
0.429575 0.400000 0.124154
0.501171 0.400000 0.124154
0.572767 0.400000 0.124154
0.644362 0.400000 0.124154
0.715958 0.400000 0.124154
0.787554 0.400000 0.124154
0.859150 0.400000 0.124154
0.930746 0.400000 0.124154
1.002342 0.400000 0.124154
1.073937 0.400000 0.124154
0.000000 0.466667 0.124154
0.071596 0.466667 0.124154
0.143192 0.466667 0.124154
0.214787 0.466667 0.124154
0.286383 0.466667 0.124154
0.357979 0.466667 0.124154
0.429575 0.466667 0.124154
0.501171 0.466667 0.124154
0.572767 0.466667 0.124154
0.644362 0.466667 0.124154
0.715958 0.466667 0.124154
0.787554 0.466667 0.124154
0.859150 0.466667 0.124154
0.930746 0.466667 0.124154
1.002342 0.466667 0.124154
1.073937 0.466667 0.124154
0.000000 0.533333 0.124154
0.071596 0.533333 0.124154
0.143192 0.533333 0.124154
0.214787 0.533333 0.124154
0.286383 0.533333 0.124154
0.357979 0.533333 0.124154
0.429575 0.533333 0.124154
0.501171 0.533333 0.124154
0.572767 0.533333 0.124154
0.644362 0.533333 0.124154
0.715958 0.533333 0.124154
0.787554 0.533333 0.124154
0.859150 0.533333 0.124154
0.930746 0.533333 0.124154
1.002342 0.533333 0.124154
1.073937 0.533333 0.124154
0.000000 0.600000 0.124154
0.071596 0.600000 0.124154
0.143192 0.600000 0.124154
0.214787 0.600000 0.124154
0.286383 0.600000 0.124154
0.357979 0.600000 0.124154
0.429575 0.600000 0.124154
0.501171 0.600000 0.124154
0.572767 0.600000 0.124154
0.644362 0.600000 0.124154
0.715958 0.600000 0.124154
0.787554 0.600000 0.124154
0.859150 0.600000 0.124154
0.930746 0.600000 0.124154
1.002342 0.600000 0.124154
1.073937 0.600000 0.124154
0.000000 0.666667 0.124154
0.071596 0.666667 0.124154
0.143192 0.666667 0.124154
0.214787 0.666667 0.124154
0.286383 0.666667 0.124154
0.357979 0.666667 0.124154
0.429575 0.666667 0.124154
0.501171 0.666667 0.124154
0.572767 0.666667 0.124154
0.644362 0.666667 0.124154
0.715958 0.666667 0.124154
0.787554 0.666667 0.124154
0.859150 0.666667 0.124154
0.930746 0.666667 0.124154
1.002342 0.666667 0.124154
1.073937 0.666667 0.124154
0.000000 0.733333 0.124154
0.071596 0.733333 0.124154
0.143192 0.733333 0.124154
0.214787 0.733333 0.124154
0.286383 0.733333 0.124154
0.357979 0.733333 0.124154
0.429575 0.733333 0.124154
0.501171 0.733333 0.124154
0.572767 0.733333 0.124154
0.644362 0.733333 0.124154
0.715958 0.733333 0.124154
0.787554 0.733333 0.124154
0.859150 0.733333 0.124154
0.930746 0.733333 0.124154
1.002342 0.733333 0.124154
1.073937 0.733333 0.124154
0.000000 0.800000 0.124154
0.071596 0.800000 0.124154
0.143192 0.800000 0.124154
0.214787 0.800000 0.124154
0.286383 0.800000 0.124154
0.357979 0.800000 0.124154
0.429575 0.800000 0.124154
0.501171 0.800000 0.124154
0.572767 0.800000 0.124154
0.644362 0.800000 0.124154
0.715958 0.800000 0.124154
0.787554 0.800000 0.124154
0.859150 0.800000 0.124154
0.930746 0.800000 0.124154
1.002342 0.800000 0.124154
1.073937 0.800000 0.124154
0.000000 0.866667 0.124154
0.071596 0.866667 0.124154
0.143192 0.866667 0.124154
0.214787 0.866667 0.124154
0.286383 0.866667 0.124154
0.357979 0.866667 0.124154
0.429575 0.866667 0.124154
0.501171 0.866667 0.124154
0.572767 0.866667 0.124154
0.644362 0.866667 0.124154
0.715958 0.866667 0.124154
0.787554 0.866667 0.124154
0.859150 0.866667 0.124154
0.930746 0.866667 0.124154
1.002342 0.866667 0.124154
1.073937 0.866667 0.124154
0.000000 0.933333 0.124154
0.071596 0.933333 0.124154
0.143192 0.933333 0.124154
0.214787 0.933333 0.124154
0.286383 0.933333 0.124154
0.357979 0.933333 0.124154
0.429575 0.933333 0.124154
0.501171 0.933333 0.124154
0.572767 0.933333 0.124154
0.644362 0.933333 0.124154
0.715958 0.933333 0.124154
0.787554 0.933333 0.124154
0.859150 0.933333 0.124154
0.930746 0.933333 0.124154
1.002342 0.933333 0.124154
1.073937 0.933333 0.124154
0.000000 1.000000 0.124154
0.071596 1.000000 0.124154
0.143192 1.000000 0.124154
0.214787 1.000000 0.124154
0.286383 1.000000 0.124154
0.357979 1.000000 0.124154
0.429575 1.000000 0.124154
0.501171 1.000000 0.124154
0.572767 1.000000 0.124154
0.644362 1.000000 0.124154
0.715958 1.000000 0.124154
0.787554 1.000000 0.124154
0.859150 1.000000 0.124154
0.930746 1.000000 0.124154
1.002342 1.000000 0.124154
1.073937 1.000000 0.124154
0.000000 0.000000 0.186231
0.071596 0.000000 0.186231
0.143192 0.000000 0.186231
0.214787 0.000000 0.186231
0.286383 0.000000 0.186231
0.357979 0.000000 0.186231
0.429575 0.000000 0.186231
0.501171 0.000000 0.186231
0.572767 0.000000 0.186231
0.644362 0.000000 0.186231
0.715958 0.000000 0.186231
0.787554 0.000000 0.186231
0.859150 0.000000 0.186231
0.930746 0.000000 0.186231
1.002342 0.000000 0.186231
1.073937 0.000000 0.186231
0.000000 0.066667 0.186231
0.071596 0.066667 0.186231
0.143192 0.066667 0.186231
0.214787 0.066667 0.186231
0.286383 0.066667 0.186231
0.357979 0.066667 0.186231
0.429575 0.066667 0.186231
0.501171 0.066667 0.186231
0.572767 0.066667 0.186231
0.644362 0.066667 0.186231
0.715958 0.066667 0.186231
0.787554 0.066667 0.186231
0.859150 0.066667 0.186231
0.930746 0.066667 0.186231
1.002342 0.066667 0.186231
1.073937 0.066667 0.186231
0.000000 0.133333 0.186231
0.071596 0.133333 0.186231
0.143192 0.133333 0.186231
0.214787 0.133333 0.186231
0.286383 0.133333 0.186231
0.357979 0.133333 0.186231
0.429575 0.133333 0.186231
0.501171 0.133333 0.186231
0.572767 0.133333 0.186231
0.644362 0.133333 0.186231
0.715958 0.133333 0.186231
0.787554 0.133333 0.186231
0.859150 0.133333 0.186231
0.930746 0.133333 0.186231
1.002342 0.133333 0.186231
1.073937 0.133333 0.186231
0.000000 0.200000 0.186231
0.071596 0.200000 0.186231
0.143192 0.200000 0.186231
0.214787 0.200000 0.186231
0.286383 0.200000 0.186231
0.357979 0.200000 0.186231
0.429575 0.200000 0.186231
0.501171 0.200000 0.186231
0.572767 0.200000 0.186231
0.644362 0.200000 0.186231
0.715958 0.200000 0.186231
0.787554 0.200000 0.186231
0.859150 0.200000 0.186231
0.930746 0.200000 0.186231
1.002342 0.200000 0.186231
1.073937 0.200000 0.186231
0.000000 0.266667 0.186231
0.071596 0.266667 0.186231
0.143192 0.266667 0.186231
0.214787 0.266667 0.186231
0.286383 0.266667 0.186231
0.357979 0.266667 0.186231
0.429575 0.266667 0.186231
0.501171 0.266667 0.186231
0.572767 0.266667 0.186231
0.644362 0.266667 0.186231
0.715958 0.266667 0.186231
0.787554 0.266667 0.186231
0.859150 0.266667 0.186231
0.930746 0.266667 0.186231
1.002342 0.266667 0.186231
1.073937 0.266667 0.186231
0.000000 0.333333 0.186231
0.071596 0.333333 0.186231
0.143192 0.333333 0.186231
0.214787 0.333333 0.186231
0.286383 0.333333 0.186231
0.357979 0.333333 0.186231
0.429575 0.333333 0.186231
0.501171 0.333333 0.186231
0.572767 0.333333 0.186231
0.644362 0.333333 0.186231
0.715958 0.333333 0.186231
0.787554 0.333333 0.186231
0.859150 0.333333 0.186231
0.930746 0.333333 0.186231
1.002342 0.333333 0.186231
1.073937 0.333333 0.186231
0.000000 0.400000 0.186231
0.071596 0.400000 0.186231
0.143192 0.400000 0.186231
0.214787 0.400000 0.186231
0.286383 0.400000 0.186231
0.357979 0.400000 0.186231
0.429575 0.400000 0.186231
0.501171 0.400000 0.186231
0.572767 0.400000 0.186231
0.644362 0.400000 0.186231
0.715958 0.400000 0.186231
0.787554 0.400000 0.186231
0.859150 0.400000 0.186231
0.930746 0.400000 0.186231
1.002342 0.400000 0.186231
1.073937 0.400000 0.186231
0.000000 0.466667 0.186231
0.071596 0.466667 0.186231
0.143192 0.466667 0.186231
0.214787 0.466667 0.186231
0.286383 0.466667 0.186231
0.357979 0.466667 0.186231
0.429575 0.466667 0.186231
0.501171 0.466667 0.186231
