tools/decompiled/apktool/res/raw/vibrant.cube
LUT_3D_SIZE 6
0.000000 0.000000 0.000000
0.176007 0.000031 0.000031
0.439764 0.000061 0.000061
0.704948 0.000184 0.000184
0.915143 0.000165 0.000165
1.000035 0.000207 0.000207
0.000036 0.187156 0.000036
0.198719 0.191385 0.000091
0.450707 0.217049 0.000121
0.708574 0.227483 0.000119
0.916614 0.220718 0.000078
1.000035 0.192616 0.000152
0.000106 0.437197 0.000106
0.226948 0.437197 0.000099
0.455975 0.439181 0.000157
0.712832 0.457730 0.000239
0.920353 0.443221 0.000191
1.000035 0.385250 0.000272
0.000303 0.685543 0.000303
0.237151 0.685327 0.000169
0.473405 0.684041 0.000091
0.708448 0.682313 0.000193
0.917126 0.662546 0.000325
1.000035 0.577931 0.000210
0.000240 0.885734 0.000240
0.229766 0.885206 0.000211
0.458572 0.883364 0.000343
0.685037 0.879699 0.000387
0.901913 0.868665 0.000312
1.000035 0.770463 0.000250
0.000429 1.000035 0.000429
0.207634 1.000035 0.000255
0.415262 1.000035 0.000190
0.622953 1.000035 0.000332
0.830506 1.000035 0.000472
1.000035 0.963194 0.000269
0.000021 0.000021 0.140707
0.180754 0.000029 0.167693
0.441270 0.000024 0.204690
0.705490 0.000185 0.218145
0.915252 0.000117 0.212284
1.000035 0.000134 0.185546
0.000044 0.188291 0.181356
0.200320 0.191138 0.182173
0.503111 0.149055 0.129291
0.762918 0.080172 0.000159
0.947276 0.073396 0.000177
1.000000 0.116547 0.102653
0.000066 0.437213 0.210539
0.176766 0.440463 0.149943
0.458409 0.438477 0.107447
0.726402 0.436612 0.000131
0.928868 0.411678 0.000090
1.000035 0.351979 0.000242
0.000039 0.685509 0.220082
0.105100 0.687418 0.000309
0.449168 0.684859 0.000164
0.708295 0.680068 0.000112
0.917045 0.649138 0.000229
1.000035 0.562156 0.000293
0.000165 0.885570 0.213254
0.099609 0.885154 0.000137
0.426450 0.883180 0.000136
0.674368 0.879526 0.000219
0.901664 0.866996 0.000408
1.000035 0.763609 0.000330
0.000312 1.000035 0.192617
0.089315 1.000035 0.000388
0.383199 1.000035 0.000213
0.608484 1.000035 0.000341
0.825240 1.000035 0.000440
1.000035 0.962240 0.000350
0.000046 0.000046 0.365358
0.207596 0.000005 0.385221
0.445753 0.000142 0.413533
0.706835 0.000173 0.437111
0.915864 0.000149 0.424834
1.000035 0.000226 0.371090
0.000109 0.209253 0.403076
0.200523 0.189781 0.423378
0.472469 0.172545 0.434206
0.763405 0.000124 0.434240
0.949328 0.000224 0.397530
0.999915 0.112651 0.344790
0.000073 0.437158 0.421065
0.170412 0.439427 0.420785
0.457631 0.435412 0.413683
0.777380 0.396861 0.366088
1.000000 0.356320 0.327012
0.999915 0.395523 0.381931
0.000096 0.685166 0.439959
0.000203 0.688033 0.404374
0.421933 0.687425 0.373546
0.711321 0.679118 0.343282
0.949921 0.632350 0.256426
1.000000 0.566231 0.345069
0.000339 0.885124 0.426253
0.000165 0.884553 0.381312
0.340470 0.889437 0.281429
0.646436 0.883869 0.245817
0.906207 0.865923 0.153637
1.000000 0.754467 0.280828
0.000162 1.000035 0.385250
0.000125 1.000035 0.341595
0.304090 1.000000 0.253955
0.573103 1.000000 0.237792
0.810809 1.000000 0.212288
1.000000 0.959229 0.174272
0.000077 0.000077 0.618253
0.225730 0.000052 0.628245
0.464565 0.000114 0.646477
0.708710 0.000054 0.657445
0.916687 0.000159 0.637863
1.000035 0.000272 0.556645
0.000094 0.221846 0.641046
0.196081 0.183881 0.674749
0.473555 0.171376 0.676841
0.743985 0.091447 0.685824
0.944510 0.000188 0.640328
1.000000 0.102653 0.542751
0.000161 0.455758 0.658505
0.000214 0.447709 0.695242
0.454108 0.431928 0.677014
0.738943 0.411742 0.676372
1.000000 0.346192 0.643511
1.000000 0.400739 0.564957
0.000046 0.684541 0.659383
0.000133 0.686292 0.658248
0.418850 0.685344 0.655106
0.709519 0.677448 0.646126
0.977314 0.640757 0.605822
1.000000 0.644988 0.628618
0.000326 0.884122 0.638711
0.000207 0.883571 0.621573
0.340655 0.887484 0.593284
0.661036 0.881589 0.602894
0.903918 0.865884 0.577766
1.000000 0.785919 0.593463
0.000259 1.000035 0.577931
0.000127 1.000035 0.557481
0.309802 1.000000 0.525703
0.616514 1.000000 0.570318
0.824101 1.000000 0.556867
1.000000 0.962050 0.537104
0.000079 0.000079 0.839363
0.227384 0.000106 0.843765
0.459953 0.000172 0.853398
0.696120 0.000144 0.860988
0.917814 0.000120 0.851527
1.000035 0.000089 0.742166
0.000062 0.220692 0.850221
0.185268 0.172564 0.893773
0.460568 0.158783 0.891302
0.714798 0.104294 0.895108
0.938829 0.000225 0.867725
1.000000 0.085289 0.734950
0.000120 0.447883 0.862733
0.000116 0.429781 0.911776
0.447135 0.426406 0.897165
0.708472 0.413124 0.893305
0.959133 0.375621 0.883122
1.000000 0.396179 0.744902
0.000307 0.675387 0.867307
0.000264 0.665773 0.872370
0.366707 0.667316 0.907703
0.701866 0.674012 0.879504
0.940960 0.653786 0.867345
1.000000 0.655125 0.783179
0.000352 0.882573 0.850114
0.000274 0.882067 0.847727
0.332880 0.884896 0.847043
0.665677 0.878611 0.843589
0.901328 0.868287 0.836439
1.000000 0.848005 0.830621
0.000274 1.000035 0.770463
0.000180 1.000035 0.761640
0.303920 1.000000 0.747309
0.631651 1.000000 0.775074
0.855192 1.000000 0.805371
1.000000 0.969093 0.789683
0.000116 0.000116 1.000035
0.215570 0.000086 1.000035
0.431152 0.000183 1.000035
0.646716 0.000098 1.000035
0.862254 0.000246 1.000035
1.000035 0.000098 0.927738
0.000016 0.207634 1.000035
0.198398 0.189525 0.999915
0.422826 0.183192 1.000000
0.640927 0.167359 0.999915
0.859232 0.134038 0.999915
0.999915 0.052038 0.925740
0.000046 0.415262 1.000035
0.175376 0.400539 0.999915
0.444892 0.429804 1.000000
0.650226 0.423504 1.000000
0.861668 0.410840 1.000000
1.000000 0.389828 0.928010
0.000205 0.622953 1.000035
0.092682 0.607203 1.000000
0.427231 0.620986 1.000000
0.692781 0.673123 1.000000
0.874747 0.664486 1.000000
1.000000 0.651207 0.937373
0.000246 0.830506 1.000035
0.000382 0.823772 1.000035
0.376739 0.821337 1.000000
0.673844 0.841618 1.000000
0.891356 0.866975 1.000000
1.000000 0.857249 0.953203
0.000366 1.000035 0.963194
0.000395 1.000035 0.961943
0.295857 1.000000 0.959811
0.626829 1.000000 0.963404
0.863212 1.000000 0.969714
1.000000 0.982162 0.965430
