tools/decompiled/apktool/res/raw/vibrant.cube
LUT_3D_SIZE 16
0.000000 0.000000 0.000000
0.042642 0.000005 0.000005
0.102729 0.000021 0.000021
0.176007 0.000031 0.000031
0.259372 0.000043 0.000043
0.348445 0.000051 0.000051
0.439764 0.000061 0.000061
0.531375 0.000099 0.000099
0.620506 0.000179 0.000179
0.704948 0.000184 0.000184
0.782888 0.000105 0.000105
0.852863 0.000224 0.000224
0.915143 0.000165 0.000165
0.973355 0.000095 0.000095
1.000035 0.000166 0.000166
1.000035 0.000207 0.000207
0.000006 0.046281 0.000006
0.049576 0.047752 0.000016
0.108712 0.052352 0.000025
0.180575 0.057983 0.000036
0.262550 0.063220 0.000034
0.350607 0.067541 0.000071
0.441205 0.070830 0.000122
0.532339 0.073252 0.000128
0.621132 0.074780 0.000138
0.705467 0.075491 0.000098
0.783165 0.075434 0.000135
0.852976 0.074682 0.000248
0.915237 0.073468 0.000107
0.973461 0.072121 0.000189
1.000035 0.068800 0.000208
1.000035 0.064212 0.000243
0.000045 0.111458 0.000045
0.058243 0.112198 0.000039
0.119111 0.114727 0.000030
0.190557 0.122366 0.000046
0.270564 0.130310 0.000043
0.356330 0.137300 0.000091
0.445543 0.143049 0.000096
0.535283 0.147313 0.000150
0.623057 0.150026 0.000126
0.706660 0.151271 0.000171
0.784032 0.151045 0.000127
0.853672 0.149486 0.000045
0.915863 0.147028 0.000235
0.974022 0.144321 0.000094
1.000035 0.137606 0.000193
1.000035 0.128424 0.000185
0.000036 0.187156 0.000036
0.064903 0.187517 0.000067
0.130642 0.188732 0.000056
0.198719 0.191385 0.000091
0.278220 0.200975 0.000104
0.362908 0.209747 0.000089
0.450707 0.217049 0.000121
0.539049 0.222515 0.000040
0.625671 0.225989 0.000078
0.708574 0.227483 0.000119
0.785481 0.226963 0.000110
0.854670 0.224491 0.000130
0.916614 0.220718 0.000078
0.974768 0.216650 0.000238
1.000035 0.206396 0.000289
1.000035 0.192616 0.000152
0.000109 0.268574 0.000109
0.069753 0.268743 0.000096
0.139818 0.269328 0.000066
0.210356 0.270165 0.000093
0.283063 0.272651 0.000070
0.367623 0.283271 0.000035
0.454676 0.291968 0.000058
0.542194 0.298437 0.000030
0.628167 0.302533 0.000204
0.710497 0.304112 0.000201
0.786952 0.303187 0.000081
0.855872 0.299747 0.000228
0.917778 0.294684 0.000075
0.975888 0.289197 0.000260
1.000035 0.275212 0.000124
1.000035 0.256844 0.000292
0.000129 0.352536 0.000129
0.073215 0.352586 0.000072
0.146509 0.352775 0.000130
0.219912 0.353016 0.000108
0.293422 0.353251 0.000063
0.369200 0.355609 0.000081
0.456475 0.366373 0.000164
0.543960 0.374203 0.000071
0.629776 0.379138 0.000218
0.712001 0.380934 0.000230
0.788332 0.379656 0.000147
0.857150 0.375259 0.000272
0.919059 0.368851 0.000222
0.977180 0.361985 0.000250
1.000035 0.343996 0.000262
1.000035 0.321044 0.000270
0.000106 0.437197 0.000106
0.075652 0.437204 0.000196
0.151313 0.437198 0.000144
0.226948 0.437197 0.000099
0.302545 0.437072 0.000120
0.377941 0.436847 0.000189
0.455975 0.439181 0.000157
0.544104 0.449203 0.000206
0.630386 0.455373 0.000087
0.712832 0.457730 0.000239
0.789505 0.456247 0.000018
0.858460 0.450968 0.000222
0.920353 0.443221 0.000191
0.977897 0.434665 0.000193
1.000035 0.412804 0.000298
1.000035 0.385250 0.000272
0.000104 0.521555 0.000104
0.077357 0.521528 0.000109
0.154693 0.521474 0.000200
0.231980 0.521374 0.000217
0.309213 0.521169 0.000092
0.386232 0.520775 0.000123
0.462979 0.520261 0.000169
0.542629 0.522656 0.000280
0.629823 0.530812 0.000196
0.713102 0.534190 0.000311
0.790235 0.532781 0.000331
0.859098 0.526562 0.000312
0.920528 0.517250 0.000048
0.977737 0.507018 0.000241
1.000035 0.481598 0.000168
1.000035 0.449463 0.000330
0.000085 0.604822 0.000085
0.078482 0.604803 0.000200
0.156952 0.604648 0.000068
0.235360 0.604559 0.000085
0.313740 0.604344 0.000184
0.391919 0.604019 0.000182
0.470016 0.603606 0.000262
0.547791 0.603020 0.000287
0.628103 0.604997 0.000221
0.712060 0.609570 0.000238
0.789306 0.608205 0.000321
0.858153 0.601115 0.000094
0.919439 0.590416 0.000252
0.976450 0.578727 0.000193
1.000035 0.550411 0.000314
1.000035 0.513688 0.000104
0.000303 0.685543 0.000303
0.079076 0.685516 0.000203
0.158148 0.685473 0.000241
0.237151 0.685327 0.000169
0.316093 0.685015 0.000188
0.394850 0.684655 0.000153
0.473405 0.684041 0.000091
0.551601 0.683118 0.000279
0.629377 0.682011 0.000161
0.708448 0.682313 0.000193
0.786321 0.681608 0.000183
0.855617 0.674281 0.000270
0.917126 0.662546 0.000325
0.974077 0.649471 0.000252
1.000035 0.619214 0.000239
1.000035 0.577931 0.000210
0.000289 0.760390 0.000289
0.078944 0.760431 0.000310
0.157861 0.760265 0.000201
0.236700 0.759977 0.000227
0.315435 0.759515 0.000135
0.393981 0.758972 0.000147
0.472333 0.758272 0.000275
0.550359 0.757328 0.000272
0.627932 0.756074 0.000079
0.704924 0.754333 0.000162
0.781272 0.752519 0.000119
0.851480 0.745498 0.000184
0.913414 0.733187 0.000143
0.970510 0.718926 0.000165
1.000035 0.688008 0.000080
1.000035 0.642105 0.000282
0.000236 0.827195 0.000236
0.078074 0.827203 0.000274
0.156111 0.827045 0.000108
0.234061 0.826671 0.000210
0.311959 0.826312 0.000126
0.389634 0.825702 0.000090
0.467094 0.824891 0.000364
0.544245 0.823849 0.000151
0.621136 0.822630 0.000321
0.697486 0.821116 0.000379
0.773193 0.819261 0.000278
0.845725 0.814570 0.000206
0.908320 0.802076 0.000333
0.965802 0.787057 0.000314
1.000035 0.756831 0.000088
1.000035 0.706384 0.000248
0.000240 0.885734 0.000240
0.076635 0.885657 0.000365
0.153242 0.885530 0.000078
0.229766 0.885206 0.000211
0.306211 0.884745 0.000212
0.382486 0.884103 0.000417
0.458572 0.883364 0.000343
0.534406 0.882357 0.000261
0.609943 0.881212 0.000338
0.685037 0.879699 0.000387
0.759628 0.877927 0.000236
0.833776 0.876017 0.000212
0.901913 0.868665 0.000312
0.959706 0.853135 0.000238
1.000035 0.825576 0.000360
1.000035 0.770463 0.000250
0.000033 0.938355 0.000033
0.074926 0.938260 0.000207
0.149824 0.938104 0.000269
0.224680 0.937906 0.000404
0.299421 0.937359 0.000351
0.374048 0.936797 0.000196
0.448419 0.935944 0.000371
0.522609 0.934841 0.000081
0.596492 0.933653 0.000204
0.670046 0.932183 0.000318
0.743082 0.930534 0.000313
0.815646 0.928544 0.000379
0.887533 0.926236 0.000350
0.952199 0.917097 0.000229
1.000035 0.894473 0.000450
1.000035 0.834834 0.000191
0.000404 0.986843 0.000404
0.073181 0.986730 0.000237
0.146339 0.986580 0.000317
0.219429 0.986338 0.000230
0.292443 0.985866 0.000346
0.365259 0.985115 0.000249
0.437952 0.984297 0.000440
0.510387 0.983157 0.000342
0.582560 0.981870 0.000453
0.654311 0.980284 0.000103
0.725718 0.978590 0.000473
0.796626 0.976408 0.000403
0.866743 0.974022 0.000193
0.936490 0.971344 0.000511
0.997754 0.960967 0.000454
1.000035 0.898896 0.000193
0.000429 1.000035 0.000429
0.069210 1.000035 0.000107
0.138425 1.000035 0.000391
0.207634 1.000035 0.000255
0.276866 1.000035 0.000214
0.346063 1.000035 0.000447
0.415262 1.000035 0.000190
0.484478 1.000035 0.000269
0.553705 1.000035 0.000182
0.622953 1.000035 0.000332
0.692143 1.000035 0.000231
0.761383 1.000035 0.000324
0.830506 1.000035 0.000472
0.899870 1.000035 0.000414
0.968959 1.000035 0.000255
1.000035 0.963194 0.000269
0.000005 0.000005 0.034833
0.043787 0.000005 0.040625
0.103421 0.000023 0.047968
0.176483 0.000025 0.054580
0.259721 0.000044 0.060235
0.348640 0.000072 0.064693
0.439891 0.000062 0.068020
0.531421 0.000142 0.070440
0.620577 0.000084 0.071962
0.705002 0.000095 0.072675
0.782929 0.000102 0.072633
0.852887 0.000007 0.071923
0.915102 0.000187 0.070752
0.973380 0.000249 0.069459
1.000035 0.000039 0.066271
1.000035 0.000099 0.061848
0.000011 0.046730 0.045003
0.050143 0.048031 0.045984
0.121191 0.041931 0.038205
0.199298 0.020944 0.000026
0.276338 0.021409 0.000012
0.361163 0.022222 0.000067
0.449545 0.022963 0.000052
0.538155 0.023513 0.000136
0.624517 0.023841 0.000065
0.706120 0.023938 0.000154
0.783206 0.023882 0.000096
0.852999 0.023632 0.000131
0.915268 0.023240 0.000094
0.973495 0.022810 0.000167
1.000035 0.021755 0.000188
1.000035 0.020299 0.000244
0.000046 0.111680 0.053781
0.053065 0.113111 0.047897
0.119832 0.115006 0.043876
0.197581 0.118797 0.000023
0.278404 0.123408 0.000066
0.363784 0.128045 0.000061
0.451575 0.131976 0.000087
0.539536 0.134860 0.000098
0.625232 0.136542 0.000199
0.706791 0.137067 0.000185
0.784063 0.136783 0.000144
0.853647 0.135297 0.000123
0.915837 0.133042 0.000146
0.974036 0.130556 0.000198
1.000035 0.124449 0.000231
1.000035 0.116128 0.000269
0.000049 0.187254 0.060122
0.045179 0.189083 0.036769
0.126117 0.189947 0.030245
0.199677 0.191689 0.000091
0.281489 0.199235 0.000049
0.366732 0.206159 0.000095
0.453928 0.211844 0.000127
0.541066 0.215978 0.000178
0.626108 0.218378 0.000145
0.708613 0.219466 0.000106
0.785505 0.218818 0.000260
0.854695 0.216344 0.000105
0.916634 0.212649 0.000216
0.974797 0.208661 0.000252
1.000035 0.198739 0.000235
1.000035 0.185442 0.000065
0.000069 0.268631 0.064683
0.030424 0.270316 0.000116
0.130633 0.270555 0.000113
0.207706 0.270914 0.000082
0.283535 0.272650 0.000098
0.368710 0.281577 0.000061
0.455555 0.288837 0.000096
0.542221 0.294039 0.000108
0.628186 0.297649 0.000139
0.710440 0.298942 0.000134
0.786968 0.297835 0.000182
0.855889 0.294321 0.000136
0.917802 0.289249 0.000115
0.975914 0.283788 0.000208
1.000035 0.270000 0.000166
1.000035 0.251957 0.000269
0.000075 0.352536 0.067915
0.031545 0.353150 0.000129
0.135368 0.353244 0.000105
0.214979 0.353306 0.000128
0.291630 0.353320 0.000138
0.369199 0.355265 0.000078
0.456478 0.364657 0.000099
0.543963 0.371667 0.000074
0.629789 0.375988 0.000088
0.712014 0.377469 0.000109
0.788343 0.375947 0.000153
0.857163 0.371436 0.000087
0.919078 0.364916 0.000209
0.977189 0.358038 0.000267
1.000035 0.340183 0.000259
1.000035 0.317434 0.000077
0.000148 0.437198 0.070182
0.032410 0.437206 0.000202
0.139054 0.437195 0.000124
0.220773 0.437194 0.000006
0.299394 0.437065 0.000077
0.376737 0.436836 0.000170
0.455968 0.438895 0.000158
0.544096 0.447946 0.000112
0.630386 0.453456 0.000058
0.712832 0.455408 0.000178
0.789514 0.453610 0.000210
0.858467 0.448164 0.000069
0.920246 0.440327 0.000296
0.977899 0.431713 0.000229
1.000035 0.409892 0.000224
1.000035 0.382508 0.000258
0.000246 0.521552 0.071768
0.033060 0.521517 0.000159
0.141821 0.521470 0.000098
0.225139 0.521358 0.000098
0.305281 0.521166 0.000223
0.384081 0.520756 0.000106
0.462169 0.520241 0.000139
0.542619 0.522409 0.000267
0.629818 0.529839 0.000237
0.713098 0.532722 0.000072
0.790238 0.530986 0.000035
0.859099 0.524536 0.000246
0.920524 0.515053 0.000090
0.977732 0.504759 0.000156
1.000035 0.479376 0.000099
1.000035 0.447286 0.000260
0.000081 0.604818 0.072812
0.033493 0.604799 0.000153
0.143672 0.604643 0.000214
0.228083 0.604552 0.000193
0.309276 0.604338 0.000248
0.389214 0.604011 0.000182
0.468470 0.603599 0.000113
0.547218 0.603009 0.000212
0.628088 0.604793 0.000241
0.712044 0.608797 0.000294
0.789296 0.607050 0.000240
0.858143 0.599727 0.000172
0.919429 0.588847 0.000271
0.976436 0.577007 0.000154
1.000035 0.548682 0.000311
1.000035 0.511964 0.000127
0.000111 0.685532 0.073373
0.033715 0.685510 0.000173
0.144627 0.685462 0.000257
0.229590 0.685273 0.000251
0.311282 0.685004 0.000181
0.391726 0.684642 0.000244
0.471396 0.683986 0.000231
0.550478 0.683101 0.000104
0.628998 0.681992 0.000192
0.708420 0.682132 0.000109
0.786398 0.681061 0.000252
0.855600 0.673340 0.000208
0.917109 0.661422 0.000277
0.974072 0.648235 0.000316
1.000035 0.617856 0.000274
1.000035 0.576570 0.000128
0.000282 0.760471 0.073242
0.033632 0.760410 0.000308
0.144267 0.760243 0.000233
0.228987 0.759953 0.000281
0.310425 0.759490 0.000099
0.390583 0.758945 0.000175
0.470022 0.758253 0.000250
0.548850 0.757324 0.000146
0.627091 0.756052 0.000302
0.704615 0.754309 0.000174
0.781248 0.752381 0.000273
0.851459 0.744975 0.000141
0.913426 0.732414 0.000244
0.970490 0.718059 0.000388
1.000035 0.686978 0.000299
1.000035 0.641045 0.000274
0.000300 0.827176 0.072426
0.033243 0.827183 0.000163
0.142585 0.827026 0.000322
0.226326 0.826651 0.000224
0.306846 0.826292 0.000312
0.386074 0.825681 0.000273
0.464593 0.824918 0.000274
0.542493 0.823826 0.000255
0.619946 0.822606 0.000219
0.696819 0.821091 0.000230
0.772893 0.819235 0.000252
0.845700 0.814413 0.000355
0.908298 0.801576 0.000331
0.965781 0.786401 0.000072
1.000035 0.756180 0.000238
1.000035 0.705577 0.000326
0.000238 0.885713 0.071101
0.032619 0.885721 0.000194
0.139918 0.885509 0.000040
0.222092 0.885183 0.000264
0.301085 0.884723 0.000226
0.378855 0.884168 0.000321
0.455916 0.883425 0.000117
0.532475 0.882327 0.000281
0.608562 0.881187 0.000203
0.684129 0.879672 0.000154
0.759134 0.877981 0.000209
0.833601 0.875987 0.000248
0.901883 0.868475 0.000319
0.959673 0.852828 0.000173
1.000035 0.825104 0.000404
1.000035 0.769881 0.000154
0.000211 0.938328 0.069519
0.031886 0.938243 0.000194
0.136775 0.938076 0.000340
0.217118 0.937878 0.000299
0.294330 0.937331 0.000398
0.370356 0.936769 0.000286
0.445714 0.935913 0.000309
0.520532 0.934819 0.000352
0.594990 0.933705 0.000246
0.668900 0.932237 0.000384
0.742347 0.930530 0.000152
0.815277 0.928510 0.000423
0.887467 0.926209 0.000179
0.952172 0.916996 0.000256
1.000035 0.894201 0.000414
1.000035 0.834364 0.000442
0.000150 0.986814 0.067897
0.031134 0.986815 0.000423
0.133556 0.986546 0.000465
0.211980 0.986316 0.000390
0.287412 0.985831 0.000130
0.361603 0.985080 0.000364
0.435227 0.984326 0.000118
0.508305 0.983234 0.000296
0.580947 0.981841 0.000146
0.653134 0.980246 0.000425
0.724835 0.978550 0.000337
0.796019 0.976377 0.000480
0.866447 0.974075 0.000416
0.936344 0.971311 0.000330
0.997724 0.960920 0.000323
1.000035 0.898670 0.000283
0.000432 1.000035 0.064212
0.029443 1.000035 0.000441
0.126313 1.000035 0.000333
0.200553 1.000035 0.000318
0.272032 1.000035 0.000375
0.342541 1.000035 0.000272
0.412612 1.000035 0.000442
0.482422 1.000035 0.000393
0.552101 1.000035 0.000169
0.621703 1.000035 0.000480
0.691218 1.000035 0.000465
0.760701 1.000035 0.000241
0.830098 1.000035 0.000353
0.899586 1.000035 0.000216
0.968848 1.000035 0.000424
1.000035 0.963075 0.000504
0.000006 0.000006 0.082772
0.047452 0.000010 0.088045
0.105626 0.000023 0.097987
0.178116 0.000013 0.110172
0.260821 0.000043 0.120987
0.349405 0.000031 0.129682
0.440370 0.000072 0.136192
0.531790 0.000127 0.140973
0.620807 0.000125 0.143977
0.705082 0.000119 0.145369
0.783062 0.000104 0.145286
0.852930 0.000133 0.143872
0.915193 0.000026 0.141521
0.973406 0.000119 0.138931
1.000035 0.000064 0.132541
1.000035 0.000185 0.123699
0.000021 0.049069 0.094514
0.050760 0.048508 0.100245
0.115082 0.047594 0.106142
0.200533 0.000040 0.114092
0.277794 0.000057 0.116324
0.362377 0.000074 0.120447
0.450528 0.000056 0.124276
0.538934 0.000082 0.127119
0.625088 0.000120 0.128814
0.706577 0.000087 0.129312
0.783330 0.000119 0.128925
0.853049 0.000202 0.127569
0.915358 0.000216 0.125437
0.973588 0.000220 0.123100
1.000035 0.000165 0.117400
1.000035 0.000203 0.109551
0.000045 0.112420 0.108283
0.053074 0.113598 0.109137
0.120304 0.115067 0.109976
0.207899 0.109659 0.101956
0.301626 0.095152 0.084431
0.400949 0.058896 0.031807
0.483540 0.050816 0.000109
0.565889 0.050439 0.000136
0.647441 0.050163 0.000142
0.725523 0.049753 0.000131
0.797951 0.049101 0.000055
0.862703 0.048153 0.000044
0.920283 0.047011 0.000242
0.974028 0.045871 0.000155
1.000035 0.043693 0.000183
1.000035 0.040747 0.000191
0.000051 0.187657 0.120512
0.044355 0.189275 0.115748
0.122994 0.190100 0.111381
0.199972 0.191534 0.107538
0.288498 0.194229 0.087570
0.386923 0.190399 0.000065
0.473965 0.190713 0.000088
0.559770 0.191034 0.000167
0.643136 0.190804 0.000151
0.722339 0.189676 0.000110
0.795544 0.187420 0.000230
0.860752 0.183945 0.000058
0.918826 0.179735 0.000150
0.974882 0.175785 0.000147
1.000035 0.167294 0.000142
1.000035 0.156018 0.000237
0.000082 0.268817 0.129461
0.000038 0.270678 0.116680
0.117656 0.271471 0.103281
0.203239 0.271782 0.098756
0.284697 0.272730 0.086167
0.375617 0.277747 0.053642
0.466649 0.280528 0.000091
0.554145 0.282576 0.000144
0.638794 0.283140 0.000165
0.718944 0.281985 0.000145
0.792728 0.279023 0.000216
0.858607 0.274132 0.000155
0.917866 0.268219 0.000258
0.975878 0.262906 0.000099
1.000035 0.249940 0.000167
1.000035 0.233091 0.000131
0.000126 0.352572 0.135853
0.000113 0.353444 0.120743
0.099644 0.355701 0.079169
0.200669 0.355526 0.071434
0.286568 0.355151 0.053234
0.370990 0.355511 0.000157
0.461135 0.361465 0.000189
0.549466 0.365271 0.000087
0.634904 0.366921 0.000137
0.715669 0.366038 0.000106
0.790263 0.362646 0.000249
0.857208 0.356878 0.000161
0.919101 0.350209 0.000196
0.977238 0.343249 0.000215
1.000035 0.325871 0.000249
1.000035 0.303904 0.000287
0.000056 0.437204 0.140377
0.000126 0.437194 0.123863
0.067329 0.440345 0.000080
0.195459 0.439721 0.000109
0.287873 0.438845 0.000184
0.372932 0.437787 0.000124
0.456713 0.438513 0.000114
0.545650 0.444317 0.000115
0.631721 0.447176 0.000272
0.713226 0.446826 0.000208
0.789539 0.443820 0.000249
0.858455 0.437712 0.000038
0.920271 0.429508 0.000243
0.977912 0.420733 0.000281
1.000035 0.399147 0.000092
1.000035 0.372244 0.000141
0.000172 0.521516 0.143533
0.000200 0.521492 0.126290
0.067734 0.522829 0.000098
0.196752 0.522444 0.000196
0.290071 0.521905 0.000228
0.376202 0.521181 0.000018
0.459250 0.520395 0.000194
0.542571 0.521434 0.000230
0.629837 0.526200 0.000208
0.713092 0.527244 0.000275
0.790240 0.524301 0.000246
0.859097 0.517000 0.000145
0.920513 0.507059 0.000301
0.977710 0.496446 0.000138
1.000035 0.471106 0.000192
1.000035 0.439322 0.000310
0.000174 0.604799 0.145632
0.000144 0.604779 0.127907
0.068053 0.604624 0.000146
0.197798 0.604532 0.000100
0.291797 0.604333 0.000179
0.378728 0.604013 0.000157
0.462782 0.603611 0.000059
0.545076 0.602993 0.000186
0.628045 0.603946 0.000129
0.711986 0.605907 0.000151
0.789261 0.602754 0.000076
0.858105 0.594449 0.000146
0.919388 0.582933 0.000140
0.976389 0.570695 0.000080
1.000035 0.542265 0.000168
1.000035 0.505741 0.000219
0.000104 0.685557 0.146741
0.000289 0.685535 0.128732
0.068251 0.685432 0.000086
0.198369 0.685238 0.000286
0.292595 0.685015 0.000322
0.379740 0.684557 0.000207
0.463922 0.683986 0.000305
0.546310 0.683099 0.000146
0.627393 0.681883 0.000243
0.708314 0.681419 0.000228
0.786334 0.678702 0.000293
0.855539 0.669894 0.000268
0.917046 0.657219 0.000250
0.974015 0.643477 0.000274
1.000035 0.612908 0.000169
1.000035 0.571624 0.000303
0.000129 0.760407 0.146478
0.000354 0.760331 0.128390
0.067900 0.760163 0.000225
0.197359 0.759978 0.000240
0.291016 0.759416 0.000227
0.377682 0.758899 0.000339
0.461356 0.758200 0.000327
0.543251 0.757249 0.000305
0.623953 0.756046 0.000232
0.703413 0.754298 0.000261
0.781165 0.751736 0.000183
0.851421 0.743100 0.000326
0.913351 0.729647 0.000357
0.970406 0.714606 0.000095
1.000035 0.683302 0.000192
1.000035 0.637186 0.000328
0.000221 0.827181 0.144858
0.000275 0.827149 0.126903
0.066989 0.826956 0.000199
0.194666 0.826655 0.000107
0.287140 0.826219 0.000109
0.372621 0.825606 0.000363
0.455147 0.824841 0.000226
0.535970 0.823792 0.000211
0.615667 0.822554 0.000249
0.694344 0.821003 0.000325
0.772179 0.819264 0.000232
0.845607 0.813846 0.000399
0.908205 0.800102 0.000225
0.965675 0.784149 0.000328
1.000035 0.753398 0.000221
1.000035 0.702567 0.000297
0.000098 0.885718 0.142201
0.000115 0.885641 0.124506
0.065643 0.885427 0.000238
0.190776 0.885187 0.000243
0.281345 0.884640 0.000092
0.365162 0.884157 0.000112
0.446061 0.883342 0.000414
0.525381 0.882328 0.000098
0.603566 0.881101 0.000249
0.680840 0.879636 0.000332
0.757201 0.877887 0.000153
0.832918 0.875883 0.000347
0.901788 0.867999 0.000189
0.959573 0.851526 0.000333
1.000035 0.823174 0.000401
1.000035 0.767789 0.000176
0.000179 0.938239 0.139032
0.000160 0.938228 0.121702
0.064099 0.938018 0.000245
0.186310 0.937788 0.000214
0.274803 0.937357 0.000356
0.356596 0.936665 0.000063
0.435635 0.935817 0.000263
0.513052 0.934872 0.000190
0.589460 0.933604 0.000418
0.664973 0.932171 0.000266
0.739743 0.930416 0.000460
0.813771 0.928478 0.000380
0.886847 0.926181 0.000272
0.952086 0.916588 0.000305
1.000035 0.893126 0.000339
1.000035 0.832976 0.000459
0.000337 0.986811 0.135785
0.000389 0.986707 0.118830
0.062544 0.986561 0.000213
0.181771 0.986316 0.000307
0.268102 0.985771 0.000445
0.347911 0.985079 0.000388
0.425026 0.984211 0.000312
0.500537 0.983106 0.000360
0.575105 0.981828 0.000368
0.648765 0.980252 0.000154
0.721726 0.978454 0.000068
0.793939 0.976366 0.000172
0.865231 0.973964 0.000360
0.935931 0.971188 0.000296
0.997563 0.960461 0.000128
1.000035 0.897827 0.000367
0.000248 1.000035 0.128423
0.000104 1.000035 0.112375
0.059114 1.000035 0.000024
0.171851 1.000035 0.000369
0.253611 1.000035 0.000248
0.329349 1.000035 0.000329
0.402713 1.000035 0.000291
0.474799 1.000035 0.000412
0.546214 1.000035 0.000313
0.617163 1.000035 0.000326
0.687794 1.000035 0.000347
0.758235 1.000035 0.000216
0.828426 1.000035 0.000515
0.898700 1.000035 0.000344
0.968564 1.000035 0.000485
1.000035 0.962739 0.000300
0.000021 0.000021 0.140707
0.052148 0.000020 0.145128
0.111840 0.000010 0.155624
0.180754 0.000029 0.167693
0.262696 0.000021 0.182759
0.350672 0.000058 0.195198
0.441270 0.000024 0.204690
0.532412 0.000091 0.211672
0.621164 0.000033 0.216083
0.705490 0.000185 0.218145
0.783179 0.000225 0.217979
0.852994 0.000099 0.215801
0.915252 0.000117 0.212284
0.973467 0.000046 0.208396
1.000035 0.000134 0.198808
1.000035 0.000134 0.185546
0.000016 0.052574 0.151912
0.051215 0.048640 0.161469
0.118039 0.048677 0.167019
0.192288 0.039841 0.177609
0.277957 0.000054 0.188437
0.362812 0.000058 0.195194
0.450868 0.000040 0.201317
0.539200 0.000149 0.205872
0.625215 0.000060 0.208566
0.706681 0.000121 0.209341
0.783524 0.000141 0.208755
0.853128 0.000106 0.206513
0.915453 0.000187 0.203081
0.973649 0.000118 0.199284
1.000035 0.000172 0.190034
1.000035 0.000174 0.177339
0.000041 0.117305 0.169471
0.031088 0.117903 0.180288
0.120920 0.115390 0.177319
0.198941 0.114040 0.182536
0.298196 0.095366 0.189388
0.401740 0.045549 0.184797
0.486777 0.000074 0.179613
0.568661 0.000089 0.177791
0.649870 0.000119 0.176512
0.727562 0.000197 0.174860
0.799811 0.000222 0.172411
0.864309 0.000248 0.168977
0.921670 0.000057 0.164902
0.975072 0.000267 0.160813
1.000035 0.000176 0.152989
1.000035 0.000068 0.142665
0.000044 0.188291 0.181356
0.043529 0.189667 0.182245
0.122510 0.190384 0.182509
0.200320 0.191138 0.182173
0.299485 0.184517 0.171921
0.400585 0.171479 0.156256
0.503111 0.149055 0.129291
0.605320 0.109690 0.076126
0.690227 0.082509 0.000195
0.762918 0.080172 0.000159
0.831096 0.078008 0.000159
0.892439 0.075729 0.000212
0.947276 0.073396 0.000177
0.998423 0.071178 0.000187
1.000000 0.138829 0.125926
1.000000 0.116547 0.102653
0.000048 0.269114 0.194383
0.000095 0.270773 0.190457
0.115935 0.271497 0.185723
0.199800 0.271736 0.180475
0.284673 0.272135 0.175631
0.378658 0.273103 0.159338
0.484138 0.266157 0.113917
0.586856 0.253835 0.000063
0.670254 0.249339 0.000085
0.748487 0.244752 0.000134
0.820253 0.239556 0.000167
0.884110 0.233456 0.000058
0.940807 0.226820 0.000084
0.993461 0.220392 0.000218
1.000000 0.228525 0.113543
1.000000 0.205523 0.086328
0.000092 0.352723 0.203839
0.000084 0.353453 0.197046
0.096007 0.355593 0.181147
0.192724 0.355488 0.170490
0.283737 0.354957 0.165502
0.371131 0.354915 0.154343
0.465076 0.357590 0.135414
0.566825 0.354212 0.031781
0.654599 0.351342 0.000206
0.735940 0.347203 0.000152
0.810313 0.341472 0.000064
0.876102 0.333782 0.000118
0.934469 0.325045 0.000285
0.988389 0.316332 0.000178
0.999915 0.306277 0.093674
0.999915 0.279728 0.055961
0.000066 0.437213 0.210539
0.000037 0.437198 0.202134
0.038224 0.440775 0.167303
0.176766 0.440463 0.149943
0.278153 0.439807 0.143401
0.368964 0.438753 0.131650
0.458409 0.438477 0.107447
0.553085 0.440664 0.057206
0.643104 0.439794 0.000225
0.726402 0.436612 0.000131
0.802182 0.430730 0.000170
0.869444 0.422064 0.000108
0.928868 0.411678 0.000090
0.983333 0.401052 0.000230
1.000000 0.380260 0.057647
1.000035 0.351979 0.000242
0.000233 0.521521 0.215266
0.000171 0.521487 0.206057
0.000201 0.523445 0.165320
0.148267 0.525564 0.111316
0.266207 0.524893 0.100915
0.363416 0.523880 0.081885
0.454707 0.522505 0.030258
0.544776 0.521624 0.000036
