tools/decompiled/jadx/resources/res/raw/aged.cube
LUT_3D_SIZE 16
0.000180 0.000105 0.000049
0.046124 0.028396 0.075024
0.094508 0.030133 0.014905
0.172605 0.055380 0.027574
0.255069 0.082315 0.041302
0.329072 0.106842 0.053985
0.389226 0.127731 0.074049
0.442292 0.146656 0.094758
0.488032 0.163013 0.111354
0.531123 0.178037 0.119583
0.573507 0.192825 0.126579
0.614349 0.207330 0.133375
0.653762 0.221494 0.140117
0.692479 0.235694 0.146999
0.730192 0.249710 0.153807
0.767103 0.263755 0.160994
0.025280 0.038142 0.010834
0.039061 0.039550 0.011796
0.087882 0.048476 0.017346
0.156732 0.065635 0.027335
0.238503 0.088462 0.040217
0.317830 0.112421 0.053396
0.390690 0.135825 0.066035
0.453337 0.156708 0.077293
0.506271 0.174739 0.087072
0.553208 0.190290 0.095860
0.597947 0.205576 0.104477
0.640301 0.220374 0.112873
0.680464 0.234640 0.121041
0.718287 0.248230 0.128904
0.754708 0.261682 0.136724
0.789991 0.275030 0.144525
0.066283 0.100283 0.028752
0.066765 0.095862 0.027590
0.097039 0.100752 0.030239
0.154946 0.112444 0.036774
0.233539 0.130546 0.047413
0.318413 0.152974 0.060442
0.397275 0.176142 0.073575
0.467475 0.196458 0.085633
0.525040 0.212481 0.095688
0.573380 0.226556 0.111149
0.617885 0.240325 0.123578
0.661499 0.254834 0.136272
0.701876 0.267942 0.146193
0.739997 0.280030 0.153639
0.775456 0.291224 0.159008
0.809699 0.302747 0.164980
0.113145 0.171743 0.049797
0.112487 0.168336 0.048838
0.128601 0.170188 0.049985
0.171916 0.177694 0.054102
0.238395 0.192794 0.062115
0.324166 0.213959 0.073969
0.403650 0.237055 0.086635
0.478375 0.258752 0.108244
0.540602 0.274782 0.130977
0.591916 0.288296 0.147472
0.637023 0.299613 0.159515
0.678882 0.310776 0.169286
0.718045 0.321713 0.177625
0.755008 0.331201 0.183884
0.790003 0.339700 0.189058
0.823796 0.348337 0.194244
0.158873 0.241940 0.070954
0.157842 0.238711 0.070007
0.168162 0.243910 0.071862
0.203994 0.254480 0.076359
0.262851 0.269015 0.083454
0.338470 0.286837 0.093081
0.414382 0.304299 0.103476
0.486784 0.325003 0.134345
0.553156 0.342394 0.155054
0.606122 0.357435 0.174884
0.650125 0.369805 0.193109
0.689173 0.379047 0.203196
0.726419 0.386786 0.209161
0.762633 0.393155 0.213087
0.797257 0.398780 0.215624
0.830871 0.404616 0.218284
0.203135 0.310377 0.092066
0.201411 0.306396 0.090874
0.208236 0.310124 0.092199
0.233788 0.322163 0.096717
0.287759 0.338637 0.104024
0.353058 0.356458 0.112793
0.430995 0.377272 0.138539
0.498640 0.392194 0.157520
0.562664 0.407708 0.175037
0.615868 0.423907 0.206641
0.657804 0.436522 0.230327
0.695269 0.445685 0.240759
0.731153 0.453028 0.246899
0.766563 0.459429 0.251401
0.800700 0.464828 0.254727
0.833993 0.469299 0.256628
0.244095 0.374101 0.112227
0.242803 0.371030 0.111248
0.248014 0.373658 0.112243
0.264595 0.382313 0.115491
0.311069 0.399439 0.122651
0.366607 0.416351 0.130558
0.440033 0.438123 0.158252
0.512832 0.458295 0.178469
0.573944 0.471932 0.195780
0.624912 0.485866 0.232563
0.667070 0.498465 0.257429
0.704420 0.508617 0.269593
0.739622 0.516836 0.277116
0.773929 0.523618 0.282642
0.807257 0.529623 0.287289
0.839460 0.535041 0.291278
0.281684 0.433109 0.131289
0.280470 0.430186 0.130367
0.285931 0.434093 0.131768
0.299038 0.442241 0.134777
0.335700 0.458000 0.141206
0.383443 0.473361 0.148259
0.449254 0.494653 0.175517
0.526855 0.519648 0.197729
0.586545 0.534267 0.219495
0.634448 0.544648 0.251615
0.676500 0.555253 0.274881
0.715330 0.565996 0.290434
0.750319 0.575159 0.299883
0.784127 0.582864 0.306887
0.816887 0.589455 0.312571
0.848493 0.595166 0.317400
0.320129 0.493763 0.151378
0.316973 0.487934 0.149429
0.321386 0.490857 0.150531
0.334822 0.502155 0.154614
0.363853 0.517750 0.160757
0.403053 0.529805 0.166452
0.456929 0.547298 0.190410
0.534396 0.575722 0.215669
0.603631 0.597639 0.251524
0.647515 0.605419 0.276741
0.687567 0.612453 0.293238
0.726157 0.620814 0.307422
0.762180 0.629622 0.318455
0.795866 0.638027 0.326817
0.828054 0.644997 0.333469
0.859070 0.650917 0.339001
0.357209 0.552728 0.171392
0.355247 0.548736 0.170028
0.358187 0.549890 0.170539
0.369052 0.558990 0.173894
0.389793 0.572365 0.179109
0.422066 0.582955 0.184080
0.463652 0.595622 0.201880
0.524384 0.617067 0.221655
0.601947 0.646408 0.250825
0.657637 0.660438 0.289598
0.699960 0.668178 0.311270
0.738676 0.675811 0.325572
0.774993 0.683739 0.337208
0.808251 0.691296 0.345424
0.839998 0.698517 0.352763
0.870651 0.704978 0.359215
0.392877 0.609845 0.191266
0.392181 0.607913 0.190633
0.395236 0.609703 0.191347
0.403459 0.615844 0.193713
0.417454 0.624777 0.197268
0.444387 0.635291 0.202029
0.478085 0.645059 0.215935
0.523164 0.659117 0.230830
0.587332 0.683188 0.249429
0.655786 0.707054 0.281074
0.707113 0.718557 0.318067
0.749676 0.727566 0.339794
0.787711 0.736157 0.354397
0.822055 0.744244 0.364747
0.852961 0.750645 0.371679
0.882755 0.756772 0.378017
0.426624 0.664250 0.210697
0.427159 0.664374 0.210769
0.429814 0.665989 0.211434
0.436457 0.670452 0.213240
0.447515 0.677198 0.216012
0.469121 0.687339 0.220523
0.501256 0.698186 0.235962
0.537232 0.708356 0.246496
0.586568 0.724570 0.259648
0.647842 0.746363 0.275808
0.707099 0.764128 0.311248
0.756163 0.774931 0.345273
0.796919 0.784098 0.365268
0.833371 0.792744 0.379313
0.865515 0.800528 0.389043
0.894641 0.806235 0.395478
0.459546 0.717605 0.230305
0.459991 0.717745 0.230357
0.462142 0.718869 0.230809
0.467317 0.721722 0.232031
0.476651 0.727184 0.234397
0.491174 0.734724 0.237702
0.520005 0.745931 0.250741
0.553533 0.756108 0.261796
0.592978 0.767446 0.272039
0.645543 0.785064 0.285466
0.703812 0.804776 0.303672
0.757537 0.818839 0.340657
0.802737 0.828600 0.370191
0.841417 0.837579 0.388736
0.875329 0.845933 0.401834
0.905249 0.852646 0.410628
0.491672 0.770336 0.250107
0.492054 0.770402 0.250142
0.493934 0.771089 0.250520
0.498063 0.772885 0.251348
0.505978 0.776923 0.253187
0.517615 0.782810 0.255846
0.537644 0.791473 0.263140
0.569822 0.802058 0.276424
0.603636 0.811103 0.285416
0.646614 0.824056 0.296239
0.700554 0.842253 0.310268
0.755929 0.859761 0.332156
0.805155 0.871668 0.368413
0.846601 0.880545 0.393706
0.882380 0.889152 0.410850
0.914359 0.896860 0.423413
0.522486 0.821151 0.269798
0.523086 0.821669 0.269987
0.525039 0.822634 0.270456
0.528471 0.823731 0.271033
0.535309 0.826908 0.272555
0.545421 0.831541 0.274797
0.560182 0.837915 0.277901
0.586833 0.847569 0.291417
0.619735 0.856619 0.301283
0.655961 0.866730 0.310269
0.702534 0.881326 0.322055
0.755648 0.898931 0.336500
0.806058 0.913433 0.362094
0.850397 0.923036 0.395440
0.888032 0.931119 0.417338
0.920994 0.938997 0.433285
0.551951 0.870116 0.289307
0.552786 0.871028 0.289685
0.554723 0.872229 0.290247
0.558019 0.873494 0.290874
0.564043 0.876061 0.292169
0.573324 0.880187 0.294246
0.585790 0.885360 0.296907
0.607263 0.893584 0.308148
0.638424 0.902389 0.318285
0.671287 0.911074 0.326580
0.712167 0.923459 0.336967
0.761550 0.939653 0.350074
0.811375 0.955357 0.366748
0.856533 0.966041 0.399027
0.895136 0.974109 0.426184
0.928223 0.980715 0.443867
0.085397 0.074404 0.235669
0.089597 0.074130 0.232432
0.118134 0.078498 0.233049
0.179579 0.092479 0.232330
0.258037 0.115277 0.228559
0.335404 0.134021 0.233021
0.398969 0.151264 0.236244
0.452242 0.166758 0.238390
0.499389 0.181170 0.240115
0.542985 0.194946 0.242709
0.585387 0.208756 0.245607
0.625917 0.222244 0.248781
0.664728 0.235454 0.251962
0.702836 0.248743 0.255559
0.740064 0.262058 0.259558
0.776251 0.275371 0.263946
0.081950 0.076195 0.222285
0.084360 0.075390 0.218283
0.109787 0.078914 0.216056
0.164904 0.090941 0.213097
0.237463 0.111297 0.206915
0.315218 0.129014 0.208288
0.387929 0.148474 0.211455
0.448213 0.166430 0.215640
0.501901 0.183210 0.220137
0.551424 0.199199 0.225350
0.595947 0.213996 0.230869
0.638592 0.228616 0.236293
0.679245 0.242763 0.241456
0.717190 0.255968 0.245636
0.753619 0.268976 0.250035
0.788942 0.281944 0.254695
0.085765 0.107161 0.219562
0.086695 0.104961 0.214428
0.110207 0.108303 0.211562
0.163269 0.117693 0.206837
0.231705 0.135162 0.198947
0.310301 0.152493 0.200038
0.386776 0.172355 0.204146
0.456887 0.192456 0.209527
0.515383 0.209666 0.215340
0.565929 0.224369 0.220556
0.612260 0.238237 0.226002
0.655260 0.251635 0.231852
0.694858 0.264046 0.237134
0.732758 0.276400 0.242419
0.768607 0.288229 0.247190
0.803416 0.300206 0.252091
0.093746 0.164582 0.221662
0.093836 0.159842 0.217067
0.110941 0.161552 0.215972
0.162001 0.169022 0.213836
0.233193 0.183117 0.205167
0.314836 0.203704 0.201814
0.392807 0.223168 0.206153
0.465964 0.243105 0.212472
0.529747 0.260810 0.219547
0.582609 0.274930 0.225607
0.629153 0.286776 0.231052
0.672147 0.298214 0.236636
0.712682 0.309676 0.242483
0.750466 0.320436 0.248058
0.786107 0.330132 0.253116
0.819845 0.339527 0.257882
0.116713 0.238589 0.224395
0.114839 0.231378 0.220364
0.125678 0.231939 0.220237
0.164205 0.237108 0.220824
0.233945 0.247801 0.221435
0.322707 0.267275 0.210000
0.403744 0.289145 0.213457
0.476534 0.309582 0.220941
0.543801 0.327654 0.229030
0.598992 0.341671 0.235955
0.645990 0.353274 0.242626
0.687999 0.362843 0.248439
0.726610 0.371330 0.253574
0.763216 0.379587 0.258664
0.797818 0.386677 0.263205
0.831083 0.392753 0.267398
0.169773 0.309619 0.219845
0.165157 0.303232 0.218921
0.172072 0.304658 0.219054
0.195590 0.311143 0.219601
0.254856 0.324668 0.221846
0.327933 0.340050 0.225952
0.417771 0.359751 0.224156
0.487837 0.378178 0.232054
0.554814 0.395749 0.240241
0.612201 0.410667 0.248822
0.658046 0.423000 0.259451
0.697466 0.432605 0.267642
0.733999 0.440020 0.273007
0.769199 0.446605 0.277419
0.803582 0.452983 0.281650
0.836761 0.457973 0.285099
0.241668 0.373783 0.220380
0.236214 0.368288 0.219820
0.242016 0.370457 0.220129
0.259225 0.377820 0.221140
0.305240 0.392768 0.224054
0.362149 0.407763 0.228212
0.432335 0.426043 0.235756
0.502417 0.445110 0.244753
0.565262 0.460676 0.252684
0.622295 0.475965 0.264072
0.666944 0.488410 0.279518
0.705150 0.498504 0.289757
0.740508 0.506336 0.295816
0.774913 0.512831 0.300609
0.808422 0.518384 0.304587
0.840810 0.523313 0.308257
0.290027 0.434642 0.230622
0.288004 0.430451 0.229773
0.292351 0.433055 0.230378
0.304012 0.440661 0.232109
0.336327 0.455517 0.235947
0.384695 0.471571 0.241465
0.446118 0.488153 0.249165
0.515267 0.506153 0.257884
0.576415 0.521729 0.265932
0.631045 0.535786 0.278046
0.675590 0.547900 0.295647
0.714993 0.558978 0.308571
0.750364 0.568245 0.316654
0.784272 0.575835 0.322657
0.816742 0.581928 0.327487
0.848421 0.587161 0.331730
0.326017 0.493086 0.243182
0.323677 0.488504 0.242166
0.327547 0.490882 0.242773
0.338235 0.498929 0.244785
0.363090 0.513079 0.248591
0.405103 0.528216 0.254207
0.457163 0.545169 0.262011
0.522545 0.564507 0.271192
0.587808 0.581970 0.280639
0.640985 0.594120 0.293201
0.685211 0.604477 0.310248
0.724984 0.614513 0.323727
0.761664 0.624423 0.334056
0.795499 0.633312 0.341660
0.827702 0.640753 0.347917
0.858954 0.647118 0.353510
0.362052 0.551620 0.257142
0.358906 0.545865 0.255741
0.361612 0.546821 0.256048
0.371608 0.554999 0.258243
0.390699 0.568578 0.262089
0.424681 0.581767 0.266886
0.467445 0.595338 0.273523
0.525472 0.614666 0.282862
0.598478 0.639772 0.296263
0.655105 0.653844 0.312429
0.697266 0.661524 0.327176
0.736120 0.669235 0.339088
0.773047 0.677867 0.349697
0.807318 0.686198 0.358038
0.839337 0.694483 0.365519
0.870226 0.701703 0.372125
0.397245 0.609055 0.272157
0.395797 0.605968 0.271302
0.397537 0.605814 0.271349
0.405422 0.611691 0.273123
0.419601 0.622019 0.276240
0.445683 0.633432 0.280300
0.480476 0.643890 0.285626
0.526841 0.658546 0.293237
0.590620 0.681478 0.304653
0.660024 0.705689 0.322683
0.708168 0.715844 0.341657
0.748165 0.723138 0.355067
0.785120 0.730674 0.365830
0.819746 0.738460 0.375019
0.851503 0.745854 0.382386
0.881730 0.753049 0.389331
0.431649 0.665381 0.288055
0.431291 0.664250 0.287737
0.433118 0.664380 0.287870
0.439568 0.668729 0.289258
0.450426 0.675609 0.291557
0.469840 0.685045 0.295023
0.499916 0.694581 0.299839
0.535697 0.704509 0.305472
0.584905 0.720529 0.313995
0.649377 0.744606 0.326672
0.709494 0.763160 0.345735
0.756428 0.772928 0.366147
0.795907 0.781159 0.380193
0.831679 0.789068 0.391240
0.864010 0.796765 0.399876
0.893468 0.803338 0.406602
0.464029 0.718590 0.304130
0.464397 0.718591 0.304113
0.466378 0.719431 0.304443
0.471443 0.722206 0.305479
0.480821 0.727744 0.307492
0.495270 0.735322 0.310382
0.523049 0.745868 0.315591
0.555138 0.755136 0.321000
0.593450 0.765889 0.327211
0.645564 0.783553 0.336900
0.704606 0.804024 0.349498
0.758501 0.818415 0.370048
0.802819 0.827606 0.389890
0.840865 0.836074 0.403863
0.874872 0.844243 0.414896
0.904826 0.851327 0.423173
0.495712 0.771023 0.320988
0.496081 0.771050 0.320996
0.497735 0.771669 0.321211
0.501940 0.773624 0.322010
0.509772 0.777663 0.323613
0.521635 0.783819 0.326055
0.542182 0.792809 0.330213
0.573654 0.802810 0.336135
0.606572 0.811549 0.341548
0.648745 0.824368 0.349085
0.701416 0.841907 0.359380
0.756225 0.859460 0.372679
0.805446 0.871476 0.394258
0.846835 0.879980 0.412679
0.882344 0.888267 0.426220
0.914121 0.896037 0.437023
0.526621 0.822577 0.338485
0.526913 0.822452 0.338462
0.528412 0.822956 0.338644
0.531950 0.824166 0.339221
0.538506 0.827180 0.340477
0.548769 0.831988 0.342569
0.563588 0.838617 0.345582
0.590014 0.848051 0.350992
0.622324 0.857017 0.356786
0.657317 0.866401 0.362795
0.702577 0.880549 0.371454
0.754895 0.897835 0.382381
0.805460 0.912692 0.397204
0.850109 0.922741 0.418450
0.887626 0.930540 0.435029
0.920775 0.938390 0.448250
0.555864 0.871720 0.356053
0.556573 0.872249 0.356232
0.558029 0.872756 0.356489
0.561217 0.873768 0.357005
0.567024 0.876072 0.358088
0.576116 0.880067 0.359897
0.588834 0.885653 0.362570
0.609688 0.893694 0.367088
0.640992 0.902970 0.373213
0.672629 0.911026 0.378744
0.712024 0.922292 0.386172
0.760194 0.937946 0.396314
0.810196 0.954152 0.408326
0.855586 0.965583 0.426229
0.894726 0.973237 0.445949
0.927970 0.980725 0.460468
0.100768 0.087769 0.286457
0.108290 0.088196 0.284247
0.137972 0.092099 0.281722
0.189433 0.102278 0.276717
0.255407 0.121055 0.269886
0.331809 0.140946 0.271378
0.400380 0.158395 0.275198
0.455679 0.173643 0.277422
0.502670 0.187269 0.278451
0.545908 0.200530 0.279745
0.588036 0.213882 0.281861
0.628473 0.227100 0.284568
0.667092 0.240076 0.287613
0.705110 0.253138 0.290956
0.742112 0.266176 0.294607
0.778045 0.279220 0.298552
0.098319 0.089494 0.276601
0.100678 0.089090 0.274069
0.121739 0.091819 0.272023
0.165810 0.099674 0.268497
0.231869 0.116869 0.262347
0.309050 0.137318 0.260272
0.385027 0.155585 0.264118
0.447102 0.172441 0.267221
0.501708 0.188583 0.270151
0.550803 0.203689 0.272583
0.595220 0.217922 0.275399
0.638432 0.232514 0.279502
0.679532 0.246674 0.283588
0.717727 0.259828 0.287225
0.753994 0.272595 0.290917
0.789618 0.285485 0.294899
0.101064 0.114365 0.273159
0.101886 0.112164 0.269881
0.119406 0.114746 0.268554
0.163353 0.121467 0.264830
0.228757 0.136348 0.257619
0.306672 0.156544 0.253066
0.384024 0.174827 0.256641
0.454024 0.193811 0.261144
0.512172 0.210726 0.265536
0.564456 0.226566 0.270083
0.612386 0.241446 0.274328
0.655780 0.255240 0.278571
0.696860 0.268960 0.283197
0.736223 0.282350 0.287854
0.772251 0.294393 0.291913
0.806761 0.306141 0.296109
0.108452 0.162501 0.275357
0.108292 0.158086 0.270791
0.119847 0.160201 0.269086
0.162338 0.167433 0.266538
0.231322 0.180376 0.259005
0.310221 0.200783 0.249154
0.387730 0.218997 0.252655
0.461640 0.238842 0.257812
0.525989 0.256957 0.263465
0.579261 0.271478 0.268673
0.626913 0.284188 0.273405
0.670949 0.296382 0.278473
0.712047 0.308520 0.283992
0.750052 0.319716 0.289256
0.785157 0.329287 0.293645
0.818572 0.338113 0.297471
0.118735 0.228871 0.280463
0.117247 0.219740 0.274724
0.125753 0.219269 0.271202
0.156174 0.225751 0.269584
0.228370 0.238468 0.266458
0.313055 0.256668 0.253868
0.395529 0.279255 0.250809
0.469263 0.299026 0.256443
0.537491 0.318135 0.262784
0.594187 0.333311 0.268979
0.642010 0.345267 0.274395
0.685403 0.355683 0.279698
0.725676 0.365446 0.285296
0.763357 0.375565 0.291705
0.798623 0.385121 0.297210
0.831940 0.393112 0.301679
0.150026 0.305208 0.278458
0.144855 0.293278 0.273414
0.150146 0.289912 0.268665
0.170144 0.294536 0.266968
0.228779 0.308143 0.267415
0.310832 0.324190 0.269435
0.408128 0.347147 0.258757
0.481705 0.367420 0.263322
0.549138 0.385643 0.269824
0.608459 0.401917 0.276542
0.656713 0.414424 0.282985
0.698320 0.424386 0.289131
0.735729 0.432236 0.294190
0.771217 0.439058 0.298706
0.805563 0.445773 0.303227
0.838484 0.452157 0.307386
0.206244 0.375358 0.273400
0.200002 0.365598 0.268654
0.204758 0.364279 0.264993
0.217687 0.366346 0.263425
0.258880 0.378684 0.264262
0.325945 0.394489 0.267756
0.410291 0.414575 0.275188
0.495396 0.435155 0.273627
0.559637 0.452016 0.280219
0.619228 0.467915 0.287608
0.666644 0.480684 0.296815
0.706138 0.490595 0.305236
0.742153 0.498418 0.310952
0.776586 0.504779 0.315412
0.809939 0.510772 0.319597
0.842388 0.516407 0.323662
0.275692 0.436508 0.271272
0.272289 0.430298 0.266906
0.278038 0.431459 0.264999
0.287625 0.433831 0.264627
0.316083 0.444523 0.266296
0.370183 0.459214 0.270302
0.436150 0.476933 0.276529
0.509680 0.498842 0.284837
0.570705 0.515621 0.292123
0.627635 0.530031 0.299845
0.675104 0.542501 0.311694
0.715009 0.552965 0.322274
0.750779 0.561518 0.329226
0.784695 0.568105 0.334182
0.817185 0.573378 0.338256
0.848862 0.578231 0.342178
0.329871 0.494784 0.277688
0.327201 0.490001 0.274158
0.330466 0.491686 0.273852
0.338958 0.496686 0.275006
0.357634 0.508189 0.277946
0.399902 0.524291 0.283584
0.454329 0.540516 0.289927
0.519674 0.558527 0.297414
0.583806 0.576111 0.305432
0.637457 0.588899 0.312971
0.684157 0.600337 0.325536
0.724875 0.610968 0.337612
0.761705 0.620698 0.346707
0.795459 0.628667 0.353110
0.827561 0.635115 0.358296
0.858494 0.640390 0.362768
0.365204 0.552944 0.289682
0.362272 0.547646 0.286310
0.364607 0.548224 0.286186
0.372626 0.553519 0.287579
0.387159 0.563452 0.290291
0.418713 0.578269 0.295449
0.465980 0.594542 0.302031
0.524476 0.612802 0.309743
0.588856 0.631181 0.318256
0.646331 0.645292 0.326298
0.693716 0.655332 0.338659
0.734689 0.664918 0.351181
0.772652 0.674436 0.361487
0.807377 0.683383 0.369739
0.839304 0.691257 0.376389
0.869911 0.697968 0.382124
0.399741 0.609691 0.303351
0.397426 0.605392 0.300526
0.398553 0.604392 0.299870
0.405750 0.609316 0.301249
0.418009 0.617507 0.303645
0.439896 0.629161 0.307668
0.478697 0.642987 0.313580
0.528952 0.659764 0.320882
0.590845 0.679975 0.330190
0.653458 0.699043 0.340365
0.703943 0.709689 0.352739
0.745322 0.717572 0.365056
0.783351 0.726258 0.375741
0.818843 0.735048 0.385129
0.850842 0.742621 0.392363
0.881293 0.750173 0.399234
0.433999 0.666123 0.318392
0.432797 0.663687 0.316144
0.433610 0.662356 0.315358
0.439318 0.665775 0.316332
0.449377 0.671614 0.318258
0.464771 0.679721 0.321113
0.494491 0.690942 0.325989
0.535262 0.703443 0.332010
0.588389 0.721330 0.340425
0.651752 0.743685 0.351340
0.710083 0.761120 0.364731
0.755543 0.769718 0.379135
0.794302 0.777354 0.390513
0.829927 0.785187 0.400191
0.862754 0.792901 0.408655
0.892610 0.800072 0.415576
0.466501 0.719875 0.333771
0.466286 0.718951 0.332004
0.467394 0.718573 0.331551
0.471804 0.720296 0.332140
0.480248 0.724643 0.333682
0.492677 0.730707 0.335927
0.515089 0.740001 0.339971
0.548623 0.749932 0.345092
0.588541 0.761503 0.351038
0.642573 0.779966 0.360369
0.704537 0.802384 0.372398
0.759030 0.817284 0.388164
0.802763 0.826189 0.403294
0.839946 0.833735 0.414625
0.873632 0.841513 0.424349
0.903990 0.848792 0.432427
0.497619 0.771668 0.349301
0.497712 0.771353 0.348025
0.499266 0.771710 0.347920
0.502915 0.772938 0.348381
0.510317 0.776455 0.349746
0.521617 0.781896 0.351942
0.539791 0.790250 0.355582
0.569927 0.799845 0.360680
0.602650 0.808556 0.365499
0.643418 0.820119 0.371949
0.697269 0.838608 0.382020
0.755296 0.858367 0.394732
0.806138 0.871460 0.411583
0.847229 0.879963 0.426745
0.882298 0.887761 0.438191
0.913747 0.895059 0.447802
0.528263 0.823036 0.365991
0.528196 0.822413 0.364709
0.529574 0.822605 0.364624
0.532930 0.823766 0.365181
0.539295 0.826429 0.366265
0.549468 0.831198 0.368312
0.564928 0.838728 0.371735
0.591300 0.848078 0.376743
0.621629 0.856131 0.381476
0.655636 0.864818 0.386726
0.698775 0.877648 0.394219
0.750746 0.895089 0.404608
0.805071 0.912303 0.418137
0.851533 0.923025 0.435828
0.888502 0.930788 0.449454
0.921053 0.938274 0.460714
0.557624 0.872400 0.383334
0.557811 0.872243 0.382267
0.559018 0.872431 0.382076
0.562002 0.873257 0.382375
0.567595 0.875186 0.383371
0.576854 0.879423 0.385286
0.589904 0.885666 0.388249
0.611271 0.893860 0.392673
0.640840 0.902339 0.397771
0.671649 0.909910 0.402650
0.709514 0.920461 0.409249
0.755558 0.934858 0.418248
0.807512 0.952049 0.429794
0.856858 0.965850 0.446121
0.895994 0.973875 0.462204
0.928768 0.981073 0.474368
0.107997 0.093829 0.310572
0.119742 0.095100 0.309694
0.154672 0.100047 0.306986
0.208345 0.111134 0.301317
0.271122 0.129042 0.293324
0.335428 0.146048 0.291986
0.400302 0.162003 0.295284
0.457214 0.177354 0.298092
0.506609 0.191498 0.300188
0.550117 0.204605 0.301969
0.591043 0.217497 0.304037
0.630734 0.230361 0.306500
0.669204 0.243154 0.309359
0.706966 0.256002 0.312496
0.743679 0.268878 0.315874
0.779351 0.281710 0.319586
0.106422 0.095646 0.305353
0.110546 0.095451 0.303472
0.133592 0.098556 0.301645
0.178198 0.106446 0.297822
0.237698 0.121047 0.290595
0.304044 0.140142 0.284780
0.378045 0.157137 0.288362
0.443272 0.174101 0.291716
0.497585 0.189512 0.294408
0.546478 0.204125 0.296744
0.591242 0.218242 0.298872
0.633849 0.232184 0.301523
0.675021 0.246074 0.304776
0.713705 0.259369 0.308157
0.750344 0.272241 0.311707
0.786187 0.285241 0.315568
0.109037 0.117645 0.303151
0.110250 0.116336 0.300972
0.127257 0.119005 0.299636
0.169102 0.125372 0.296294
0.227478 0.137448 0.289687
0.299115 0.156886 0.282039
0.376229 0.174239 0.285004
0.447755 0.192545 0.288964
0.507110 0.209079 0.292507
0.559671 0.224427 0.295862
0.608222 0.239482 0.299171
0.652310 0.253757 0.302453
0.693596 0.267543 0.306214
0.733441 0.281421 0.310503
0.770010 0.293975 0.314628
0.805030 0.306046 0.318622
0.116289 0.163776 0.305346
0.116496 0.159629 0.302051
0.127293 0.161593 0.301218
0.165581 0.168551 0.299727
0.228365 0.179304 0.293591
0.305921 0.198680 0.283131
0.383815 0.217666 0.284011
0.457695 0.236455 0.288482
0.522039 0.253822 0.292966
0.576055 0.268313 0.296950
0.624524 0.281543 0.300993
0.669422 0.294624 0.305117
0.710488 0.306928 0.309232
0.748820 0.318351 0.313307
0.785042 0.329542 0.317609
0.819299 0.340029 0.321849
0.125163 0.224621 0.310936
0.124643 0.217303 0.306425
0.133494 0.218083 0.305235
0.160105 0.224981 0.305235
0.225347 0.236609 0.302736
0.310092 0.254220 0.291989
0.392499 0.277003 0.284286
0.465937 0.296146 0.289159
0.534182 0.314791 0.294612
0.592410 0.330739 0.299801
0.640943 0.343085 0.304585
0.684559 0.353774 0.309129
0.725140 0.363683 0.313602
0.762890 0.372832 0.318054
0.797860 0.380461 0.322006
0.831047 0.387856 0.326021
0.147165 0.301079 0.312954
0.142705 0.287980 0.308679
0.149354 0.286616 0.307048
0.168489 0.291526 0.306795
0.216505 0.303970 0.307645
0.303914 0.320627 0.307652
0.401983 0.343158 0.294316
0.478319 0.365150 0.292833
0.546077 0.382965 0.298701
0.606631 0.399376 0.305061
0.656635 0.412547 0.310846
0.699476 0.422507 0.315925
0.737889 0.430162 0.320412
0.773404 0.436164 0.324631
0.807194 0.441513 0.328819
0.839893 0.446788 0.332803
0.190490 0.372576 0.308869
0.184520 0.362263 0.305342
0.188109 0.359753 0.303676
0.201890 0.362349 0.303076
0.233074 0.372190 0.303345
0.307652 0.390208 0.305754
0.398973 0.410509 0.309820
0.491951 0.432377 0.301261
0.557401 0.450180 0.305030
0.617440 0.465826 0.311560
0.668235 0.479209 0.318212
0.710435 0.489476 0.324505
0.747243 0.496942 0.329559
0.781829 0.503242 0.333835
0.814982 0.508641 0.337985
0.847199 0.513311 0.342191
0.254081 0.438296 0.304585
0.248019 0.430279 0.301427
0.249957 0.427964 0.299481
0.260197 0.429938 0.298511
0.282428 0.437632 0.298451
0.339447 0.454289 0.300518
0.414472 0.474645 0.304464
0.494815 0.496363 0.310497
