tools/decompiled/jadx/resources/res/raw/aged.cube
LUT_3D_SIZE 6
0.000180 0.000105 0.000049
0.172605 0.055380 0.027574
0.389226 0.127731 0.074049
0.531123 0.178037 0.119583
0.653762 0.221494 0.140117
0.767103 0.263755 0.160994
0.113145 0.171743 0.049797
0.171916 0.177694 0.054102
0.403650 0.237055 0.086635
0.591916 0.288296 0.147472
0.718045 0.321713 0.177625
0.823796 0.348337 0.194244
0.244095 0.374101 0.112227
0.264595 0.382313 0.115491
0.440033 0.438123 0.158252
0.624912 0.485866 0.232563
0.739622 0.516836 0.277116
0.839460 0.535041 0.291278
0.357209 0.552728 0.171392
0.369052 0.558990 0.173894
0.463652 0.595622 0.201880
0.657637 0.660438 0.289598
0.774993 0.683739 0.337208
0.870651 0.704978 0.359215
0.459546 0.717605 0.230305
0.467317 0.721722 0.232031
0.520005 0.745931 0.250741
0.645543 0.785064 0.285466
0.802737 0.828600 0.370191
0.905249 0.852646 0.410628
0.551951 0.870116 0.289307
0.558019 0.873494 0.290874
0.585790 0.885360 0.296907
0.671287 0.911074 0.326580
0.811375 0.955357 0.366748
0.928223 0.980715 0.443867
0.107997 0.093829 0.310572
0.208345 0.111134 0.301317
0.400302 0.162003 0.295284
0.550117 0.204605 0.301969
0.669204 0.243154 0.309359
0.779351 0.281710 0.319586
0.116289 0.163776 0.305346
0.165581 0.168551 0.299727
0.383815 0.217666 0.284011
0.576055 0.268313 0.296950
0.710488 0.306928 0.309232
0.819299 0.340029 0.321849
0.190490 0.372576 0.308869
0.201890 0.362349 0.303076
0.398973 0.410509 0.309820
0.617440 0.465826 0.311560
0.747243 0.496942 0.329559
0.847199 0.513311 0.342191
0.369227 0.556300 0.316473
0.374802 0.554454 0.310862
0.456369 0.587706 0.320228
0.644005 0.643993 0.343140
0.774063 0.674458 0.373778
0.870368 0.694764 0.391443
0.470357 0.724027 0.358302
0.472480 0.719743 0.351274
0.511190 0.737429 0.357160
0.651283 0.783976 0.378885
0.803174 0.825004 0.414466
0.903894 0.847182 0.441675
0.560006 0.874727 0.404845
0.563123 0.873610 0.400789
0.588550 0.882695 0.404062
0.667070 0.907313 0.417618
0.808098 0.952319 0.445610
0.929296 0.981503 0.485770
0.121271 0.105508 0.360038
0.232229 0.125097 0.352652
0.406123 0.172191 0.342878
0.554010 0.212352 0.350883
0.674779 0.250491 0.359207
0.784334 0.288327 0.369536
0.130188 0.159604 0.367328
0.185537 0.163661 0.362715
0.372250 0.208954 0.343158
0.557068 0.250508 0.353856
0.699491 0.293902 0.365736
0.809178 0.326235 0.376227
0.176445 0.362151 0.386924
0.194292 0.354188 0.382826
0.395767 0.402266 0.390619
0.607905 0.454713 0.378542
0.748106 0.487662 0.394644
0.848635 0.499017 0.403328
0.353492 0.566634 0.378623
0.356652 0.560401 0.374399
0.426740 0.588132 0.381457
0.639082 0.649881 0.406114
0.786378 0.686110 0.428320
0.884248 0.705016 0.443166
0.486269 0.745347 0.416812
0.483997 0.733575 0.406450
0.518307 0.748058 0.411109
0.653472 0.795212 0.433117
0.811260 0.840748 0.461783
0.912882 0.859628 0.488065
0.576224 0.898003 0.464202
0.574789 0.889278 0.454206
0.597226 0.893884 0.454132
0.662846 0.915861 0.465313
0.821128 0.966167 0.496710
0.933973 0.983387 0.525469
0.137292 0.119670 0.425989
0.245785 0.138094 0.420313
0.413828 0.185165 0.404511
0.558842 0.222402 0.412969
0.678379 0.258474 0.421240
0.787287 0.295322 0.431172
0.144795 0.162077 0.435862
0.199574 0.164557 0.431497
0.364484 0.200726 0.410535
0.545768 0.245798 0.417142
0.694013 0.291233 0.431661
0.805661 0.324710 0.441813
0.178128 0.346967 0.476316
0.203549 0.342330 0.474498
0.397864 0.377374 0.472300
0.587216 0.420861 0.452179
0.732292 0.450057 0.468078
0.842036 0.469424 0.478400
0.305785 0.569367 0.482918
0.307815 0.558922 0.480456
0.397584 0.590720 0.493011
0.615347 0.636700 0.527785
0.783389 0.673996 0.522472
0.884892 0.694378 0.539515
0.493937 0.752196 0.497517
0.494229 0.744347 0.491034
0.530114 0.759776 0.500012
0.661247 0.804565 0.528617
0.814443 0.846941 0.565183
0.920127 0.868563 0.589580
0.589033 0.913744 0.550894
0.588842 0.906631 0.540327
0.613937 0.915203 0.543726
0.668877 0.934683 0.556269
0.825316 0.974019 0.593648
0.938178 0.986380 0.620618
0.159272 0.139233 0.532790
0.256064 0.154776 0.530765
0.423146 0.200766 0.506560
0.565186 0.237502 0.511710
0.683260 0.270919 0.520092
0.791511 0.305810 0.530019
0.164683 0.169850 0.542023
0.216686 0.174636 0.540542
0.371247 0.205992 0.519043
0.544655 0.252082 0.514730
0.689412 0.292142 0.529545
0.802190 0.325725 0.540040
0.195478 0.336299 0.599414
0.224106 0.332656 0.597345
0.396013 0.360319 0.591340
0.572544 0.392409 0.552783
0.718531 0.424115 0.571903
0.835576 0.450330 0.587332
0.272242 0.557622 0.642941
0.276999 0.543363 0.637989
0.390749 0.571547 0.662832
0.607682 0.607600 0.693612
0.774936 0.650310 0.650220
0.879766 0.662312 0.666342
0.440278 0.757326 0.653786
0.436093 0.745347 0.647191
0.474500 0.755015 0.656326
0.631956 0.800337 0.704355
0.791740 0.835574 0.765400
0.919745 0.859263 0.753491
0.596503 0.917411 0.698608
0.597760 0.912447 0.691097
0.622356 0.919939 0.699032
0.677301 0.937061 0.720284
0.834002 0.978661 0.792476
0.940943 0.990415 0.839135
0.180498 0.158119 0.667802
0.267500 0.170266 0.654253
0.431856 0.211817 0.614048
0.570717 0.250176 0.604617
0.687696 0.281603 0.613203
0.795122 0.314866 0.623891
0.184297 0.183821 0.672861
0.230858 0.187944 0.666143
0.379898 0.216001 0.632706
0.549429 0.262802 0.604882
0.692271 0.300160 0.615278
0.804708 0.332579 0.626545
0.210455 0.339336 0.719056
0.237305 0.335958 0.714418
0.399858 0.362014 0.686106
0.575227 0.393964 0.623949
0.719522 0.425197 0.632954
0.836398 0.451144 0.646297
0.269297 0.556745 0.763283
0.275771 0.542475 0.763554
0.391457 0.570002 0.769991
0.608394 0.605088 0.762327
0.773697 0.646856 0.685481
0.878647 0.657789 0.698802
0.419173 0.759260 0.751132
0.413773 0.746602 0.752645
0.455831 0.755585 0.756788
0.624867 0.800062 0.781017
0.789567 0.833096 0.829591
0.919423 0.857669 0.787723
0.586401 0.917999 0.776151
0.586231 0.913303 0.774349
0.614052 0.921727 0.780632
0.672664 0.938187 0.795477
0.833782 0.979454 0.851621
0.940979 0.991015 0.901187
