tools/decompiled/jadx/resources/res/raw/cave.cube
LUT_3D_SIZE 16
0.000000 0.000000 0.000000
0.018263 0.000000 0.000010
0.100426 0.000292 0.000053
0.197247 0.003421 0.000115
0.292697 0.013019 0.000159
0.365792 0.021114 0.000198
0.421782 0.024756 0.000231
0.472903 0.025447 0.000260
0.519429 0.024025 0.000295
0.563457 0.020506 0.000322
0.605015 0.016252 0.000410
0.642041 0.013638 0.000720
0.672023 0.016051 0.002054
0.695831 0.018629 0.003701
0.716151 0.024292 0.006579
0.733014 0.028161 0.010167
0.000207 0.028712 0.000000
0.048552 0.041639 0.000005
0.127085 0.055159 0.000042
0.207795 0.068826 0.000088
0.281477 0.075782 0.000124
0.347744 0.079901 0.000157
0.406395 0.081770 0.000186
0.459417 0.082340 0.000223
0.509375 0.082525 0.000255
0.557521 0.080475 0.000285
0.604318 0.077010 0.000316
0.646927 0.072238 0.000340
0.685663 0.069882 0.000364
0.717458 0.069587 0.000388
0.744386 0.072856 0.000465
0.769391 0.076481 0.000639
0.006053 0.092758 0.000000
0.055979 0.104586 0.000000
0.129185 0.119237 0.000016
0.204786 0.129930 0.000049
0.278000 0.140109 0.000093
0.345880 0.147068 0.000129
0.411372 0.150445 0.000161
0.472869 0.151987 0.000197
0.526809 0.151696 0.000232
0.575871 0.150726 0.000256
0.625545 0.150383 0.000291
0.672003 0.148507 0.000317
0.713095 0.144432 0.000344
0.747632 0.140840 0.000365
0.776225 0.140170 0.000387
0.798385 0.139129 0.000407
0.007553 0.147232 0.000000
0.048564 0.158142 0.000000
0.123176 0.174718 0.000000
0.199165 0.190794 0.000017
0.272876 0.203770 0.000054
0.342271 0.213655 0.000092
0.415471 0.221539 0.000131
0.486921 0.227804 0.000167
0.548674 0.231231 0.000203
0.602042 0.230669 0.000235
0.654045 0.229283 0.000267
0.705040 0.228518 0.000297
0.748534 0.224104 0.000333
0.783193 0.214229 0.000396
0.812282 0.208351 0.000486
0.833196 0.202927 0.000550
0.012481 0.198058 0.000000
0.046046 0.207026 0.000002
0.120681 0.222597 0.000000
0.196144 0.238699 0.000006
0.268780 0.254156 0.000032
0.340276 0.266965 0.000060
0.417338 0.278231 0.000104
0.497151 0.287876 0.000151
0.564518 0.293927 0.000183
0.620474 0.297102 0.000216
0.674343 0.296135 0.000250
0.728433 0.294729 0.000360
0.776692 0.293295 0.000720
0.814577 0.284996 0.001496
0.844109 0.275965 0.002493
0.867030 0.268590 0.003106
0.019523 0.237054 0.000007
0.047240 0.248945 0.000109
0.116254 0.264729 0.000059
0.196203 0.282299 0.000014
0.269373 0.298673 0.000011
0.340730 0.313178 0.000041
0.419553 0.327983 0.000081
0.507214 0.343343 0.000125
0.580710 0.351942 0.000167
0.637120 0.356265 0.000288
0.691843 0.358761 0.000721
0.747418 0.357817 0.002002
0.798297 0.357365 0.003896
0.840006 0.353330 0.006253
0.871790 0.345449 0.008552
0.895278 0.336861 0.010052
0.026912 0.274255 0.000551
0.046943 0.286776 0.000511
0.107874 0.303553 0.000245
0.196393 0.323302 0.000028
0.272405 0.342206 0.000001
0.343330 0.360308 0.000018
0.421451 0.378360 0.000055
0.512470 0.397765 0.000268
0.594906 0.412492 0.000805
0.654904 0.418943 0.002001
0.709771 0.422839 0.004010
0.766719 0.426368 0.007386
0.819876 0.426768 0.011028
0.863864 0.424679 0.014131
0.897165 0.419904 0.016745
0.921966 0.413371 0.018672
0.033823 0.312678 0.003181
0.046976 0.324721 0.000531
0.098349 0.344839 0.000586
0.197639 0.367089 0.000466
0.275774 0.386820 0.000244
0.346968 0.406398 0.000147
0.423214 0.426639 0.000529
0.515513 0.450308 0.001616
0.604296 0.470498 0.004361
0.669797 0.482308 0.007553
0.725393 0.488054 0.011127
0.783091 0.494363 0.015472
0.840004 0.499546 0.019346
0.885669 0.499812 0.022085
0.920864 0.498134 0.024525
0.946112 0.494480 0.027671
0.040834 0.355826 0.005506
0.051229 0.367386 0.001611
0.097267 0.389134 0.001772
0.197118 0.412528 0.001263
0.278036 0.433093 0.000544
0.349183 0.453017 0.000869
0.426022 0.473621 0.002655
0.515015 0.496847 0.005818
0.608706 0.521101 0.011605
0.678266 0.538542 0.016133
0.734825 0.549537 0.019004
0.793953 0.558214 0.021668
0.853392 0.566779 0.024987
0.902587 0.571632 0.028303
0.939701 0.573358 0.032667
0.965353 0.573342 0.038007
0.048773 0.402878 0.014787
0.060928 0.415323 0.009137
0.110922 0.435077 0.004620
0.200759 0.457572 0.003060
0.279530 0.477394 0.003034
0.349964 0.496546 0.004614
0.426072 0.516404 0.007038
0.514342 0.539991 0.011614
0.607162 0.566093 0.017154
0.682137 0.588257 0.021459
0.739973 0.603402 0.024479
0.799559 0.615262 0.026550
0.861027 0.626912 0.029491
0.911846 0.636369 0.033935
0.948555 0.643044 0.045878
0.968446 0.647745 0.068153
0.056554 0.445231 0.026613
0.071649 0.457588 0.018283
0.118469 0.477793 0.012617
0.199195 0.498696 0.009773
0.283393 0.518496 0.009932
0.353303 0.536787 0.011875
0.425745 0.556651 0.014654
0.513999 0.582162 0.018530
0.606213 0.609421 0.022751
0.684755 0.633535 0.026331
0.745651 0.651848 0.029134
0.801908 0.665804 0.031304
0.863392 0.680017 0.034398
0.914328 0.692990 0.047407
0.944202 0.702657 0.083000
0.958909 0.711959 0.126726
0.064652 0.489454 0.038852
0.078677 0.501749 0.032436
0.117969 0.519558 0.027360
0.192016 0.538379 0.022568
0.278997 0.559268 0.020885
0.356581 0.579709 0.021893
0.430941 0.600553 0.023917
0.515355 0.623207 0.025714
0.608516 0.651764 0.028558
0.690812 0.678133 0.031729
0.754074 0.697639 0.034335
0.807045 0.710850 0.036402
0.863797 0.725360 0.042076
0.909346 0.740150 0.075521
0.933984 0.752152 0.136178
0.948038 0.763702 0.190861
0.072667 0.530280 0.051060
0.083542 0.542120 0.047207
0.111591 0.557757 0.044275
0.172726 0.576574 0.040890
0.263640 0.598434 0.037045
0.351364 0.621260 0.033758
0.434267 0.644613 0.033298
0.520952 0.667758 0.033289
0.609214 0.692771 0.034597
0.692796 0.718559 0.037328
0.761132 0.739579 0.039978
0.815412 0.753235 0.041732
0.864202 0.764823 0.057645
0.900832 0.777640 0.114087
0.923559 0.791117 0.185541
0.939296 0.807820 0.252246
0.078672 0.566494 0.064657
0.086355 0.577115 0.063435
0.100995 0.591056 0.062699
0.149786 0.607591 0.060525
0.236553 0.628255 0.055384
0.337159 0.653066 0.047460
0.425101 0.677634 0.042578
0.513682 0.702533 0.040238
0.603065 0.727770 0.040203
0.686193 0.753228 0.042381
0.759192 0.776968 0.044955
0.817914 0.791400 0.050702
0.861270 0.800049 0.088222
0.892436 0.809773 0.156868
0.915945 0.823305 0.231908
0.934139 0.841954 0.306772
0.082226 0.594911 0.076230
0.088387 0.603990 0.075809
0.099822 0.615210 0.075807
0.129990 0.629076 0.074624
0.208016 0.648974 0.069945
0.311130 0.674547 0.062762
0.409553 0.702237 0.055538
0.500049 0.726397 0.049159
0.588582 0.752119 0.045866
0.671547 0.779217 0.046139
0.745540 0.805292 0.049156
0.808126 0.822586 0.066246
0.852613 0.830202 0.126840
0.884697 0.838470 0.201164
0.910060 0.850513 0.275165
0.932523 0.870753 0.361186
0.085492 0.617319 0.085190
0.090801 0.625642 0.085909
0.099952 0.636030 0.087662
0.127019 0.649482 0.087792
0.189542 0.667310 0.084750
0.290538 0.692446 0.077369
0.395362 0.720279 0.067408
0.483770 0.745699 0.059165
0.568740 0.773008 0.053637
0.649974 0.801917 0.051625
0.722990 0.829451 0.053792
0.788649 0.849682 0.091363
0.839883 0.859480 0.168241
0.875983 0.867554 0.248488
0.906173 0.879502 0.329017
0.934582 0.900353 0.426645
0.000000 0.000000 0.000000
0.003764 0.000000 0.000000
0.055466 0.000009 0.000224
0.136445 0.001013 0.012955
0.222863 0.007188 0.033181
0.299766 0.015144 0.043452
0.367407 0.020969 0.043712
0.429060 0.023359 0.036826
0.486181 0.024096 0.034058
0.539850 0.022193 0.031023
0.590708 0.018235 0.022261
0.633448 0.014431 0.022276
0.669721 0.012328 0.021692
0.692848 0.012843 0.020432
0.710424 0.015941 0.024708
0.726517 0.018679 0.030792
0.000361 0.014039 0.000000
0.031670 0.022793 0.000048
0.098732 0.031920 0.000697
0.166856 0.041734 0.001965
0.236344 0.050667 0.003477
0.303623 0.059322 0.004380
0.367145 0.064674 0.006369
0.426300 0.067648 0.005668
0.481692 0.068759 0.003460
0.536117 0.068279 0.003844
0.589600 0.065957 0.002725
0.637564 0.062067 0.000584
0.678767 0.059049 0.001130
0.709607 0.056093 0.003672
0.733213 0.052782 0.004521
0.755234 0.053674 0.006885
0.007903 0.071775 0.003676
0.044966 0.082060 0.002435
0.111456 0.095872 0.001074
0.185792 0.104581 0.000669
0.255214 0.112264 0.001310
0.319792 0.118724 0.001411
0.384959 0.122919 0.001288
0.444253 0.124693 0.001134
0.498141 0.127664 0.002008
0.550257 0.129545 0.001260
0.603109 0.129801 0.000346
0.654151 0.128166 0.000962
0.699471 0.125375 0.001655
0.734832 0.123925 0.002269
0.761713 0.121907 0.002536
0.786127 0.120119 0.003417
0.009807 0.127085 0.014040
0.043320 0.137590 0.006865
0.106223 0.153064 0.002611
0.185213 0.168614 0.001210
0.256803 0.180073 0.000873
0.324180 0.188845 0.001046
0.395849 0.195358 0.001923
0.468116 0.200059 0.001017
0.529327 0.201649 0.000411
0.581116 0.201578 0.000676
0.632431 0.201635 0.001264
0.684473 0.200671 0.001635
0.730799 0.197537 0.002039
0.768258 0.194354 0.004234
0.797999 0.190764 0.005476
0.820616 0.185135 0.005268
0.012158 0.174542 0.016212
0.036455 0.185291 0.010404
0.095209 0.199976 0.007992
0.180263 0.217484 0.005244
0.254804 0.232863 0.003405
0.325412 0.245111 0.002083
0.399854 0.255313 0.000524
0.481181 0.264531 0.000942
0.550718 0.269352 0.001037
0.606513 0.270624 0.001177
0.660214 0.270120 0.001633
0.713922 0.268621 0.004131
0.762041 0.266075 0.006597
0.801072 0.262319 0.008827
0.832084 0.257799 0.010478
0.855792 0.251396 0.011892
0.018143 0.214150 0.025578
0.036084 0.225284 0.018485
0.084454 0.240770 0.013387
0.179268 0.261639 0.007225
0.255698 0.279781 0.004439
0.327066 0.293909 0.002574
0.404001 0.307677 0.001461
0.490318 0.320979 0.001086
0.566881 0.329319 0.002319
0.625471 0.332531 0.004168
0.679783 0.334194 0.006221
0.735590 0.334257 0.008726
0.786914 0.332496 0.011452
0.828826 0.330094 0.014830
0.861810 0.326696 0.017480
0.885976 0.320470 0.018926
0.025888 0.252816 0.034277
0.038504 0.264065 0.022953
0.082958 0.282678 0.018709
0.174197 0.305209 0.014484
0.255352 0.325783 0.011239
0.327201 0.343521 0.008013
0.404890 0.360361 0.005159
0.494656 0.378231 0.004460
0.581023 0.392141 0.006152
0.643770 0.398189 0.008799
0.698307 0.400548 0.011872
0.755273 0.403239 0.015233
0.809785 0.404644 0.018474
0.854929 0.403917 0.021009
0.888714 0.401123 0.023051
0.913663 0.396003 0.024464
0.032346 0.295198 0.044933
0.042306 0.306404 0.033901
0.082687 0.326679 0.027599
0.172531 0.349924 0.020286
0.254107 0.371405 0.014325
0.326468 0.391170 0.009882
0.403371 0.410437 0.006883
0.495179 0.433076 0.009144
0.589745 0.453381 0.012892
0.659764 0.465543 0.016120
0.716501 0.470565 0.019043
0.775082 0.475432 0.021841
0.831696 0.480085 0.024627
0.878800 0.482506 0.026930
0.914236 0.481514 0.029045
0.940111 0.478226 0.031729
0.039438 0.341725 0.055232
0.050257 0.353735 0.044799
0.084241 0.373799 0.034321
0.174330 0.397415 0.024284
0.256301 0.419098 0.020345
0.328199 0.439372 0.016528
0.405698 0.460349 0.014910
0.495935 0.483616 0.016876
0.593868 0.507797 0.020659
0.669891 0.525575 0.023158
0.729030 0.536372 0.025058
0.788682 0.544278 0.027050
0.848081 0.552000 0.029864
0.897921 0.558069 0.032818
0.935380 0.560309 0.036643
0.961618 0.560003 0.041410
0.048665 0.393317 0.064616
0.059373 0.405594 0.054633
0.097800 0.424945 0.045729
0.173224 0.446323 0.038363
0.259724 0.466986 0.030611
0.333988 0.487509 0.024362
0.409047 0.507482 0.022823
0.498137 0.531039 0.022808
0.593264 0.556246 0.025249
0.673456 0.578319 0.027783
0.734634 0.593421 0.030006
0.794266 0.604421 0.031181
0.857002 0.616061 0.033866
0.908822 0.626191 0.037483
0.946891 0.633136 0.046250
0.969061 0.637092 0.063563
0.057091 0.439106 0.075326
0.068146 0.451353 0.066510
0.098973 0.469558 0.057227
0.172613 0.489582 0.049454
0.262222 0.510297 0.041425
0.338159 0.530988 0.034508
0.412786 0.551680 0.030925
0.501488 0.577384 0.028820
0.595148 0.603585 0.030291
0.676549 0.626901 0.032245
0.739672 0.644939 0.034116
0.796475 0.658135 0.035623
0.859909 0.671953 0.037865
0.912874 0.684899 0.047069
0.944795 0.694966 0.077086
0.960683 0.703900 0.118688
0.064621 0.482002 0.083387
0.074911 0.493930 0.074925
0.099989 0.510094 0.068044
0.163981 0.528876 0.061928
0.255232 0.551094 0.055295
0.339675 0.574030 0.049535
0.416978 0.596510 0.043985
0.503889 0.620359 0.037725
0.597115 0.647241 0.036521
0.680766 0.673091 0.037520
0.746475 0.693305 0.039032
0.801588 0.706823 0.040362
0.861166 0.720872 0.043869
0.908869 0.735136 0.073007
0.935126 0.746726 0.129606
0.949456 0.757406 0.182954
0.072301 0.524399 0.092477
0.080659 0.535093 0.088020
0.099571 0.549094 0.084157
0.149959 0.567254 0.079451
0.241887 0.590318 0.072889
0.334522 0.614550 0.063569
0.419516 0.638894 0.055926
0.507161 0.663592 0.048579
0.598451 0.689549 0.044934
0.682704 0.714720 0.043937
0.752493 0.736088 0.044756
0.808817 0.750491 0.045363
0.861190 0.762278 0.057640
0.900825 0.774701 0.109758
0.924520 0.788268 0.182209
0.940237 0.804247 0.247671
0.078484 0.563453 0.102393
0.084841 0.573117 0.099713
0.096941 0.585594 0.098128
0.140713 0.602323 0.095546
0.219244 0.623200 0.090320
0.321652 0.648161 0.079404
0.413692 0.673854 0.069998
0.503735 0.699976 0.061721
0.595037 0.725889 0.054460
0.679200 0.751142 0.050332
0.752049 0.774481 0.050159
0.812534 0.789949 0.053776
0.859226 0.799536 0.087036
0.892132 0.808914 0.155311
0.916612 0.822174 0.231067
0.934995 0.841235 0.307183
0.082985 0.595996 0.111291
0.088765 0.604587 0.109425
0.098811 0.615183 0.109160
0.124106 0.628866 0.108752
0.198212 0.648915 0.105042
0.300492 0.674195 0.097237
0.400859 0.701762 0.086964
0.494175 0.726575 0.073525
0.584523 0.751927 0.061407
0.667883 0.778417 0.055049
0.742362 0.804619 0.054966
0.805611 0.822730 0.070137
0.851304 0.830929 0.126279
0.884642 0.839182 0.202573
0.910782 0.850867 0.277298
0.933776 0.871428 0.365067
0.086740 0.620311 0.118693
0.091635 0.628315 0.118171
0.099780 0.638314 0.119985
0.123683 0.651629 0.120467
0.178192 0.669173 0.117601
0.278703 0.694027 0.109819
0.386955 0.721537 0.098558
0.479625 0.747777 0.085910
0.566331 0.774795 0.075147
0.648318 0.803246 0.067602
0.721441 0.830265 0.065706
0.787436 0.850722 0.096554
0.838639 0.860342 0.168213
0.875615 0.867752 0.248285
0.906852 0.879641 0.330573
0.935969 0.901100 0.430863
0.000000 0.000000 0.003612
0.007548 0.000000 0.013885
0.051494 0.000086 0.031784
0.108648 0.001063 0.062294
0.175299 0.005793 0.091290
0.246080 0.015776 0.110548
0.316577 0.022545 0.119992
0.382691 0.026854 0.121281
0.447219 0.028837 0.120168
0.509894 0.027452 0.119100
0.567776 0.024114 0.116503
0.617667 0.019549 0.112318
0.661272 0.014026 0.108773
0.696510 0.010602 0.104146
0.722549 0.009664 0.100167
0.741175 0.009450 0.097641
0.002188 0.012782 0.022705
0.026609 0.020120 0.033195
0.068282 0.025219 0.039642
0.125175 0.034598 0.055606
0.193747 0.044460 0.070199
0.261326 0.053977 0.078108
0.329108 0.061375 0.082950
0.394730 0.066498 0.082891
0.456457 0.068374 0.080578
0.517803 0.068362 0.076441
0.576442 0.066129 0.072505
0.628898 0.062212 0.067753
0.673380 0.057563 0.064080
0.707270 0.053830 0.060388
0.732748 0.051648 0.056125
0.756698 0.050316 0.054863
0.012044 0.062889 0.053924
0.043579 0.072875 0.060880
0.094758 0.082662 0.061788
0.162980 0.088822 0.058306
0.228309 0.096756 0.061069
0.290112 0.104556 0.062672
0.355428 0.111001 0.062396
0.419782 0.115122 0.061029
0.478738 0.117547 0.057482
0.534900 0.119733 0.053431
0.591854 0.120249 0.049524
0.645335 0.118647 0.044645
0.692164 0.116932 0.040540
0.728251 0.115229 0.037995
0.755740 0.112615 0.038379
0.781598 0.110520 0.039361
0.013732 0.116356 0.075686
0.044562 0.126168 0.072649
0.090396 0.141261 0.062599
0.172549 0.154948 0.057277
0.242858 0.163412 0.054377
0.308414 0.170893 0.053662
0.376467 0.176972 0.051810
0.446740 0.181438 0.048323
0.508297 0.184049 0.046654
0.561592 0.185771 0.046751
0.616175 0.186723 0.044267
0.671428 0.187210 0.038855
0.720835 0.186031 0.038064
0.759152 0.183212 0.039701
0.789554 0.179718 0.040696
0.814284 0.175466 0.039947
0.015212 0.164199 0.081988
0.035012 0.174393 0.078066
0.078097 0.188864 0.067141
0.164484 0.204938 0.059766
0.241584 0.219068 0.054071
0.311464 0.229267 0.049491
0.384512 0.238370 0.046946
0.465195 0.246804 0.043750
0.534337 0.250260 0.041362
0.590101 0.250990 0.038929
0.645292 0.252698 0.038547
0.701162 0.253534 0.040091
0.751750 0.252653 0.040675
0.792523 0.250528 0.040539
0.824303 0.246720 0.038466
0.848390 0.240333 0.037000
0.019924 0.204449 0.090888
0.033632 0.214576 0.085052
0.070656 0.228988 0.076804
0.163071 0.248430 0.069450
0.242061 0.265695 0.062503
0.312743 0.280444 0.055326
0.387087 0.291677 0.045610
0.471346 0.303138 0.037963
0.549339 0.310811 0.034714
0.611170 0.314495 0.033464
0.668061 0.317689 0.034199
0.725531 0.319635 0.035488
0.777864 0.319268 0.036670
0.821020 0.317719 0.037426
0.854645 0.314650 0.038192
0.879245 0.308599 0.038814
0.026672 0.244065 0.101089
0.037307 0.254927 0.094025
0.075750 0.273169 0.087503
0.160136 0.294275 0.080183
0.240723 0.313392 0.071456
0.311410 0.331708 0.062187
0.387079 0.347051 0.050383
0.473924 0.361774 0.038700
0.561864 0.374475 0.032124
0.630293 0.381341 0.030631
0.687414 0.385073 0.030565
0.745065 0.388263 0.032174
0.801500 0.390672 0.034487
0.847851 0.390762 0.036271
0.882107 0.387929 0.037318
0.906940 0.382303 0.037776
0.034274 0.289384 0.110312
0.044066 0.300607 0.102781
0.079776 0.319954 0.096492
0.153713 0.341549 0.090750
0.237259 0.363069 0.082136
0.309765 0.383126 0.070641
0.384698 0.401806 0.057536
0.473721 0.420649 0.044074
0.571485 0.439258 0.034030
0.647669 0.451061 0.031987
0.706922 0.457052 0.032968
0.765476 0.461739 0.033980
0.823040 0.466028 0.035333
0.872370 0.468890 0.036584
0.908265 0.467320 0.037896
0.934092 0.463131 0.039772
0.041795 0.336390 0.117142
0.052522 0.348473 0.110682
0.078226 0.366654 0.103599
0.150372 0.389765 0.098088
0.236360 0.411770 0.089049
0.312740 0.433041 0.076429
0.388779 0.453912 0.062142
0.476798 0.475808 0.047559
0.575469 0.498233 0.039433
0.659153 0.515252 0.035042
0.721644 0.525201 0.034901
0.781467 0.532616 0.035795
0.841206 0.539493 0.037882
0.892601 0.545449 0.040111
0.930671 0.547730 0.043268
0.957204 0.546669 0.047315
0.050629 0.388645 0.123671
0.060669 0.400311 0.118172
0.085230 0.417041 0.110809
0.146474 0.438153 0.103544
0.236782 0.460466 0.094890
0.319487 0.482913 0.084708
0.395640 0.503589 0.070799
0.484102 0.526612 0.055404
0.580507 0.550820 0.044815
0.664948 0.572112 0.040429
0.729815 0.586136 0.039667
0.789616 0.595921 0.039175
0.852292 0.606460 0.040810
0.905120 0.616222 0.043611
0.944474 0.623130 0.049519
0.968675 0.626381 0.062464
0.059436 0.437349 0.128629
0.067787 0.448109 0.123045
0.089232 0.463521 0.115832
0.145228 0.483700 0.109495
0.235057 0.506120 0.101184
0.324118 0.529033 0.091398
0.402643 0.551001 0.078747
0.491838 0.576092 0.061822
0.586594 0.601146 0.051214
0.670044 0.623485 0.046321
0.735259 0.640294 0.044157
0.792556 0.651997 0.042800
0.856256 0.664388 0.043376
0.910434 0.676612 0.049579
0.945212 0.686724 0.072345
0.962721 0.694812 0.110283
0.066943 0.481800 0.132353
0.074927 0.492653 0.127091
0.090202 0.506535 0.121764
0.140465 0.525311 0.116744
0.231087 0.548304 0.108565
0.325534 0.572218 0.098201
0.406132 0.595979 0.085728
0.494840 0.620532 0.070814
0.588483 0.646635 0.057998
0.672800 0.671004 0.051028
0.740434 0.690388 0.048036
0.797033 0.703411 0.046756
0.858359 0.716644 0.047765
0.908492 0.730192 0.070578
0.936247 0.741127 0.124013
0.951009 0.750896 0.175099
0.073811 0.523574 0.137217
0.081006 0.533576 0.133640
0.095187 0.546508 0.129391
0.136303 0.564455 0.124770
0.227261 0.588145 0.118286
0.320931 0.612495 0.109626
0.407846 0.637765 0.099773
0.496932 0.663571 0.087445
0.590190 0.690113 0.071654
0.674743 0.714077 0.060240
0.745251 0.734401 0.055314
0.802724 0.748571 0.052061
0.857868 0.759903 0.060019
0.900717 0.771752 0.106117
0.925609 0.784923 0.178234
0.941477 0.800072 0.242652
0.079850 0.563128 0.142633
0.085541 0.572147 0.139623
0.098363 0.584379 0.137144
0.138118 0.601787 0.135224
0.211782 0.622997 0.132081
0.311920 0.647752 0.125599
0.403947 0.674097 0.116441
0.495178 0.700744 0.104213
0.587240 0.726693 0.088195
0.672569 0.751430 0.072955
0.744995 0.773568 0.064784
0.806783 0.789251 0.062164
0.856812 0.799551 0.085445
0.891738 0.808102 0.153406
0.917504 0.820809 0.230235
0.936363 0.839909 0.307530
0.084698 0.597995 0.147570
0.090224 0.606188 0.145084
0.099411 0.616904 0.144155
0.127708 0.631364 0.144796
0.199055 0.651509 0.143885
0.294701 0.676025 0.139849
0.393113 0.702951 0.130447
0.487522 0.728459 0.116581
0.579655 0.754064 0.099578
0.664532 0.779832 0.083895
0.738633 0.804696 0.075433
0.802622 0.823401 0.081114
0.850043 0.832198 0.127769
0.884534 0.840503 0.205211
0.911778 0.852020 0.281625
0.935493 0.872521 0.370721
0.088597 0.623943 0.152424
0.093429 0.631722 0.150663
0.101983 0.641798 0.150980
0.126433 0.655708 0.152599
0.182294 0.674636 0.152630
0.275548 0.698313 0.148422
0.380302 0.724834 0.139730
0.474510 0.751190 0.127910
0.563185 0.778109 0.114618
0.646266 0.805806 0.101051
0.719850 0.832032 0.091995
0.786510 0.853135 0.108458
0.838130 0.862390 0.172265
0.875914 0.868916 0.251384
0.907942 0.880960 0.335417
0.937745 0.902284 0.436720
0.000000 0.000000 0.054756
0.014758 0.000000 0.071864
0.064477 0.000249 0.099794
0.111871 0.003469 0.121793
0.162589 0.008747 0.140830
0.220015 0.016936 0.159856
0.282734 0.024525 0.175650
0.348472 0.029635 0.186185
0.415066 0.031510 0.193303
0.481396 0.030526 0.197251
0.543760 0.027231 0.199101
0.601061 0.022078 0.198742
0.648959 0.016417 0.196333
0.688999 0.011218 0.190554
0.721445 0.008149 0.183759
0.746476 0.007789 0.176500
0.002905 0.015590 0.077920
0.028434 0.021900 0.083067
0.069551 0.029881 0.098716
0.114338 0.037011 0.111982
0.167638 0.044781 0.126616
0.227679 0.053515 0.141508
0.292015 0.061906 0.152528
0.360835 0.067568 0.158761
0.428086 0.070462 0.161524
0.493460 0.070855 0.160579
0.555857 0.068083 0.159554
0.615001 0.063935 0.157007
0.663486 0.058236 0.152254
0.701467 0.054219 0.145928
0.730855 0.051985 0.139305
0.757590 0.051114 0.133663
0.013976 0.061538 0.101338
0.047666 0.069661 0.108979
0.085765 0.077327 0.124708
0.138236 0.081948 0.126714
0.195980 0.089896 0.133078
0.257033 0.098776 0.140113
0.322684 0.106669 0.144358
0.392451 0.112790 0.145744
0.458679 0.116248 0.143782
0.519749 0.117927 0.140356
0.580825 0.117834 0.135236
0.637418 0.116534 0.129839
0.685666 0.114509 0.124117
0.723365 0.111776 0.118880
0.752668 0.109254 0.114971
0.779738 0.107490 0.112582
0.021169 0.110720 0.122683
0.049383 0.121101 0.128915
0.084565 0.134587 0.136765
0.160039 0.145909 0.138983
0.228822 0.152057 0.136283
0.289469 0.158665 0.135773
0.356390 0.166271 0.135301
0.426625 0.172819 0.134304
0.492576 0.176714 0.132267
0.550436 0.178730 0.128408
0.608634 0.179490 0.124329
0.664349 0.179713 0.118842
0.713471 0.178066 0.114026
0.752426 0.175205 0.110408
0.783957 0.172363 0.108353
0.810612 0.169840 0.108034
0.019628 0.158907 0.136161
0.037337 0.168762 0.139043
0.073729 0.184166 0.138250
0.149250 0.199574 0.133487
0.230027 0.211713 0.132149
0.301143 0.220392 0.130033
0.374451 0.228638 0.129241
0.453478 0.236190 0.127338
0.523161 0.241094 0.124980
0.581136 0.243198 0.122706
0.637265 0.244483 0.119131
0.693619 0.245148 0.114274
0.744934 0.244761 0.110276
0.786187 0.242994 0.108970
0.818652 0.239727 0.107437
0.844312 0.234976 0.107054
0.023632 0.198969 0.144361
0.038500 0.209631 0.145720
0.073980 0.225751 0.143293
0.145524 0.244622 0.136546
0.228523 0.259968 0.132350
0.302517 0.273865 0.128023
0.378103 0.284854 0.123303
0.462747 0.294324 0.118342
0.541594 0.301575 0.112386
0.604180 0.305773 0.107875
0.661189 0.309032 0.104359
0.718848 0.311559 0.101584
0.772332 0.312160 0.099745
0.816040 0.310985 0.099385
0.849818 0.307630 0.096005
0.874896 0.301384 0.092714
0.030062 0.239710 0.153657
0.042582 0.251848 0.153443
0.076827 0.270875 0.150858
0.144532 0.291664 0.141958
0.227810 0.309227 0.136217
0.302236 0.326088 0.130154
0.378952 0.341338 0.121967
0.465915 0.354759 0.109879
0.553288 0.366337 0.099008
0.622307 0.372990 0.091473
0.680703 0.376666 0.086554
0.739565 0.379614 0.082073
0.795931 0.382071 0.079183
0.842592 0.382443 0.079249
0.877257 0.379663 0.078950
0.902593 0.373851 0.077192
0.038309 0.286560 0.163323
0.049360 0.298961 0.161239
0.078851 0.318548 0.158244
0.134294 0.339887 0.149117
0.224710 0.361585 0.142439
0.302934 0.381342 0.134518
0.378649 0.400073 0.123207
0.465799 0.416894 0.107912
