tools/decompiled/jadx/resources/res/raw/cave.cube
LUT_3D_SIZE 6
0.000000 0.000000 0.000000
0.197247 0.003421 0.000115
0.421782 0.024756 0.000231
0.563457 0.020506 0.000322
0.672023 0.016051 0.002054
0.733014 0.028161 0.010167
0.007553 0.147232 0.000000
0.199165 0.190794 0.000017
0.415471 0.221539 0.000131
0.602042 0.230669 0.000235
0.748534 0.224104 0.000333
0.833196 0.202927 0.000550
0.026912 0.274255 0.000551
0.196393 0.323302 0.000028
0.421451 0.378360 0.000055
0.654904 0.418943 0.002001
0.819876 0.426768 0.011028
0.921966 0.413371 0.018672
0.048773 0.402878 0.014787
0.200759 0.457572 0.003060
0.426072 0.516404 0.007038
0.682137 0.588257 0.021459
0.861027 0.626912 0.029491
0.968446 0.647745 0.068153
0.072667 0.530280 0.051060
0.172726 0.576574 0.040890
0.434267 0.644613 0.033298
0.692796 0.718559 0.037328
0.864202 0.764823 0.057645
0.939296 0.807820 0.252246
0.085492 0.617319 0.085190
0.127019 0.649482 0.087792
0.395362 0.720279 0.067408
0.649974 0.801917 0.051625
0.839883 0.859480 0.168241
0.934582 0.900353 0.426645
0.000000 0.000000 0.054756
0.111871 0.003469 0.121793
0.282734 0.024525 0.175650
0.481396 0.030526 0.197251
0.648959 0.016417 0.196333
0.746476 0.007789 0.176500
0.021169 0.110720 0.122683
0.160039 0.145909 0.138983
0.356390 0.166271 0.135301
0.550436 0.178730 0.128408
0.713471 0.178066 0.114026
0.810612 0.169840 0.108034
0.030062 0.239710 0.153657
0.144532 0.291664 0.141958
0.378952 0.341338 0.121967
0.622307 0.372990 0.091473
0.795931 0.382071 0.079183
0.902593 0.373851 0.077192
0.053498 0.386467 0.173281
0.125815 0.432833 0.161225
0.386966 0.503773 0.135001
0.658196 0.570348 0.075149
0.847968 0.599855 0.053570
0.968014 0.616236 0.065804
0.076169 0.525694 0.181237
0.132236 0.566032 0.169382
0.398108 0.638972 0.151256
0.670231 0.716227 0.098923
0.855902 0.758872 0.068520
0.943212 0.795779 0.238593
0.090975 0.628296 0.186119
0.130530 0.660779 0.182580
0.377472 0.729224 0.180695
0.644768 0.809194 0.146758
0.838324 0.866325 0.184467
0.940145 0.904369 0.445670
0.006580 0.000000 0.229173
0.138491 0.004054 0.274557
0.270085 0.027013 0.308754
0.431268 0.033628 0.337625
0.620366 0.013627 0.368506
0.740844 0.004585 0.367318
0.022011 0.108824 0.244006
0.152921 0.138076 0.281528
0.309028 0.157809 0.312673
0.511886 0.174361 0.330053
0.691167 0.171474 0.328901
0.797750 0.158797 0.316411
0.043595 0.236817 0.279446
0.147955 0.285501 0.309738
0.362911 0.328656 0.321469
0.608678 0.357522 0.317370
0.780770 0.367222 0.310634
0.892116 0.356324 0.299521
0.062685 0.385547 0.309708
0.139437 0.439505 0.319822
0.362234 0.506657 0.300727
0.648332 0.571785 0.275781
0.838780 0.596329 0.258283
0.967478 0.604090 0.250013
0.084111 0.531562 0.313711
0.121625 0.573403 0.312720
0.375099 0.647638 0.295768
0.662704 0.728084 0.270013
0.850469 0.766972 0.235899
0.964329 0.794320 0.286123
0.099072 0.646106 0.301220
0.122866 0.677578 0.295959
0.375013 0.747602 0.293944
0.660966 0.832834 0.284896
0.845893 0.889464 0.269164
0.947915 0.915037 0.483058
0.039292 0.000000 0.360560
0.167313 0.003995 0.392627
0.288127 0.022536 0.421389
0.423807 0.026101 0.442796
0.594066 0.009551 0.473979
0.735265 0.001824 0.498555
0.031247 0.108415 0.349343
0.166842 0.137505 0.372369
0.311123 0.163485 0.420777
0.492314 0.175312 0.462308
0.664156 0.161594 0.485727
0.780801 0.140041 0.488795
0.051948 0.238438 0.384232
0.200386 0.285369 0.414786
0.367341 0.320309 0.474219
0.589882 0.345952 0.508899
0.755335 0.354395 0.519173
0.874697 0.339768 0.514547
0.076136 0.386490 0.430182
0.200538 0.446032 0.457554
0.382069 0.506702 0.490715
0.640145 0.564615 0.508786
0.827908 0.584445 0.509183
0.960831 0.594086 0.509932
0.094601 0.539485 0.463113
0.144787 0.583266 0.478354
0.401304 0.662860 0.491565
0.656257 0.742401 0.483871
0.847449 0.782023 0.463144
0.993722 0.812188 0.456674
0.110993 0.676034 0.464909
0.143821 0.712517 0.469574
0.406065 0.783777 0.477786
0.680001 0.867898 0.478456
0.853441 0.921713 0.451227
0.965139 0.943051 0.575153
0.086799 0.000000 0.469128
0.203974 0.001044 0.489145
0.316296 0.007752 0.513322
0.444389 0.010998 0.534467
0.593907 0.008122 0.560046
0.723965 0.003370 0.589572
0.053606 0.105067 0.454107
0.190283 0.128459 0.479442
0.327462 0.154413 0.522897
0.488467 0.170526 0.562380
0.648152 0.165690 0.594016
0.763441 0.119050 0.604446
0.064225 0.239088 0.490629
0.231528 0.284440 0.521774
0.393623 0.319434 0.569619
0.577796 0.343527 0.619582
0.732325 0.345057 0.655787
0.857536 0.326847 0.671923
0.090646 0.390498 0.535083
0.266660 0.451363 0.565975
0.453769 0.505262 0.614822
0.642838 0.546036 0.675351
0.812038 0.564036 0.704938
0.947458 0.578694 0.720833
0.108522 0.545482 0.580873
0.280302 0.609383 0.609598
0.501206 0.677159 0.648239
0.682215 0.741705 0.690172
0.850115 0.782349 0.710255
0.990879 0.816448 0.734197
0.121219 0.690655 0.609038
0.202207 0.738603 0.628213
0.497115 0.815952 0.659098
0.720196 0.892377 0.691925
0.874016 0.942192 0.714338
0.992964 0.980330 0.709021
0.100999 0.000000 0.537772
0.227555 0.000007 0.570258
0.343532 0.003373 0.590576
0.460455 0.006482 0.604936
0.595491 0.007764 0.621697
0.710248 0.005587 0.642361
0.089909 0.095754 0.542953
0.217153 0.115338 0.567832
0.346115 0.140462 0.606081
0.492074 0.160436 0.639405
0.629254 0.152257 0.655932
0.739297 0.100653 0.664972
0.106935 0.239917 0.594029
0.270675 0.275027 0.624372
0.425216 0.312088 0.662374
0.579776 0.335704 0.703139
0.717746 0.346059 0.739021
0.835543 0.309962 0.751118
0.120066 0.398854 0.647283
0.309647 0.450825 0.680303
0.501834 0.503650 0.718480
0.652689 0.539231 0.772022
0.797458 0.563661 0.814240
0.934952 0.567317 0.850183
0.144277 0.564128 0.696899
0.367623 0.626117 0.731844
0.589580 0.688930 0.775583
0.728347 0.738251 0.820765
0.859164 0.772213 0.870340
0.984053 0.803653 0.914515
0.161652 0.706938 0.738144
0.393311 0.773856 0.775311
0.634827 0.845420 0.822279
0.778930 0.902038 0.867712
0.907839 0.941633 0.908167
0.998634 0.986365 0.954824
