tools/decompiled/jadx/resources/res/raw/cirrus.cube
LUT_3D_SIZE 16
0.000000 0.000000 0.000000
0.010671 0.000887 0.000887
0.025868 0.002151 0.002151
0.043426 0.003610 0.003610
0.062709 0.005213 0.005213
0.083395 0.006933 0.006933
0.105270 0.008752 0.008752
0.128191 0.010657 0.010657
0.152017 0.012638 0.012638
0.176719 0.014692 0.014692
0.202168 0.016807 0.016807
0.228329 0.018982 0.018982
0.255197 0.021216 0.021216
0.282659 0.023499 0.023499
0.310750 0.025835 0.025835
0.339386 0.028215 0.028215
0.000887 0.010671 0.000887
0.023116 0.023116 0.003549
0.044751 0.030817 0.005800
0.067629 0.037597 0.008077
0.091615 0.043903 0.010402
0.116593 0.049915 0.012780
0.142459 0.055725 0.015212
0.169139 0.061389 0.017694
0.196529 0.066934 0.020222
0.224642 0.072398 0.022799
0.253364 0.077787 0.025417
0.282681 0.083118 0.028077
0.312607 0.088410 0.030780
0.343032 0.093656 0.033518
0.374009 0.098878 0.036296
0.405456 0.104069 0.039109
0.002151 0.025868 0.002151
0.030817 0.044751 0.005800
0.056038 0.056038 0.008602
0.081879 0.065781 0.011334
0.108484 0.074706 0.014061
0.135853 0.083109 0.016806
0.163942 0.091142 0.019579
0.192715 0.098899 0.022383
0.222090 0.106429 0.025216
0.252103 0.113793 0.028084
0.282648 0.121005 0.030982
0.313723 0.128094 0.033912
0.345353 0.135089 0.036876
0.377428 0.141986 0.039868
0.410012 0.148815 0.042893
0.443025 0.155572 0.045945
0.003610 0.043426 0.003610
0.037597 0.067629 0.008077
0.065781 0.081879 0.011334
0.094072 0.094072 0.014441
0.122842 0.105162 0.017500
0.152186 0.115540 0.020549
0.182113 0.125410 0.023604
0.212615 0.134897 0.026673
0.243632 0.144068 0.029758
0.275214 0.153002 0.032868
0.307266 0.161721 0.035997
0.339793 0.170262 0.039149
0.372831 0.178665 0.042330
0.406271 0.186927 0.045531
0.440183 0.195084 0.048760
0.474490 0.203134 0.052011
0.005213 0.062709 0.005213
0.043903 0.091615 0.010402
0.074706 0.108484 0.014061
0.105162 0.122842 0.017500
0.135845 0.135845 0.020854
0.166936 0.147970 0.024171
0.198486 0.159464 0.027474
0.230518 0.170479 0.030779
0.262984 0.181101 0.034086
0.295955 0.191423 0.037409
0.329338 0.201473 0.040742
0.363149 0.211298 0.044092
0.397432 0.220946 0.047464
0.432077 0.230413 0.050849
0.467164 0.239744 0.054259
0.502614 0.248938 0.057685
0.006933 0.083395 0.006933
0.049915 0.116593 0.012780
0.083109 0.135853 0.016806
0.115540 0.152186 0.020549
0.147970 0.166936 0.024171
0.180655 0.180655 0.027732
0.213688 0.193632 0.031264
0.247115 0.206042 0.034782
0.280905 0.217987 0.038292
0.315142 0.229577 0.041810
0.349741 0.240842 0.045330
0.384725 0.251840 0.048859
0.420143 0.262623 0.052406
0.455889 0.273190 0.055960
0.492047 0.283593 0.059534
0.528541 0.293831 0.063121
0.008752 0.105270 0.008752
0.055725 0.142459 0.015212
0.091142 0.163942 0.019579
0.125410 0.182113 0.023604
0.159464 0.198486 0.027474
0.193632 0.213688 0.031264
0.228042 0.228042 0.035007
0.262767 0.241751 0.038724
0.297788 0.254927 0.042424
0.333203 0.267694 0.046122
0.368932 0.280089 0.049816
0.405005 0.292177 0.053512
0.441480 0.304016 0.057220
0.478249 0.315607 0.060932
0.515404 0.327006 0.064659
0.552868 0.338215 0.068395
0.010657 0.128191 0.010657
0.061389 0.169139 0.017694
0.098899 0.192715 0.022383
0.134897 0.212615 0.026673
0.170479 0.230518 0.030779
0.206042 0.247115 0.034782
0.241751 0.262767 0.038724
0.277697 0.277697 0.042629
0.313877 0.292032 0.046507
0.350401 0.305908 0.050375
0.387194 0.319367 0.054232
0.424294 0.332481 0.058086
0.461762 0.345314 0.061947
0.499495 0.357869 0.065807
0.537588 0.370207 0.069678
0.575966 0.382329 0.073554
0.012638 0.152017 0.012638
0.066934 0.196529 0.020222
0.106429 0.222090 0.025216
0.144068 0.243632 0.029758
0.181101 0.262984 0.034086
0.217987 0.280905 0.038292
0.254927 0.297788 0.042424
0.292032 0.313877 0.046507
0.329311 0.329311 0.050553
0.366887 0.344239 0.054582
0.404689 0.358708 0.058595
0.442762 0.372795 0.062598
0.481173 0.386571 0.066604
0.519820 0.400040 0.070604
0.558803 0.413267 0.074611
0.598048 0.426256 0.078620
0.014692 0.176719 0.014692
0.072398 0.224642 0.022799
0.113793 0.252103 0.028084
0.153002 0.275214 0.032868
0.191423 0.295955 0.037409
0.229577 0.315142 0.041810
0.267694 0.333203 0.046122
0.305908 0.350401 0.050375
0.344239 0.366887 0.054582
0.382822 0.382822 0.058767
0.421590 0.398256 0.062927
0.460594 0.413274 0.067074
0.499908 0.427954 0.071218
0.539429 0.442297 0.075352
0.579264 0.456376 0.079491
0.619338 0.470194 0.083627
0.016807 0.202168 0.016807
0.077787 0.253364 0.025417
0.121005 0.282648 0.030982
0.161721 0.307266 0.035997
0.201473 0.329338 0.040742
0.240842 0.349741 0.045330
0.280089 0.368932 0.049816
0.319367 0.387194 0.054232
0.358708 0.404689 0.058595
0.398256 0.421590 0.062927
0.437952 0.437952 0.067230
0.477849 0.453863 0.071514
0.518029 0.469409 0.075791
0.558390 0.484591 0.080054
0.599042 0.499487 0.084318
0.639912 0.514101 0.088576
0.018982 0.228329 0.018982
0.083118 0.282681 0.028077
0.128094 0.313723 0.033912
0.170262 0.339793 0.039149
0.211298 0.363149 0.044092
0.251840 0.384725 0.048859
0.292177 0.405005 0.053512
0.332481 0.424294 0.058086
0.372795 0.442762 0.062598
0.413274 0.460594 0.067074
0.453863 0.477849 0.071514
0.494623 0.494623 0.075930
0.535638 0.511003 0.080335
0.576807 0.526994 0.084722
0.618247 0.542679 0.089107
0.659885 0.558060 0.093483
0.021216 0.255197 0.021216
0.088410 0.312607 0.030780
0.135089 0.345353 0.036876
0.178665 0.372831 0.042330
0.220946 0.397432 0.047464
0.262623 0.420143 0.052406
0.304016 0.441480 0.057220
0.345314 0.461762 0.061947
0.386571 0.481173 0.066604
0.427954 0.499908 0.071218
0.469409 0.518029 0.075791
0.511003 0.535638 0.080335
0.552827 0.552827 0.084865
0.594781 0.569603 0.089372
0.636985 0.586051 0.093874
0.679366 0.602176 0.098365
0.023499 0.282659 0.023499
0.093656 0.343032 0.033518
0.141986 0.377428 0.039868
0.186927 0.406271 0.045531
0.230413 0.432077 0.050849
0.273190 0.455889 0.055960
0.315607 0.478249 0.060932
0.357869 0.499495 0.065807
0.400040 0.519820 0.070604
0.442297 0.539429 0.075352
0.484591 0.558390 0.080054
0.526994 0.576807 0.084722
0.569603 0.594781 0.089372
0.612316 0.612316 0.093997
0.655260 0.629504 0.098612
0.698362 0.646350 0.103213
0.025835 0.310750 0.025835
0.098878 0.374009 0.036296
0.148815 0.410012 0.042893
0.195084 0.440183 0.048760
0.239744 0.467164 0.054259
0.283593 0.492047 0.059534
0.327006 0.515404 0.064659
0.370207 0.537588 0.069678
0.413267 0.558803 0.074611
0.456376 0.579264 0.079491
0.499487 0.599042 0.084318
0.542679 0.618247 0.089107
0.586051 0.636985 0.093874
0.629504 0.655260 0.098612
0.673168 0.673168 0.103338
0.716972 0.690716 0.108047
0.028215 0.339386 0.028215
0.104069 0.405456 0.039109
0.155572 0.443025 0.045945
0.203134 0.474490 0.052011
0.248938 0.502614 0.057685
0.293831 0.528541 0.063121
0.338215 0.552868 0.068395
0.382329 0.575966 0.073554
0.426256 0.598048 0.078620
0.470194 0.619338 0.083627
0.514101 0.639912 0.088576
0.558060 0.659885 0.093483
0.602176 0.679366 0.098365
0.646350 0.698362 0.103213
0.690716 0.716972 0.108047
0.735203 0.735203 0.112861
0.000887 0.000887 0.010671
0.023116 0.003549 0.023116
0.044751 0.005800 0.030817
0.067629 0.008077 0.037597
0.091615 0.010402 0.043903
0.116593 0.012780 0.049915
0.142459 0.015212 0.055725
0.169139 0.017694 0.061389
0.196529 0.020222 0.066934
0.224642 0.022799 0.072398
0.253364 0.025417 0.077787
0.282681 0.028077 0.083118
0.312607 0.030780 0.088410
0.343032 0.033518 0.093656
0.374009 0.036296 0.098878
0.405456 0.039109 0.104069
0.003549 0.023116 0.023116
0.037336 0.037336 0.037336
0.065408 0.046025 0.046025
0.093607 0.053622 0.053622
0.122295 0.060650 0.060650
0.151566 0.067321 0.067321
0.181423 0.073743 0.073743
0.211860 0.079983 0.079983
0.242815 0.086076 0.086076
0.274339 0.092064 0.092064
0.306334 0.097955 0.097955
0.338806 0.103770 0.103770
0.371792 0.109532 0.109532
0.405180 0.115233 0.115233
0.439042 0.120898 0.120898
0.473300 0.126520 0.126520
0.005800 0.044751 0.030817
0.046025 0.065408 0.046025
0.077683 0.077683 0.055265
0.108845 0.088244 0.063317
0.140153 0.097890 0.070746
0.171814 0.106952 0.077784
0.203894 0.115598 0.084548
0.236425 0.123931 0.091110
0.269365 0.132009 0.097507
0.302788 0.139897 0.103787
0.336606 0.147611 0.109958
0.370837 0.155184 0.116043
0.405525 0.162649 0.122066
0.440564 0.170001 0.128021
0.476034 0.177272 0.133932
0.511857 0.184461 0.139795
0.008077 0.067629 0.037597
0.053622 0.093607 0.053622
0.088244 0.108845 0.063317
0.121854 0.121854 0.071744
0.155327 0.133666 0.079506
0.188964 0.144704 0.086848
0.222882 0.155187 0.093894
0.257142 0.165250 0.100721
0.291723 0.174968 0.107370
0.326716 0.184426 0.113891
0.362041 0.193647 0.120293
0.397724 0.202673 0.126601
0.433820 0.211545 0.132840
0.470224 0.220262 0.139004
0.507022 0.228862 0.145119
0.544139 0.237344 0.151181
0.010402 0.091615 0.043903
0.060650 0.122295 0.060650
0.097890 0.140153 0.070746
0.133666 0.155327 0.079506
0.169052 0.169052 0.087562
0.204436 0.181836 0.095172
0.239977 0.193943 0.102467
0.275766 0.205535 0.109529
0.311797 0.216703 0.116400
0.348179 0.227550 0.123134
0.384835 0.238102 0.129741
0.421802 0.248412 0.136246
0.459143 0.258529 0.142676
0.496752 0.268451 0.149025
0.534724 0.278225 0.155321
0.572985 0.287850 0.161558
0.012780 0.116593 0.049915
0.067321 0.151566 0.067321
0.106952 0.171814 0.077784
0.144704 0.188964 0.086848
0.181836 0.204436 0.095172
0.218814 0.218814 0.103026
0.255838 0.232403 0.110549
0.293022 0.245390 0.117825
0.330377 0.257883 0.124899
0.368025 0.269995 0.131828
0.405897 0.281763 0.138621
0.444036 0.293245 0.145306
0.482513 0.304498 0.151911
0.521222 0.315520 0.158429
0.560266 0.326366 0.164889
0.599571 0.337036 0.171286
0.015212 0.142459 0.055725
0.073743 0.181423 0.073743
0.115598 0.203894 0.084548
0.155187 0.222882 0.093894
0.193943 0.239977 0.102467
0.232403 0.255838 0.110549
0.270805 0.270805 0.118283
0.309287 0.285090 0.125758
0.347873 0.298813 0.133022
0.386699 0.312104 0.140131
0.425701 0.325002 0.147098
0.464930 0.337574 0.153950
0.504462 0.349882 0.160717
0.544195 0.361928 0.167392
0.584236 0.373771 0.174005
0.624511 0.385411 0.180551
0.017694 0.169139 0.061389
0.079983 0.211860 0.079983
0.123931 0.236425 0.091110
0.165250 0.257142 0.100721
0.205535 0.275766 0.109529
0.245390 0.293022 0.117825
0.285090 0.309287 0.125758
0.324794 0.324794 0.133421
0.364538 0.339676 0.140862
0.404474 0.354076 0.148142
0.444540 0.368038 0.155272
0.484795 0.381636 0.162282
0.525322 0.394939 0.169201
0.566018 0.407948 0.176024
0.606997 0.420729 0.182781
0.648185 0.433282 0.189468
0.020222 0.196529 0.066934
0.086076 0.242815 0.086076
0.132009 0.269365 0.097507
0.174968 0.291723 0.107370
0.216703 0.311797 0.116400
0.257883 0.330377 0.124899
0.298813 0.347873 0.133022
0.339676 0.364538 0.140862
0.380519 0.380519 0.148473
0.421507 0.395971 0.155914
0.462582 0.410942 0.163199
0.503810 0.425514 0.170358
0.545280 0.439760 0.177422
0.586890 0.453683 0.184386
0.628759 0.467354 0.191279
0.670815 0.480774 0.198099
0.022799 0.224642 0.072398
0.092064 0.274339 0.092064
0.139897 0.302788 0.103787
0.184426 0.326716 0.113891
0.227550 0.348179 0.123134
0.269995 0.368025 0.131828
0.312104 0.386699 0.140131
0.354076 0.404474 0.148142
0.395971 0.421507 0.155914
0.437965 0.437965 0.163509
0.480006 0.453902 0.170942
0.522166 0.469405 0.178245
0.564538 0.484553 0.185447
0.607023 0.499351 0.192545
0.649744 0.513874 0.199569
0.692628 0.528123 0.206516
0.025417 0.253364 0.077787
0.097955 0.306334 0.097955
0.147611 0.336606 0.109958
0.193647 0.362041 0.120293
0.238102 0.384835 0.129741
0.281763 0.405897 0.138621
0.325002 0.425701 0.147098
0.368038 0.444540 0.155272
0.410942 0.462582 0.163199
0.453902 0.480006 0.170942
0.496870 0.496870 0.178518
0.539924 0.513266 0.185958
0.583162 0.529281 0.193293
0.626486 0.544918 0.200520
0.670024 0.560258 0.207669
0.713704 0.575303 0.214738
0.028077 0.282681 0.083118
0.103770 0.338806 0.103770
0.155184 0.370837 0.116043
0.202673 0.397724 0.126601
0.248412 0.421802 0.136246
0.293245 0.444036 0.145306
0.337574 0.464930 0.153950
0.381636 0.484795 0.162282
0.425514 0.503810 0.170358
0.469405 0.522166 0.178245
0.513266 0.539924 0.185958
0.557182 0.557182 0.193529
0.601255 0.574031 0.200993
0.645388 0.590478 0.208344
0.689714 0.606605 0.215614
0.734162 0.622418 0.222802
0.030780 0.312607 0.088410
0.109532 0.371792 0.109532
0.162649 0.405525 0.122066
0.211545 0.433820 0.132840
0.258529 0.459143 0.142676
0.304498 0.482513 0.151911
0.349882 0.504462 0.160717
0.394939 0.525322 0.169201
0.439760 0.545280 0.177422
0.484553 0.564538 0.185447
0.529281 0.583162 0.193293
0.574031 0.601255 0.200993
0.618914 0.618914 0.208581
0.663831 0.636144 0.216052
0.708921 0.653035 0.223440
0.754112 0.669592 0.230741
0.033518 0.343032 0.093656
0.115233 0.405180 0.115233
0.170001 0.440564 0.128021
0.220262 0.470224 0.139004
0.268451 0.496752 0.149025
0.315520 0.521222 0.158429
0.361928 0.544195 0.167392
0.407948 0.566018 0.176024
0.453683 0.586890 0.184386
0.499351 0.607023 0.192545
0.544918 0.626486 0.200520
0.590478 0.645388 0.208344
0.636144 0.663831 0.216052
0.681821 0.681821 0.223640
0.727651 0.699453 0.231141
0.773563 0.716730 0.238553
0.036296 0.374009 0.098878
0.120898 0.439042 0.120898
0.177272 0.476034 0.133932
0.228862 0.507022 0.145119
0.278225 0.534724 0.155321
0.326366 0.560266 0.164889
0.373771 0.584236 0.174005
0.420729 0.606997 0.182781
0.467354 0.628759 0.191279
0.513874 0.649744 0.199569
0.560258 0.670024 0.207669
0.606605 0.689714 0.215614
0.653035 0.708921 0.223440
0.699453 0.727651 0.231141
0.746002 0.746002 0.238753
0.792616 0.763981 0.246273
0.039109 0.405456 0.104069
0.126520 0.473300 0.126520
0.184461 0.511857 0.139795
0.237344 0.544139 0.151181
0.287850 0.572985 0.161558
0.337036 0.599571 0.171286
0.385411 0.624511 0.180551
0.433282 0.648185 0.189468
0.480774 0.670815 0.198099
0.528123 0.692628 0.206516
0.575303 0.713704 0.214738
0.622418 0.734162 0.222802
0.669592 0.754112 0.230741
0.716730 0.773563 0.238553
0.763981 0.792616 0.246273
0.811279 0.811279 0.253897
0.002151 0.002151 0.025868
0.030817 0.005800 0.044751
0.056038 0.008602 0.056038
0.081879 0.011334 0.065781
0.108484 0.014061 0.074706
0.135853 0.016806 0.083109
0.163942 0.019579 0.091142
0.192715 0.022383 0.098899
0.222090 0.025216 0.106429
0.252103 0.028084 0.113793
0.282648 0.030982 0.121005
0.313723 0.033912 0.128094
0.345353 0.036876 0.135089
0.377428 0.039868 0.141986
0.410012 0.042893 0.148815
0.443025 0.045945 0.155572
0.005800 0.030817 0.044751
0.046025 0.046025 0.065408
0.077683 0.055265 0.077683
0.108845 0.063317 0.088244
0.140153 0.070746 0.097890
0.171814 0.077784 0.106952
0.203894 0.084548 0.115598
0.236425 0.091110 0.123931
0.269365 0.097507 0.132009
0.302788 0.103787 0.139897
0.336606 0.109958 0.147611
0.370837 0.116043 0.155184
0.405525 0.122066 0.162649
0.440564 0.128021 0.170001
0.476034 0.133932 0.177272
0.511857 0.139795 0.184461
0.008602 0.056038 0.056038
0.055265 0.077683 0.077683
0.090509 0.090509 0.090509
0.124634 0.101524 0.101524
0.158561 0.111573 0.111573
0.192613 0.121002 0.121002
0.226916 0.129988 0.129988
0.261539 0.138643 0.138643
0.296465 0.147025 0.147025
0.331788 0.155205 0.155205
0.367429 0.163199 0.163199
0.403417 0.171042 0.171042
0.439809 0.178768 0.178768
0.476499 0.186374 0.186374
0.513576 0.193892 0.193892
0.550965 0.201320 0.201320
0.011334 0.081879 0.065781
0.063317 0.108845 0.088244
0.101524 0.124634 0.101524
0.138098 0.138098 0.112915
0.174190 0.150312 0.123296
0.210218 0.161717 0.133028
0.246358 0.172541 0.142297
0.282712 0.182925 0.151217
0.319278 0.192948 0.159852
0.356171 0.202698 0.168272
0.393319 0.212198 0.176497
0.430760 0.221494 0.184564
0.468559 0.230628 0.192506
0.506613 0.239598 0.200321
0.545019 0.248445 0.208043
0.583701 0.257167 0.215670
0.014061 0.108484 0.074706
0.070746 0.140153 0.097890
0.111573 0.158561 0.111573
0.150312 0.174190 0.123296
0.188317 0.188317 0.133971
0.226091 0.201468 0.143972
0.263856 0.213916 0.153490
0.301738 0.225829 0.162645
0.339754 0.237303 0.171501
0.378036 0.248440 0.180135
0.416515 0.259273 0.188565
0.455240 0.269852 0.196828
0.494284 0.280231 0.204961
0.533543 0.290406 0.212961
0.573123 0.300427 0.220864
0.612949 0.310293 0.228666
0.016806 0.135853 0.083109
0.077784 0.171814 0.106952
0.121002 0.192613 0.121002
0.161717 0.210218 0.133028
0.201468 0.226091 0.143972
0.240837 0.240837 0.154217
0.280083 0.254767 0.163962
0.319361 0.268076 0.173331
0.358701 0.280873 0.182391
0.398249 0.293277 0.191220
0.437944 0.305325 0.199836
0.477841 0.317077 0.208279
0.518021 0.328591 0.216587
0.558381 0.339867 0.224755
0.599032 0.350959 0.232822
0.639902 0.361869 0.240785
0.019579 0.163942 0.091142
0.084548 0.203894 0.115598
0.129988 0.226916 0.129988
0.172541 0.246358 0.142297
0.213916 0.263856 0.153490
0.254767 0.280083 0.163962
0.295392 0.295392 0.173919
0.335967 0.309998 0.183488
0.376538 0.324026 0.192737
0.417264 0.337609 0.201746
0.458089 0.350786 0.210535
0.499076 0.363628 0.219146
0.540311 0.376198 0.227616
0.581695 0.388498 0.235942
0.623343 0.400587 0.244162
0.665183 0.412467 0.252273
0.022383 0.192715 0.098899
0.091110 0.236425 0.123931
0.138643 0.261539 0.138643
0.182925 0.282712 0.151217
0.225829 0.301738 0.162645
0.268076 0.319361 0.173331
0.309998 0.335967 0.183488
0.351795 0.351795 0.193244
0.393525 0.366982 0.202670
0.435360 0.381673 0.211850
0.477249 0.395915 0.220803
0.519262 0.409783 0.229571
0.561492 0.423348 0.238193
0.603839 0.436610 0.246667
0.646425 0.449638 0.255031
0.689179 0.462432 0.263283
0.025216 0.222090 0.106429
0.097507 0.269365 0.132009
0.147025 0.296465 0.147025
0.192948 0.319278 0.159852
0.237303 0.339754 0.171501
0.280873 0.358701 0.182391
0.324026 0.376538 0.192737
0.366982 0.393525 0.202670
0.409811 0.409811 0.212266
0.452698 0.425554 0.221607
0.495596 0.440805 0.230715
0.538582 0.455646 0.239632
0.581756 0.470154 0.248399
0.625016 0.484331 0.257013
0.668492 0.498248 0.265514
0.712113 0.511909 0.273899
0.028084 0.252103 0.113793
0.103787 0.302788 0.139897
0.155205 0.331788 0.155205
0.202698 0.356171 0.168272
0.248440 0.378036 0.180135
0.293277 0.398249 0.191220
0.337609 0.417264 0.201746
0.381673 0.435360 0.211850
0.425554 0.452698 0.221607
0.469448 0.469448 0.231102
0.513312 0.485665 0.240358
0.557229 0.501437 0.249418
0.601305 0.516847 0.258324
0.645441 0.531899 0.267073
0.689768 0.546668 0.275704
0.734219 0.561158 0.284217
0.030982 0.282648 0.121005
0.109958 0.336606 0.147611
0.163199 0.367429 0.163199
0.212198 0.393319 0.176497
0.259273 0.416515 0.188565
0.305325 0.437944 0.199836
0.350786 0.458089 0.210535
0.395915 0.477249 0.220803
0.440805 0.495596 0.230715
0.485665 0.513312 0.240358
0.530456 0.530456 0.249757
0.575267 0.547122 0.258954
0.620209 0.563398 0.267993
0.665183 0.579288 0.276870
0.710328 0.594875 0.285627
0.755574 0.610161 0.294262
0.033912 0.313723 0.128094
0.116043 0.370837 0.155184
0.171042 0.403417 0.171042
0.221494 0.430760 0.184563
0.269852 0.455240 0.196828
0.317077 0.477841 0.208279
0.363628 0.499076 0.219146
0.409783 0.519262 0.229571
0.455646 0.538582 0.239632
0.501437 0.557229 0.249418
0.547122 0.575267 0.258954
0.592795 0.592795 0.268284
0.638572 0.609906 0.277451
0.684355 0.626606 0.286452
0.730288 0.642980 0.295330
0.776302 0.659033 0.304083
0.036876 0.345353 0.135089
0.122066 0.405525 0.162649
0.178768 0.439809 0.178768
0.230628 0.468559 0.192506
0.280231 0.494284 0.204961
0.328591 0.518021 0.216587
0.376198 0.540311 0.227616
0.423348 0.561492 0.238193
0.470154 0.581756 0.248399
0.516847 0.601305 0.258324
0.563398 0.620209 0.267993
0.609906 0.638572 0.277451
0.656492 0.656492 0.286742
0.703060 0.673976 0.295864
0.749757 0.691114 0.304859
0.796514 0.707911 0.313726
0.039868 0.377428 0.141986
0.128021 0.440564 0.170001
0.186374 0.476499 0.186374
0.239598 0.506613 0.200321
0.290406 0.533543 0.212961
0.339867 0.558381 0.224755
0.388498 0.581695 0.235942
0.436610 0.603839 0.246667
0.484331 0.625016 0.257013
0.531899 0.645441 0.267073
0.579288 0.665183 0.276870
0.626606 0.684355 0.286452
0.673976 0.703060 0.295864
0.721304 0.721304 0.305102
0.768740 0.739181 0.314211
0.816218 0.756699 0.323188
0.042893 0.410012 0.148815
0.133932 0.476034 0.177272
0.193892 0.513576 0.193892
0.248445 0.545019 0.208043
0.300427 0.573123 0.220864
0.350959 0.599032 0.232822
0.400587 0.623343 0.244162
0.449638 0.646425 0.255031
0.498248 0.668492 0.265514
0.546668 0.689768 0.275704
0.594875 0.710328 0.285627
0.642980 0.730288 0.295330
0.691114 0.749757 0.304859
0.739181 0.768740 0.314211
0.787338 0.787338 0.323430
0.835518 0.805558 0.332515
0.045945 0.443025 0.155572
0.139795 0.511857 0.184461
0.201320 0.550965 0.201320
0.257167 0.583701 0.215670
0.310293 0.612949 0.228666
0.361869 0.639902 0.240785
0.412467 0.665183 0.252273
0.462432 0.689179 0.263283
0.511909 0.712113 0.273899
0.561158 0.734219 0.284217
0.610161 0.755574 0.294262
0.659033 0.776302 0.304083
0.707911 0.796514 0.313726
0.756699 0.816218 0.323188
0.805558 0.835518 0.332515
0.854421 0.854421 0.341705
0.003610 0.003610 0.043426
0.037597 0.008077 0.067629
0.065781 0.011334 0.081879
0.094072 0.014441 0.094072
0.122842 0.017500 0.105162
0.152186 0.020549 0.115540
0.182113 0.023604 0.125410
0.212615 0.026673 0.134897
0.243632 0.029758 0.144068
0.275214 0.032868 0.153002
0.307266 0.035997 0.161721
0.339793 0.039149 0.170262
0.372831 0.042330 0.178665
0.406271 0.045531 0.186927
0.440183 0.048760 0.195084
0.474490 0.052011 0.203134
0.008077 0.037597 0.067629
0.053622 0.053622 0.093607
0.088244 0.063317 0.108845
0.121854 0.071744 0.121854
0.155327 0.079506 0.133666
0.188964 0.086848 0.144704
0.222882 0.093894 0.155187
0.257142 0.100721 0.165250
0.291723 0.107370 0.174968
0.326716 0.113891 0.184426
0.362041 0.120293 0.193647
0.397724 0.126601 0.202673
0.433820 0.132840 0.211545
0.470224 0.139004 0.220262
0.507022 0.145119 0.228862
0.544139 0.151181 0.237344
0.011334 0.065781 0.081879
0.063317 0.088244 0.108845
0.101524 0.101524 0.124634
0.138098 0.112915 0.138098
0.174190 0.123296 0.150312
0.210218 0.133028 0.161717
0.246358 0.142297 0.172541
0.282712 0.151217 0.182925
0.319278 0.159852 0.192948
0.356171 0.168272 0.202698
0.393319 0.176497 0.212198
0.430760 0.184564 0.221494
0.468559 0.192506 0.230628
0.506613 0.200321 0.239598
0.545019 0.208043 0.248445
0.583701 0.215670 0.257167
0.014441 0.094072 0.094072
0.071744 0.121854 0.121854
0.112915 0.138098 0.138098
0.151938 0.151938 0.151938
0.190195 0.164484 0.164484
0.228199 0.176192 0.176192
0.266177 0.187299 0.187299
0.304260 0.197949 0.197949
0.342466 0.208223 0.208223
0.380930 0.218214 0.218214
0.419584 0.227946 0.227946
0.458478 0.237465 0.237465
0.497686 0.246815 0.246815
0.537103 0.255994 0.255994
0.576837 0.265045 0.265045
0.616814 0.273966 0.273966
0.017500 0.122842 0.105162
0.079506 0.155327 0.133666
0.123296 0.174190 0.150312
0.164484 0.190195 0.164484
0.204654 0.204654 0.177324
0.244405 0.218109 0.189300
0.284006 0.230839 0.200656
0.323618 0.243018 0.211540
0.363275 0.254743 0.222038
0.403127 0.266122 0.232242
0.443113 0.277185 0.242178
0.483290 0.287988 0.251894
0.523742 0.298582 0.261435
0.564366 0.308967 0.270799
0.605274 0.319192 0.280030
0.646394 0.329257 0.289127
0.020549 0.152186 0.115540
0.086848 0.188964 0.144704
0.133028 0.210218 0.161717
0.176192 0.228199 0.176192
0.218109 0.244405 0.189300
0.259453 0.259453 0.201521
0.300537 0.273665 0.213104
0.341545 0.287240 0.224203
0.382525 0.300289 0.234904
0.423644 0.312934 0.245302
0.464845 0.325213 0.255425
0.506195 0.337188 0.265321
0.547782 0.348918 0.275036
0.589507 0.360404 0.284569
0.631487 0.371700 0.293965
0.673650 0.382809 0.303222
0.023604 0.182113 0.125410
0.093894 0.222882 0.155187
0.142297 0.246358 0.172541
0.187299 0.266177 0.187299
0.230839 0.284006 0.200656
0.273665 0.300537 0.213104
0.316128 0.316128 0.224899
0.358433 0.331000 0.236197
0.400644 0.345279 0.247086
0.442941 0.359103 0.257666
0.485272 0.372512 0.267962
0.527712 0.385577 0.278025
0.570355 0.398363 0.287903
0.613103 0.410872 0.297593
0.656079 0.423165 0.307141
0.699213 0.435244 0.316547
0.026673 0.212615 0.134897
0.100721 0.257142 0.165250
0.151217 0.282712 0.182925
0.197949 0.304260 0.197949
0.243018 0.323618 0.211540
0.287240 0.341545 0.224203
0.331000 0.358433 0.236197
0.374527 0.374527 0.247682
