tools/decompiled/jadx/resources/res/raw/cirrus.cube
LUT_3D_SIZE 6
0.000000 0.000000 0.000000
0.043426 0.003610 0.003610
0.105270 0.008752 0.008752
0.176719 0.014692 0.014692
0.255197 0.021216 0.021216
0.339386 0.028215 0.028215
0.003610 0.043426 0.003610
0.094072 0.094072 0.014441
0.182113 0.125410 0.023604
0.275214 0.153002 0.032868
0.372831 0.178665 0.042330
0.474490 0.203134 0.052011
0.008752 0.105270 0.008752
0.125410 0.182113 0.023604
0.228042 0.228042 0.035007
0.333203 0.267694 0.046122
0.441480 0.304016 0.057220
0.552868 0.338215 0.068395
0.014692 0.176719 0.014692
0.153002 0.275214 0.032868
0.267694 0.333203 0.046122
0.382822 0.382822 0.058767
0.499908 0.427954 0.071218
0.619338 0.470194 0.083627
0.021216 0.255197 0.021216
0.178665 0.372831 0.042330
0.304016 0.441480 0.057220
0.427954 0.499908 0.071218
0.552827 0.552827 0.084865
0.679366 0.602176 0.098365
0.028215 0.339386 0.028215
0.203134 0.474490 0.052011
0.338215 0.552868 0.068395
0.470194 0.619338 0.083627
0.602176 0.679366 0.098365
0.735203 0.735203 0.112861
0.003610 0.003610 0.043426
0.094072 0.014441 0.094072
0.182113 0.023604 0.125410
0.275214 0.032868 0.153002
0.372831 0.042330 0.178665
0.474490 0.052011 0.203134
0.014441 0.094072 0.094072
0.151938 0.151938 0.151938
0.266177 0.187299 0.187299
0.380930 0.218214 0.218214
0.497686 0.246815 0.246815
0.616814 0.273966 0.273966
0.023604 0.182113 0.125410
0.187299 0.266177 0.187299
0.316128 0.316128 0.224899
0.442941 0.359103 0.257666
0.570355 0.398363 0.287903
0.699213 0.435244 0.316547
0.032868 0.275214 0.153002
0.218214 0.380930 0.218214
0.359103 0.442941 0.257666
0.495883 0.495883 0.291963
0.632107 0.543953 0.323552
0.769007 0.588875 0.353431
0.042330 0.372831 0.178665
0.246815 0.497686 0.246815
0.398363 0.570355 0.287903
0.543953 0.632107 0.323552
0.687965 0.687965 0.356337
0.831973 0.739995 0.387307
0.052011 0.474490 0.203134
0.273966 0.616814 0.273966
0.435244 0.699213 0.316547
0.588875 0.769007 0.353431
0.739995 0.831973 0.387307
0.890492 0.890492 0.419273
0.008752 0.008752 0.105270
0.125410 0.023604 0.182113
0.228042 0.035007 0.228042
0.333203 0.046122 0.267694
0.441480 0.057220 0.304016
0.552868 0.068395 0.338215
0.023604 0.125410 0.182113
0.187299 0.187299 0.266177
0.316128 0.224899 0.316128
0.442941 0.257666 0.359103
0.570355 0.287903 0.398363
0.699213 0.316547 0.435244
0.035007 0.228042 0.228042
0.224899 0.316128 0.316128
0.368319 0.368319 0.368319
0.507191 0.413145 0.413145
0.645265 0.454042 0.454042
0.783853 0.492416 0.492416
0.046122 0.333203 0.267694
0.257666 0.442941 0.359103
0.413145 0.507191 0.413145
0.561984 0.561984 0.459501
0.708868 0.611691 0.501750
0.855498 0.658107 0.541359
0.057220 0.441480 0.304016
0.287903 0.570355 0.398363
0.454042 0.645265 0.454042
0.611691 0.708868 0.501750
0.766362 0.766362 0.545195
0.920100 0.819886 0.585895
0.068395 0.552868 0.338215
0.316547 0.699213 0.435244
0.492416 0.783853 0.492416
0.658107 0.855498 0.541359
0.819886 0.920100 0.585895
0.980113 0.980113 0.627591
0.014692 0.014692 0.176719
0.153002 0.032868 0.275214
0.267694 0.046122 0.333203
0.382822 0.058767 0.382822
0.499908 0.071218 0.427954
0.619338 0.083627 0.470194
0.032868 0.153002 0.275214
0.218214 0.218214 0.380930
0.359103 0.257666 0.442941
0.495883 0.291963 0.495883
0.632107 0.323552 0.543953
0.769007 0.353431 0.588875
0.046122 0.267694 0.333203
0.257666 0.359103 0.442941
0.413145 0.413145 0.507191
0.561984 0.459501 0.561984
0.708868 0.501750 0.611691
0.855498 0.541359 0.658107
0.058767 0.382822 0.382822
0.291963 0.495883 0.495883
0.459501 0.561984 0.561984
0.618308 0.618308 0.618308
0.774002 0.669366 0.669366
0.928673 0.717017 0.717017
0.071218 0.499908 0.427954
0.323552 0.632107 0.543953
0.501750 0.708868 0.611691
0.669366 0.774002 0.669366
0.832848 0.832848 0.721621
0.994628 0.887607 0.770362
0.083627 0.619338 0.470194
0.353431 0.769007 0.588875
0.541359 0.855498 0.658107
0.717017 0.928673 0.717017
0.887607 0.994628 0.770362
1.055875 1.055875 0.820100
0.021216 0.021216 0.255197
0.178665 0.042330 0.372831
0.304016 0.057220 0.441480
0.427954 0.071218 0.499908
0.552827 0.084865 0.552827
0.679366 0.098365 0.602176
0.042330 0.178665 0.372831
0.246815 0.246815 0.497686
0.398363 0.287903 0.570355
0.543953 0.323552 0.632107
0.687965 0.356337 0.687965
0.831973 0.387307 0.739995
0.057220 0.304016 0.441480
0.287903 0.398363 0.570355
0.454042 0.454042 0.645265
0.611691 0.501750 0.708868
0.766362 0.545195 0.766362
0.920100 0.585895 0.819886
0.071218 0.427954 0.499908
0.323552 0.543953 0.632107
0.501750 0.611691 0.708868
0.669366 0.669366 0.774002
0.832848 0.721621 0.832848
0.994628 0.770362 0.887607
0.084865 0.552827 0.552827
0.356337 0.687965 0.687965
0.545195 0.766362 0.766362
0.721621 0.832848 0.832848
0.892889 0.892889 0.892889
1.061778 0.948739 0.948739
0.098365 0.679366 0.602176
0.387307 0.831973 0.739995
0.585895 0.920100 0.819886
0.770362 0.994628 0.887607
0.948739 1.061778 0.948739
1.124116 1.124116 1.005585
0.028215 0.028215 0.339386
0.203134 0.052011 0.474490
0.338215 0.068395 0.552868
0.470194 0.083627 0.619338
0.602176 0.098365 0.679366
0.735203 0.112861 0.735203
0.052011 0.203134 0.474490
0.273966 0.273966 0.616814
0.435244 0.316547 0.699213
0.588875 0.353431 0.769007
0.739995 0.387307 0.831973
0.890492 0.419273 0.890492
0.068395 0.338215 0.552868
0.316547 0.435244 0.699213
0.492416 0.492416 0.783853
0.658107 0.541359 0.855498
0.819886 0.585895 0.920100
0.980113 0.627591 0.980113
0.083627 0.470194 0.619338
0.353431 0.588875 0.769007
0.541359 0.658107 0.855498
0.717017 0.717017 0.928673
0.887607 0.770362 0.994628
1.055875 0.820100 1.055875
0.098365 0.602176 0.679366
0.387307 0.739995 0.831973
0.585895 0.819886 0.920100
0.770362 0.887607 0.994628
0.948739 0.948739 1.061778
1.124116 1.005585 1.124116
0.112861 0.735203 0.735203
0.419273 0.890492 0.890492
0.627591 0.980113 0.980113
0.820100 1.055875 1.055875
1.005585 1.124116 1.124116
1.187450 1.187450 1.187450
