tools/decompiled/jadx/resources/res/raw/classic.cube
LUT_3D_SIZE 16
0.101970 0.101530 0.101530
0.128438 0.112079 0.112061
0.189789 0.123706 0.123519
0.284650 0.133668 0.133372
0.389912 0.138430 0.139686
0.461688 0.141205 0.143487
0.515143 0.143505 0.146400
0.562954 0.145430 0.148785
0.604692 0.146743 0.150339
0.644296 0.147327 0.151070
0.681889 0.147068 0.150822
0.718384 0.145708 0.149400
0.753375 0.143129 0.146571
0.787700 0.139153 0.142074
0.821096 0.133266 0.134673
0.854902 0.132970 0.133582
0.112529 0.110868 0.109021
0.139536 0.118257 0.116041
0.201283 0.129457 0.126033
0.295378 0.139485 0.135016
0.396852 0.144092 0.140954
0.470296 0.146050 0.144464
0.520098 0.148434 0.147101
0.563906 0.150242 0.149125
0.604844 0.151421 0.150486
0.644123 0.151891 0.151116
0.681663 0.151458 0.150751
0.717936 0.149993 0.149215
0.752861 0.147319 0.146287
0.787049 0.143330 0.141658
0.820403 0.137764 0.133734
0.854462 0.132963 0.133567
0.134951 0.143120 0.124154
0.153606 0.146494 0.126382
0.219877 0.157394 0.133156
0.320828 0.169124 0.140741
0.413606 0.175123 0.146063
0.481390 0.176066 0.149272
0.534007 0.173992 0.151120
0.581532 0.172193 0.152369
0.616519 0.173397 0.153192
0.651534 0.172640 0.153051
0.686877 0.170647 0.151941
0.721150 0.167086 0.149488
0.754883 0.161620 0.145521
0.790331 0.157593 0.140523
0.818531 0.151590 0.132823
0.852838 0.144737 0.133650
0.157263 0.204322 0.137771
0.169232 0.204798 0.138132
0.210107 0.211574 0.140431
0.332296 0.234319 0.149085
0.433629 0.247372 0.155854
0.500709 0.252878 0.160067
0.550359 0.253848 0.162468
0.594343 0.252601 0.163897
0.632407 0.249998 0.164108
0.669136 0.246935 0.163436
0.704794 0.242541 0.161508
0.739266 0.235584 0.157750
0.772404 0.225969 0.151778
0.804787 0.214593 0.142623
0.836871 0.200760 0.135666
0.870176 0.177798 0.135629
0.171725 0.281101 0.146993
0.182019 0.281070 0.147063
0.210130 0.281331 0.147289
0.287380 0.301484 0.152378
0.439826 0.335964 0.166508
0.516371 0.344348 0.172181
0.570112 0.344936 0.174399
0.614243 0.342174 0.175223
0.652047 0.338866 0.174962
0.687548 0.334710 0.173487
0.722100 0.328750 0.170321
0.755922 0.321141 0.165041
0.788539 0.311744 0.156450
0.820916 0.301597 0.142987
0.852085 0.286748 0.143234
0.883400 0.268708 0.143381
0.183789 0.347307 0.151718
0.193350 0.347000 0.151688
0.219965 0.346570 0.151642
0.255129 0.347777 0.151780
0.407200 0.399516 0.168783
0.526141 0.430195 0.181172
0.591743 0.434779 0.184868
0.638752 0.431211 0.185247
0.677297 0.426254 0.183801
0.711665 0.420068 0.180719
0.745629 0.413433 0.175781
0.779274 0.406238 0.167563
0.813266 0.399534 0.154034
0.844875 0.388344 0.154799
0.875304 0.374428 0.155290
0.905415 0.358218 0.155667
0.187825 0.403724 0.152992
0.197179 0.403433 0.152892
0.223217 0.402577 0.152653
0.257099 0.401365 0.152209
0.295742 0.407462 0.152697
0.503036 0.492980 0.182474
0.598778 0.514312 0.192860
0.653731 0.513989 0.193912
0.694746 0.508758 0.192043
0.729990 0.502671 0.186638
0.764501 0.496581 0.175094
0.799137 0.489532 0.168928
0.833186 0.480210 0.169587
0.866178 0.469740 0.170491
0.898940 0.457953 0.171343
0.931520 0.444747 0.172107
0.182122 0.453420 0.150064
0.192472 0.453140 0.149938
0.220032 0.452247 0.149521
0.254626 0.450868 0.148768
0.291243 0.449134 0.147593
0.402563 0.497023 0.160048
0.577210 0.575241 0.190183
0.651322 0.593667 0.220268
0.689167 0.594653 0.207585
0.725336 0.588380 0.205564
0.761278 0.580758 0.202573
0.797622 0.571842 0.199724
0.834301 0.561652 0.196914
0.871461 0.550761 0.194279
0.908959 0.539019 0.191819
0.945363 0.526817 0.190935
0.153901 0.494353 0.139074
0.172383 0.493990 0.138840
0.207585 0.493312 0.137934
0.245864 0.492445 0.134789
0.284215 0.491042 0.135013
0.324313 0.492663 0.135696
0.502666 0.589617 0.163759
0.641319 0.646752 0.220685
0.683638 0.656633 0.248425
0.719665 0.653565 0.249598
0.755148 0.647919 0.246813
0.791062 0.641825 0.244122
0.827152 0.635385 0.241648
0.863498 0.628620 0.239330
0.900719 0.619917 0.235911
0.939101 0.609858 0.232015
0.140580 0.529199 0.136829
0.140565 0.529084 0.136815
0.177919 0.528763 0.137029
0.228899 0.528086 0.137417
0.271833 0.527047 0.137842
0.311831 0.525665 0.138291
0.382453 0.553173 0.145328
0.592477 0.665680 0.195229
0.676314 0.693722 0.256620
0.713632 0.692445 0.261386
0.749812 0.689522 0.262466
0.786156 0.686224 0.263479
0.822932 0.682614 0.264394
0.860068 0.678426 0.265081
0.897901 0.674336 0.266028
0.936694 0.670102 0.267296
0.144249 0.562602 0.140612
0.144225 0.562466 0.140591
0.144199 0.562149 0.140550
0.197815 0.561554 0.140986
0.253243 0.560691 0.141650
0.297952 0.559569 0.142303
0.338699 0.558111 0.142996
0.503590 0.653403 0.175815
0.665262 0.725239 0.253049
0.706026 0.728147 0.266720
0.743085 0.725785 0.268621
0.780289 0.723211 0.269959
0.817760 0.720357 0.271258
0.855938 0.717426 0.272672
0.894871 0.714189 0.274151
0.935032 0.711025 0.275870
0.149562 0.596766 0.146079
0.149525 0.596624 0.146048
0.149482 0.596341 0.146005
0.149381 0.595806 0.145903
0.224713 0.595215 0.146823
0.279908 0.594284 0.147747
0.325177 0.593099 0.148678
0.394241 0.616066 0.157137
0.620888 0.741774 0.215894
0.697213 0.763506 0.269676
0.735989 0.762707 0.273609
0.774212 0.760719 0.275148
0.812825 0.758804 0.276671
0.852087 0.756764 0.278277
0.892349 0.754773 0.279998
0.933856 0.752984 0.281921
0.156828 0.632506 0.153553
0.156828 0.632505 0.153552
0.156779 0.632255 0.153495
0.156683 0.631870 0.153398
0.156540 0.631262 0.153254
0.255554 0.630775 0.154920
0.309214 0.629995 0.156141
0.354613 0.629376 0.157420
0.553726 0.744573 0.198939
0.687428 0.799946 0.270507
0.729308 0.801458 0.279089
0.768979 0.800368 0.280710
0.808953 0.799436 0.282443
0.849910 0.798593 0.284233
0.891806 0.798039 0.286186
0.935511 0.797603 0.288349
0.165834 0.671529 0.162780
0.165826 0.671490 0.162773
0.165797 0.671308 0.162736
0.165745 0.671110 0.162685
0.165636 0.670613 0.162569
0.215914 0.670323 0.163280
0.289711 0.670084 0.164790
0.341611 0.669787 0.166155
0.457057 0.728277 0.186945
0.672424 0.835480 0.259844
0.723827 0.843677 0.284871
0.765621 0.843913 0.287224
0.807822 0.844422 0.289221
0.850932 0.844884 0.291253
0.895123 0.846198 0.293550
0.941650 0.848209 0.296159
0.175915 0.714843 0.173069
0.175911 0.714814 0.173065
0.175945 0.714897 0.173077
0.175903 0.714852 0.173066
0.175907 0.714878 0.173061
0.175902 0.714843 0.173065
0.264976 0.715041 0.174640
0.328353 0.715479 0.176250
0.402590 0.736514 0.184229
0.657230 0.875861 0.254164
0.721127 0.891888 0.292127
0.765880 0.893929 0.295146
0.810629 0.895938 0.297461
0.856703 0.898749 0.299948
0.904559 0.902294 0.302721
0.954842 0.906731 0.305846
0.187881 0.766049 0.185250
0.187878 0.766041 0.185247
0.187926 0.766237 0.185278
0.187988 0.766661 0.185393
0.188079 0.766902 0.185436
0.188240 0.767596 0.185595
0.230525 0.768629 0.186474
0.316789 0.769994 0.188521
0.374440 0.771732 0.190431
0.641280 0.924682 0.256155
0.723507 0.949554 0.301744
0.771682 0.953472 0.305197
0.820064 0.957683 0.307954
0.869802 0.962700 0.310939
0.921513 0.968703 0.314251
0.975614 0.975546 0.317949
0.102809 0.102172 0.102600
0.130044 0.112338 0.113077
0.189815 0.123717 0.124883
0.284323 0.133556 0.135780
0.389270 0.138348 0.143360
0.460429 0.141199 0.147933
0.515194 0.143538 0.151245
0.563288 0.145475 0.153761
0.604980 0.146772 0.155291
0.644429 0.147355 0.155979
0.682169 0.147061 0.155659
0.718384 0.145703 0.154202
0.753435 0.143120 0.151444
0.787792 0.139126 0.147141
0.821561 0.133223 0.140893
0.854757 0.132971 0.133576
0.112881 0.111125 0.110594
0.139237 0.118194 0.117432
0.200829 0.129236 0.127734
0.294848 0.139177 0.137846
0.396445 0.143798 0.144938
0.468572 0.146000 0.149033
0.519291 0.148433 0.151947
0.563950 0.150259 0.154077
0.605104 0.151453 0.155446
0.644380 0.151909 0.156012
0.681823 0.151471 0.155590
0.717880 0.149970 0.154023
0.753027 0.147304 0.151149
0.787336 0.143318 0.146764
0.820901 0.137761 0.140375
0.854490 0.132962 0.133566
0.135147 0.142876 0.126520
0.153558 0.146144 0.128793
0.218781 0.156716 0.136053
0.319882 0.168323 0.144696
0.413256 0.174512 0.151006
0.481064 0.175074 0.154462
0.533817 0.172213 0.156097
0.580650 0.171939 0.157540
0.615019 0.172796 0.158130
0.650389 0.171894 0.157858
0.685890 0.169902 0.156683
0.720094 0.166561 0.154222
0.753589 0.161430 0.150326
0.788951 0.157398 0.145638
0.819081 0.151588 0.138385
0.852645 0.144669 0.133641
0.157440 0.204389 0.141397
0.169401 0.204828 0.141756
0.209614 0.211269 0.144150
0.331685 0.234459 0.154366
0.433349 0.247571 0.162106
0.500571 0.252798 0.166535
0.550148 0.253543 0.168876
0.593946 0.251955 0.170073
0.632056 0.249191 0.170105
0.668723 0.246047 0.169300
0.704231 0.241473 0.167275
0.738587 0.234131 0.163504
0.771752 0.224197 0.157768
0.803861 0.212157 0.149726
0.836822 0.200617 0.135659
0.870050 0.177607 0.135603
0.171723 0.280821 0.151327
0.182022 0.280791 0.151386
0.210080 0.281045 0.151614
0.286071 0.300786 0.157399
0.439446 0.335460 0.173183
0.516203 0.344168 0.179184
0.570190 0.345067 0.181406
0.614647 0.342770 0.182208
0.652457 0.339588 0.181872
0.687922 0.335376 0.180427
0.722324 0.329220 0.177344
0.756102 0.321294 0.172440
0.788384 0.311571 0.165059
0.820283 0.300092 0.153138
0.852051 0.286590 0.143203
0.883502 0.268543 0.143367
0.183789 0.347086 0.156543
0.193307 0.346897 0.156505
0.219943 0.346434 0.156447
0.255050 0.347490 0.156607
0.406748 0.399098 0.175151
0.525825 0.429683 0.188117
0.591327 0.434265 0.191866
0.638362 0.430627 0.192222
0.676884 0.425551 0.190839
0.711336 0.419442 0.187952
0.745089 0.412652 0.183591
0.778458 0.404982 0.176914
0.811576 0.396864 0.165841
0.844809 0.388194 0.154777
0.875388 0.374316 0.155282
0.905230 0.358055 0.155617
0.187796 0.403517 0.158040
0.197092 0.403187 0.157960
0.223167 0.402423 0.157688
0.257025 0.401099 0.157246
0.295620 0.407065 0.157816
0.502458 0.492357 0.189377
0.598296 0.513607 0.200073
0.653290 0.513384 0.201380
0.694543 0.507958 0.199650
0.729854 0.501696 0.195454
0.764112 0.494916 0.188043
0.798804 0.488867 0.171481
0.833200 0.480051 0.169558
0.866166 0.469495 0.170463
0.898750 0.457848 0.171298
0.931525 0.444734 0.172102
0.182026 0.453249 0.155474
0.192374 0.452884 0.155348
0.219953 0.452016 0.154932
0.254544 0.450732 0.154200
0.291162 0.448859 0.153074
0.401839 0.496214 0.166966
0.576453 0.574422 0.198715
0.651046 0.592643 0.231853
0.689136 0.591876 0.230611
0.725319 0.587842 0.208896
0.761199 0.580639 0.202528
0.797505 0.571755 0.199674
0.834355 0.561609 0.196894
0.871461 0.550686 0.194246
0.908869 0.538948 0.191791
0.945419 0.526719 0.190888
0.153628 0.494247 0.146295
0.172200 0.493844 0.146146
0.207455 0.493197 0.145556
0.245711 0.492090 0.144438
0.284079 0.490770 0.142584
0.323361 0.492071 0.139945
0.502604 0.589525 0.163729
0.641248 0.646716 0.220609
0.683606 0.656496 0.248414
0.719563 0.653505 0.249575
0.755096 0.647789 0.246776
0.790935 0.641771 0.244097
0.827052 0.635232 0.241599
0.863494 0.628551 0.239271
0.900681 0.619920 0.235897
0.939024 0.609866 0.232000
0.140577 0.529132 0.136827
0.140564 0.529061 0.136814
0.177733 0.528695 0.137025
0.228825 0.528047 0.137414
0.271806 0.527013 0.137832
0.311815 0.525611 0.138285
0.382333 0.553050 0.145297
0.592340 0.665635 0.195168
0.676371 0.693612 0.256611
0.713640 0.692432 0.261384
0.749786 0.689500 0.262447
0.786105 0.686171 0.263464
0.822920 0.682597 0.264370
0.859983 0.678543 0.265085
0.897922 0.674291 0.266015
0.936669 0.670089 0.267281
0.144242 0.562583 0.140604
0.144228 0.562430 0.140581
0.144178 0.562070 0.140534
0.197691 0.561489 0.140976
0.253170 0.560678 0.141647
0.297904 0.559555 0.142300
0.338640 0.558024 0.142979
0.503189 0.653222 0.175734
0.665096 0.725170 0.252928
0.705937 0.728081 0.266702
0.743020 0.725778 0.268627
0.780264 0.723428 0.269990
0.817720 0.720268 0.271246
0.855926 0.717410 0.272657
0.894878 0.714149 0.274144
0.934978 0.711008 0.275854
0.149529 0.596620 0.146053
0.149518 0.596531 0.146039
0.149480 0.596331 0.146002
0.149367 0.595735 0.145884
0.224596 0.595107 0.146793
0.279871 0.594257 0.147736
0.325128 0.593052 0.148666
0.393952 0.615817 0.157061
0.620751 0.741706 0.215802
0.697127 0.763531 0.269654
0.735939 0.762671 0.273627
0.774171 0.760673 0.275138
0.812777 0.758772 0.276664
0.852090 0.756688 0.278261
0.892299 0.754713 0.279991
0.933840 0.752975 0.281919
0.156822 0.632472 0.153539
0.156826 0.632493 0.153550
0.156776 0.632270 0.153492
0.156659 0.631821 0.153382
0.156531 0.631217 0.153245
0.255480 0.630732 0.154909
0.309200 0.629997 0.156134
0.354568 0.629315 0.157410
0.553418 0.744164 0.198842
0.687321 0.799868 0.270449
0.729298 0.801462 0.279072
0.769034 0.800309 0.280703
0.808916 0.799396 0.282434
0.849891 0.798554 0.284228
0.891799 0.798010 0.286183
0.935492 0.797592 0.288348
0.165827 0.671494 0.162774
0.165825 0.671484 0.162771
0.165789 0.671268 0.162733
0.165745 0.671028 0.162684
0.165635 0.670581 0.162563
0.215736 0.670290 0.163271
0.289621 0.670136 0.164793
0.341582 0.669765 0.166149
0.456868 0.728106 0.186920
0.672441 0.835484 0.259794
0.723892 0.843664 0.284864
0.765633 0.843904 0.287223
0.807813 0.844421 0.289220
0.850939 0.844891 0.291254
0.895147 0.846207 0.293552
0.941704 0.848229 0.296163
0.175914 0.714839 0.173069
0.175945 0.714973 0.173088
0.175921 0.714887 0.173076
0.175902 0.714847 0.173066
0.175906 0.714874 0.173061
0.175902 0.714845 0.173065
0.264919 0.715049 0.174640
0.328346 0.715481 0.176250
0.402428 0.736367 0.184192
0.657231 0.875889 0.254132
0.721200 0.891910 0.292131
0.765880 0.893940 0.295147
0.810640 0.895945 0.297440
0.856745 0.898752 0.299950
0.904667 0.902357 0.302732
0.954868 0.906752 0.305849
0.187887 0.766071 0.185256
0.187884 0.766063 0.185254
0.187940 0.766284 0.185291
0.187991 0.766674 0.185397
0.188099 0.766969 0.185456
0.188227 0.767552 0.185604
0.230423 0.768566 0.186453
0.316737 0.770076 0.188543
0.374410 0.771792 0.190448
0.641197 0.924717 0.256160
0.723520 0.949570 0.301747
0.771641 0.953454 0.305204
0.820154 0.957879 0.307980
0.869864 0.962724 0.310944
0.921523 0.968556 0.314236
0.975753 0.975649 0.317969
0.106594 0.105002 0.109651
0.133316 0.113576 0.119000
0.191920 0.124188 0.131664
0.284013 0.133289 0.144413
0.385841 0.138172 0.155139
0.458937 0.141291 0.162318
0.515868 0.143691 0.166950
0.563653 0.145586 0.170227
0.604402 0.146814 0.172621
0.643332 0.147372 0.174064
0.680720 0.147032 0.174099
0.716694 0.145615 0.172363
0.751810 0.142982 0.168605
0.786530 0.138970 0.164635
0.820336 0.133002 0.158859
0.855023 0.133009 0.150935
0.114887 0.112662 0.118441
0.139858 0.118759 0.124594
0.200821 0.128995 0.135672
0.293184 0.138046 0.147617
0.393079 0.142611 0.157089
0.462386 0.145838 0.163278
0.517386 0.148444 0.167518
0.564150 0.150373 0.170551
0.604680 0.151510 0.172678
0.643337 0.151914 0.173767
0.680681 0.151432 0.173617
0.716601 0.149896 0.171728
0.751634 0.147172 0.167869
0.786400 0.143167 0.163743
0.820837 0.137622 0.157524
0.854640 0.132991 0.150295
0.135980 0.142156 0.136717
0.153574 0.145069 0.139483
0.216506 0.154732 0.148332
0.316333 0.165103 0.157878
0.410337 0.170167 0.165325
0.478576 0.170417 0.169573
0.533248 0.166708 0.171182
0.572899 0.169910 0.173717
0.609793 0.169461 0.174988
0.647446 0.168544 0.175468
0.683654 0.167026 0.174227
0.717888 0.164687 0.171005
0.750886 0.161104 0.165934
0.785656 0.156972 0.161751
0.819600 0.151519 0.155616
0.853731 0.144605 0.148026
0.158080 0.204074 0.157588
0.169962 0.204521 0.157990
0.208173 0.210073 0.160849
0.327840 0.232792 0.170900
0.431855 0.246637 0.180583
0.499045 0.250950 0.185663
0.548026 0.250357 0.187956
0.591035 0.247130 0.189377
0.628208 0.243142 0.189563
0.663927 0.238906 0.188571
0.698789 0.233923 0.185867
0.733699 0.226358 0.180698
0.767648 0.215536 0.175145
0.800440 0.203223 0.167737
0.831585 0.190653 0.158146
0.864546 0.174798 0.147040
0.172016 0.280795 0.166845
0.182267 0.280750 0.166931
0.210274 0.280988 0.167280
0.279375 0.300440 0.174021
0.438021 0.337317 0.193752
0.516394 0.346593 0.200554
0.570728 0.347320 0.202717
0.614722 0.343994 0.203104
0.652095 0.339767 0.202385
0.687005 0.334906 0.200613
0.721628 0.328662 0.197683
0.755453 0.320686 0.193214
0.787979 0.310832 0.187052
0.819544 0.298989 0.178884
0.850728 0.283895 0.167515
0.882560 0.266486 0.150100
0.183784 0.346865 0.172379
0.193310 0.346649 0.172313
0.219908 0.346186 0.172217
0.254846 0.346857 0.172309
0.403819 0.398183 0.194444
0.524539 0.429285 0.209036
0.590916 0.434469 0.213068
0.638310 0.430951 0.213405
0.677190 0.426278 0.212176
0.711896 0.420474 0.209648
0.745662 0.413653 0.205934
0.778481 0.405049 0.200541
0.810343 0.394674 0.193225
0.841760 0.383315 0.183222
0.873282 0.371058 0.168042
0.904999 0.357627 0.155546
0.187503 0.402830 0.174296
0.196859 0.402476 0.174190
0.222904 0.401610 0.173891
0.256755 0.400423 0.173398
0.295132 0.405570 0.174105
0.500596 0.490320 0.209684
0.597049 0.511541 0.220927
0.652085 0.511443 0.222617
0.693629 0.505722 0.220760
0.729249 0.499326 0.217536
0.763180 0.492275 0.212600
0.797128 0.484454 0.205833
0.830845 0.475970 0.196321
0.864804 0.467137 0.180768
0.898693 0.457512 0.171243
0.931171 0.444356 0.172004
0.181679 0.452782 0.172407
0.192058 0.452480 0.172271
0.219670 0.451517 0.171849
0.254313 0.450236 0.171142
0.290914 0.448400 0.170077
0.400014 0.494371 0.186676
0.574841 0.572513 0.220796
0.650721 0.590612 0.257080
0.689163 0.589559 0.260437
0.725266 0.583493 0.251016
0.761405 0.576217 0.237963
0.797814 0.568192 0.221369
0.834332 0.561251 0.196712
0.871234 0.550280 0.194048
0.908793 0.538602 0.191634
0.945403 0.526334 0.190796
0.152587 0.493906 0.165042
0.171665 0.493579 0.164907
0.207146 0.492839 0.164438
0.245454 0.491776 0.163574
0.283853 0.490437 0.162235
0.322342 0.491100 0.160895
0.495093 0.583226 0.195321
0.638808 0.643921 0.258191
0.683279 0.655041 0.286357
0.719314 0.652255 0.271283
0.755068 0.647647 0.246621
0.790834 0.641576 0.243941
0.826869 0.635120 0.241427
0.863519 0.628344 0.239158
0.900687 0.619593 0.235702
0.938952 0.609611 0.231809
0.140601 0.529031 0.150602
0.140581 0.528928 0.150340
0.177150 0.528586 0.149752
0.228525 0.527870 0.148573
0.271590 0.526898 0.146527
0.311637 0.525469 0.143034
0.382069 0.552689 0.145224
0.591889 0.665250 0.194994
0.676182 0.693609 0.256618
0.713472 0.692335 0.261342
0.749674 0.689374 0.262433
0.786197 0.686071 0.263438
0.822732 0.682359 0.264358
0.860252 0.678382 0.265036
0.897665 0.674197 0.265992
0.936501 0.669955 0.267254
0.144229 0.562437 0.140582
0.144218 0.562326 0.140572
0.144158 0.561968 0.140514
0.197196 0.561424 0.140956
0.252894 0.560601 0.141624
0.297692 0.559430 0.142271
0.338494 0.557981 0.142985
0.502416 0.652676 0.175531
0.664887 0.725051 0.252611
0.705850 0.727932 0.266668
0.742869 0.725756 0.268581
0.780099 0.723184 0.269966
0.817632 0.720219 0.271243
0.855868 0.717177 0.272608
0.894825 0.714159 0.274139
0.934819 0.710996 0.275830
0.149515 0.596515 0.146031
0.149520 0.596538 0.146040
0.149445 0.596176 0.145971
0.149351 0.595658 0.145882
0.224183 0.595047 0.146787
0.279643 0.594091 0.147695
0.324951 0.593014 0.148643
0.393104 0.615153 0.156854
0.620427 0.741621 0.215574
0.697050 0.763438 0.269634
0.735743 0.762547 0.273597
0.774138 0.760765 0.275150
0.812715 0.758588 0.276659
0.851982 0.756709 0.278259
0.892294 0.754766 0.279994
0.933780 0.752809 0.281887
0.156825 0.632487 0.153542
0.156820 0.632463 0.153538
0.156738 0.632081 0.153456
0.156651 0.631749 0.153374
0.156505 0.631118 0.153216
0.255147 0.630687 0.154889
0.309017 0.629835 0.156102
0.354446 0.629179 0.157378
0.552622 0.743772 0.198678
0.687264 0.799780 0.270313
0.729258 0.801338 0.279056
0.768929 0.800291 0.280693
0.808899 0.799378 0.282430
0.849873 0.798460 0.284217
0.891871 0.797917 0.286171
0.935495 0.797547 0.288343
0.165821 0.671463 0.162767
0.165815 0.671401 0.162754
0.165788 0.671263 0.162732
0.165722 0.670955 0.162665
0.165640 0.670635 0.162574
0.215269 0.670206 0.163246
0.289407 0.670099 0.164786
0.341436 0.669651 0.166130
0.456327 0.727979 0.186814
0.672398 0.835422 0.259704
0.723826 0.843621 0.284853
0.765589 0.843935 0.287218
0.807772 0.844415 0.289218
0.850960 0.844991 0.291262
0.895143 0.846257 0.293558
0.941868 0.848260 0.296179
0.175944 0.714969 0.173087
0.175919 0.714947 0.173084
0.175917 0.714857 0.173071
0.175920 0.714881 0.173075
0.175904 0.714863 0.173059
0.175903 0.714849 0.173066
0.264695 0.715067 0.174637
0.328168 0.715534 0.176253
0.402124 0.736225 0.184112
0.657104 0.875865 0.254052
0.721170 0.892020 0.292140
0.765879 0.893981 0.295152
0.810725 0.896036 0.297481
0.856812 0.898904 0.299992
0.904658 0.902361 0.302733
0.955020 0.906868 0.305884
0.187893 0.766092 0.185262
0.187880 0.766102 0.185265
0.187939 0.766282 0.185291
0.187971 0.766605 0.185376
0.188123 0.767106 0.185496
0.188263 0.767676 0.185618
0.230062 0.768741 0.186485
0.316602 0.770140 0.188557
0.374414 0.771877 0.190444
0.641128 0.924810 0.256141
0.723455 0.949774 0.301787
0.771711 0.953668 0.305232
0.820174 0.957871 0.307980
0.869925 0.962984 0.311004
0.921555 0.968905 0.314308
0.975676 0.975613 0.317975
0.112005 0.109085 0.126742
0.135095 0.115152 0.133744
0.192596 0.124922 0.146949
0.283874 0.133567 0.163585
0.383699 0.138422 0.178446
0.457426 0.141574 0.190165
0.514085 0.143993 0.200839
0.561054 0.145906 0.209411
0.601613 0.147122 0.214033
0.640447 0.147622 0.216217
0.677818 0.147219 0.216406
0.713751 0.145741 0.214703
0.748924 0.143041 0.211058
0.783350 0.138893 0.205972
0.816781 0.132581 0.203023
0.851099 0.132964 0.193453
0.118712 0.115817 0.136101
0.139416 0.120111 0.140777
0.197896 0.128996 0.152098
0.290132 0.137304 0.167192
0.387147 0.142269 0.180548
0.459166 0.146023 0.191244
0.515182 0.148722 0.201145
0.561547 0.150676 0.209262
0.601876 0.151802 0.213531
0.640446 0.152169 0.215444
0.677669 0.151626 0.215442
0.713500 0.150032 0.213601
0.748576 0.147228 0.209695
0.783201 0.143088 0.204114
0.817029 0.137369 0.197554
0.850738 0.132953 0.192592
0.137522 0.139529 0.156812
0.152531 0.141593 0.159746
0.209617 0.149337 0.170372
0.308435 0.157676 0.182709
0.401590 0.160995 0.192162
0.469053 0.162499 0.198230
0.519247 0.165234 0.203580
0.565295 0.166911 0.211024
0.603667 0.167512 0.213406
0.640865 0.167304 0.213643
0.677124 0.166250 0.212485
0.712671 0.164257 0.210010
0.747503 0.161151 0.205678
0.782021 0.156865 0.199371
0.816216 0.151282 0.191339
0.850787 0.144267 0.181547
0.159091 0.200965 0.188117
0.170861 0.201330 0.188504
0.205668 0.205064 0.191989
0.317418 0.224155 0.207213
0.420797 0.234720 0.217804
0.487872 0.237363 0.224873
0.538608 0.235103 0.230012
0.581151 0.230084 0.233369
0.618285 0.224417 0.233691
0.654454 0.219207 0.232147
0.689369 0.214301 0.229369
0.723233 0.208851 0.222974
0.756511 0.201121 0.213781
0.790904 0.189036 0.203199
0.825348 0.175754 0.192123
0.853028 0.168600 0.176341
0.172891 0.278307 0.208236
0.183064 0.278218 0.208214
0.210967 0.278378 0.208504
0.260668 0.293595 0.213195
0.427962 0.330945 0.227542
0.507648 0.340174 0.233801
0.562296 0.339159 0.239075
0.604895 0.333591 0.243023
0.640869 0.327758 0.244455
0.675510 0.321819 0.243351
0.710642 0.315514 0.239695
0.745436 0.308137 0.233375
0.779263 0.299095 0.224250
0.811935 0.288207 0.212810
0.844374 0.274216 0.202070
0.876852 0.257589 0.186760
0.184611 0.345475 0.211835
0.194097 0.345248 0.211575
0.220596 0.344707 0.211109
0.255280 0.344581 0.210906
0.391732 0.398841 0.224906
0.521607 0.435071 0.241405
0.591485 0.441364 0.246089
0.639880 0.437989 0.246168
0.678918 0.432672 0.243905
0.712168 0.424682 0.241372
0.745025 0.416148 0.238166
0.777742 0.407260 0.233484
0.811387 0.398738 0.226404
0.842818 0.386442 0.218465
0.873329 0.371926 0.208611
0.903192 0.355053 0.196162
0.187606 0.402948 0.201952
0.196947 0.402732 0.201776
0.223026 0.402066 0.201234
0.256907 0.400880 0.200372
0.294575 0.403776 0.200127
0.496046 0.493178 0.239615
0.597306 0.517120 0.252575
0.653903 0.517630 0.254710
0.693820 0.511810 0.256135
0.729806 0.504316 0.251525
0.764178 0.495704 0.245547
0.798125 0.486654 0.239328
0.830368 0.475700 0.231988
0.862339 0.463107 0.222809
0.895050 0.451599 0.212062
0.928373 0.439501 0.197784
0.180900 0.451542 0.198160
0.191345 0.451189 0.197985
0.219068 0.450354 0.197571
0.253772 0.448935 0.196851
0.290410 0.447231 0.195816
0.394363 0.489808 0.213716
0.572099 0.569310 0.249929
0.650035 0.587813 0.286333
