tools/decompiled/jadx/resources/res/raw/classic.cube
LUT_3D_SIZE 6
0.101970 0.101530 0.101530
0.284650 0.133668 0.133372
0.515143 0.143505 0.146400
0.644296 0.147327 0.151070
0.753375 0.143129 0.146571
0.854902 0.132970 0.133582
0.157263 0.204322 0.137771
0.332296 0.234319 0.149085
0.550359 0.253848 0.162468
0.669136 0.246935 0.163436
0.772404 0.225969 0.151778
0.870176 0.177798 0.135629
0.187825 0.403724 0.152992
0.257099 0.401365 0.152209
0.598778 0.514312 0.192860
0.729990 0.502671 0.186638
0.833186 0.480210 0.169587
0.931520 0.444747 0.172107
0.140580 0.529199 0.136829
0.228899 0.528086 0.137417
0.382453 0.553173 0.145328
0.713632 0.692445 0.261386
0.822932 0.682614 0.264394
0.936694 0.670102 0.267296
0.156828 0.632506 0.153553
0.156683 0.631870 0.153398
0.309214 0.629995 0.156141
0.687428 0.799946 0.270507
0.808953 0.799436 0.282443
0.935511 0.797603 0.288349
0.187881 0.766049 0.185250
0.187988 0.766661 0.185393
0.230525 0.768629 0.186474
0.641280 0.924682 0.256155
0.820064 0.957683 0.307954
0.975614 0.975546 0.317949
0.112005 0.109085 0.126742
0.283874 0.133567 0.163585
0.514085 0.143993 0.200839
0.640447 0.147622 0.216217
0.748924 0.143041 0.211058
0.851099 0.132964 0.193453
0.159091 0.200965 0.188117
0.317418 0.224155 0.207213
0.538608 0.235103 0.230012
0.654454 0.219207 0.232147
0.756511 0.201121 0.213781
0.853028 0.168600 0.176341
0.187606 0.402948 0.201952
0.256907 0.400880 0.200372
0.597306 0.517120 0.252575
0.729806 0.504316 0.251525
0.830368 0.475700 0.231988
0.928373 0.439501 0.197784
0.140634 0.528768 0.180420
0.228044 0.527652 0.179045
0.373150 0.547004 0.182046
0.713126 0.691974 0.313873
0.822556 0.682163 0.264254
0.936372 0.669621 0.267172
0.156792 0.632329 0.153510
0.156619 0.631598 0.153340
0.308669 0.629751 0.156070
0.687009 0.799754 0.270106
0.808831 0.799286 0.282401
0.935515 0.797750 0.288365
0.187910 0.766203 0.185276
0.188009 0.766631 0.185415
0.229438 0.768726 0.186480
0.640985 0.924927 0.256114
0.820308 0.958136 0.308039
0.975981 0.975923 0.318054
0.136660 0.125257 0.253981
0.276172 0.136707 0.305695
0.509578 0.145737 0.374482
0.634744 0.148409 0.386761
0.741982 0.142632 0.377777
0.843529 0.133313 0.365601
0.164117 0.178302 0.297864
0.278752 0.181772 0.326299
0.511372 0.192254 0.375857
0.632330 0.191950 0.379678
0.737815 0.183391 0.367044
0.840665 0.165795 0.346774
0.187813 0.390467 0.397628
0.257098 0.387961 0.394119
0.544661 0.472098 0.456011
0.692353 0.455287 0.457112
0.792373 0.429913 0.434076
0.890419 0.395223 0.400643
0.143483 0.525818 0.370894
0.228488 0.524079 0.361594
0.354274 0.528377 0.355273
0.714722 0.693644 0.474432
0.824262 0.683585 0.459087
0.938093 0.670874 0.435963
0.157963 0.631188 0.274977
0.157723 0.630564 0.271057
0.307486 0.630786 0.247896
0.683117 0.797279 0.399746
0.808599 0.798938 0.403253
0.935901 0.797533 0.377898
0.188133 0.766800 0.205863
0.188262 0.767296 0.204417
0.225415 0.769466 0.199595
0.640341 0.925531 0.255968
0.821054 0.959268 0.308256
0.977768 0.977697 0.318406
0.159260 0.137942 0.449143
0.253263 0.141210 0.475968
0.507506 0.147998 0.552048
0.629782 0.148771 0.556214
0.735600 0.140952 0.543456
0.837592 0.134125 0.527293
0.172794 0.183352 0.467644
0.249259 0.184512 0.471519
0.505142 0.193706 0.549673
0.626626 0.192241 0.550579
0.731282 0.182611 0.536487
0.833811 0.163937 0.518974
0.178844 0.361642 0.556121
0.248068 0.356776 0.551123
0.498508 0.393628 0.607672
0.641063 0.362554 0.600705
0.739183 0.322474 0.567563
0.834388 0.274714 0.523851
0.145117 0.518139 0.561116
0.223720 0.515762 0.556124
0.350016 0.510803 0.548674
0.687793 0.655426 0.657459
0.811600 0.639925 0.648102
0.923792 0.618166 0.627912
0.163485 0.629336 0.522751
0.163321 0.628701 0.521439
0.310496 0.627263 0.509846
0.602890 0.774749 0.596429
0.812613 0.803412 0.627432
0.941162 0.802587 0.618651
0.193378 0.767567 0.487394
0.193531 0.768237 0.486823
0.223613 0.770856 0.481128
0.514176 0.877267 0.534077
0.827388 0.966955 0.614355
0.985409 0.985400 0.625598
0.173000 0.143985 0.610333
0.251134 0.144789 0.626379
0.507696 0.148867 0.696030
0.626307 0.147129 0.693384
0.730902 0.136431 0.677613
0.833501 0.135255 0.659709
0.178290 0.185609 0.613536
0.251431 0.185604 0.617154
0.502151 0.192653 0.690089
0.622555 0.189683 0.687986
0.726517 0.178723 0.672589
0.829657 0.158733 0.655643
0.168465 0.342232 0.682019
0.240020 0.334077 0.673859
0.478041 0.343229 0.715896
0.622740 0.294420 0.693202
0.719317 0.272337 0.664893
0.819040 0.254648 0.642909
0.145688 0.510294 0.700896
0.211758 0.506835 0.697854
0.344327 0.499889 0.691382
0.664614 0.617446 0.803595
0.787715 0.593864 0.796629
0.896654 0.567039 0.782370
0.166204 0.625864 0.680440
0.166059 0.625225 0.679934
0.306451 0.623353 0.676939
0.558306 0.744702 0.769859
0.806421 0.797265 0.801703
0.940341 0.797850 0.802007
0.197075 0.768384 0.677564
0.197282 0.769202 0.677885
0.208244 0.771876 0.679240
0.470933 0.837669 0.727882
0.827186 0.971601 0.821586
0.990154 0.990020 0.835676
0.178847 0.145952 0.753813
0.259751 0.145568 0.770658
0.505063 0.147693 0.829387
0.621218 0.143250 0.822939
0.725068 0.133033 0.805601
0.828530 0.136919 0.787942
0.178431 0.184707 0.749280
0.248817 0.184056 0.750039
0.497849 0.189520 0.820470
0.617366 0.185119 0.816667
0.721095 0.172611 0.800591
0.825257 0.150694 0.784324
0.152489 0.331837 0.805971
0.232281 0.320526 0.794408
0.466737 0.318451 0.829379
0.611820 0.279014 0.807601
0.710148 0.265633 0.786467
0.815603 0.249318 0.773534
0.147148 0.504151 0.829203
0.191995 0.500735 0.826198
0.338151 0.493079 0.819749
0.655428 0.602871 0.928867
0.779924 0.578100 0.922501
0.889436 0.550796 0.909210
0.169244 0.623463 0.815938
0.169116 0.622939 0.815616
0.299830 0.621162 0.814479
0.542840 0.734105 0.902676
0.803164 0.792426 0.938501
0.939574 0.794536 0.943906
0.201201 0.772211 0.829512
0.201382 0.772922 0.830515
0.202209 0.776215 0.833676
0.467879 0.838582 0.881936
0.829628 0.977455 0.977705
0.993257 0.995146 0.995087
