tools/decompiled/jadx/resources/res/raw/dreams.cube
LUT_3D_SIZE 16
0.117538 0.121520 0.332153
0.120487 0.124302 0.349209
0.127285 0.130171 0.375479
0.137852 0.138636 0.409714
0.152715 0.149377 0.450823
0.172200 0.162122 0.497659
0.196736 0.176644 0.549022
0.226737 0.192928 0.603672
0.262564 0.210918 0.660381
0.303157 0.229957 0.717140
0.348206 0.249720 0.772655
0.397296 0.269926 0.825766
0.449047 0.290216 0.875438
0.502484 0.310272 0.920952
0.556202 0.329859 0.961758
0.609418 0.348588 0.997532
0.122670 0.131306 0.367572
0.128064 0.136594 0.388404
0.137414 0.144965 0.417849
0.150687 0.155947 0.454628
0.168374 0.169248 0.497592
0.190792 0.184621 0.545624
0.218348 0.201863 0.597477
0.251385 0.220968 0.651918
0.290200 0.241820 0.707791
0.333640 0.263732 0.763178
0.381293 0.286333 0.816879
0.432569 0.309316 0.867769
0.486123 0.332265 0.915077
0.540866 0.354842 0.958008
0.595460 0.376743 0.996177
0.648916 0.397558 1.029372
0.134877 0.152326 0.422844
0.142826 0.160137 0.446682
0.154877 0.171058 0.478385
0.171066 0.184633 0.516670
0.191828 0.200628 0.560412
0.217479 0.218812 0.608446
0.248356 0.238994 0.659599
0.284748 0.261129 0.712641
0.326813 0.285087 0.766560
0.373341 0.310096 0.819429
0.423740 0.335757 0.870225
0.477338 0.361730 0.917929
0.532702 0.387501 0.961798
0.588773 0.412733 1.001365
0.644163 0.437049 1.036161
0.697921 0.460073 1.066009
0.153006 0.184277 0.493387
0.163650 0.194669 0.519355
0.178623 0.208233 0.552335
0.197995 0.224577 0.591094
0.222143 0.243454 0.634519
0.251364 0.264662 0.681463
0.285866 0.288000 0.730856
0.325868 0.313395 0.781488
0.371430 0.340692 0.832410
0.421200 0.369029 0.881860
0.474488 0.397920 0.928857
0.530427 0.426998 0.972660
0.587595 0.455747 1.012455
0.644874 0.483747 1.048037
0.701034 0.510540 1.078938
0.754812 0.535725 1.105004
0.176283 0.227343 0.574689
0.189853 0.240402 0.601861
0.208021 0.256758 0.635193
0.230875 0.276022 0.673460
0.258709 0.297962 0.715577
0.291766 0.322391 0.760521
0.330188 0.349072 0.807194
0.374045 0.377922 0.854552
0.423295 0.408746 0.901697
0.476410 0.440552 0.946999
0.532585 0.472799 0.989565
0.590816 0.505112 1.028859
0.649834 0.536877 1.064203
0.708233 0.567657 1.095300
0.766912 0.602676 1.117451
0.823702 0.642605 1.132179
0.204646 0.281869 0.662280
0.221307 0.297697 0.689850
0.242863 0.316929 0.722613
0.269405 0.339243 0.759552
0.301184 0.364384 0.799572
0.338297 0.392174 0.841658
0.380817 0.422345 0.884929
0.428675 0.454733 0.928337
0.481658 0.489120 0.971163
0.538092 0.524359 1.011809
0.597181 0.559994 1.049694
0.657656 0.595418 1.084154
0.719768 0.632656 1.112448
0.785234 0.677867 1.130531
0.846242 0.721050 1.147781
0.901845 0.761556 1.163881
0.237739 0.348080 0.752222
0.257648 0.366716 0.779369
0.282814 0.388914 0.810860
0.313273 0.414343 0.845711
0.349166 0.442762 0.882953
0.390535 0.473919 0.921614
0.437281 0.507549 0.960951
0.489198 0.543379 0.999937
0.545927 0.581227 1.038111
0.605672 0.619818 1.073998
0.667971 0.659113 1.106329
0.739334 0.708094 1.126773
0.808182 0.756061 1.147058
0.873166 0.802204 1.166807
0.930879 0.841531 1.185579
0.983379 0.876665 1.203366
0.275387 0.426359 0.840997
0.298738 0.447694 0.867053
0.327711 0.472775 0.896641
0.362274 0.501204 0.928777
0.402452 0.532726 0.962740
0.448138 0.567155 0.997550
0.499139 0.604028 1.032652
0.555100 0.643132 1.067178
0.615436 0.684034 1.100561
0.689365 0.734577 1.122588
0.763053 0.785432 1.144657
0.834899 0.835626 1.166965
0.900006 0.879612 1.188885
0.960060 0.919446 1.209879
1.016536 0.957457 1.229944
1.068899 0.993348 1.249069
0.317663 0.515664 0.925677
0.344663 0.539660 0.950083
0.377584 0.567442 0.977241
0.416379 0.598698 1.006334
0.460843 0.633222 1.036737
0.510843 0.670503 1.067545
0.566026 0.710362 1.098306
0.638610 0.759587 1.119595
0.714346 0.811281 1.142277
0.790144 0.863402 1.165886
0.860382 0.910545 1.189770
0.926194 0.953911 1.213244
0.989670 0.996155 1.236384
1.049941 1.036802 1.258834
1.106340 1.075443 1.280521
1.158414 1.111856 1.301258
0.351281 0.594584 0.985434
0.381308 0.620634 1.007739
0.417355 0.650503 1.032171
0.459379 0.683854 1.058112
0.507121 0.720241 1.084910
0.575298 0.765606 1.103101
0.647274 0.813690 1.123684
0.722036 0.863965 1.146640
0.794150 0.911697 1.171410
0.862763 0.956360 1.196494
0.930465 1.000669 1.221759
0.996439 1.044246 1.246967
1.059785 1.086534 1.271802
1.119806 1.127092 1.296185
1.175789 1.165633 1.319777
1.227228 1.201779 1.342628
0.382802 0.672434 1.029439
0.415566 0.700095 1.049343
0.456530 0.732088 1.069868
0.517329 0.771441 1.084555
0.583100 0.814161 1.102228
0.652952 0.859729 1.122680
0.721795 0.904183 1.145737
0.789141 0.947289 1.170441
0.858240 0.991720 1.196769
0.926967 1.036177 1.223788
0.994573 1.080179 1.250956
1.060196 1.123235 1.278289
1.123060 1.165024 1.305377
1.182441 1.205085 1.331899
1.237789 1.243083 1.357761
1.288529 1.278805 1.382739
0.417496 0.746628 1.052770
0.468547 0.778481 1.063646
0.525643 0.814178 1.077667
0.587912 0.853351 1.094781
0.651187 0.893092 1.115102
0.714036 0.932268 1.137890
0.779318 0.973205 1.162754
0.846625 1.015605 1.189502
0.915394 1.059308 1.218067
0.983599 1.102869 1.247339
1.050514 1.145959 1.276937
1.115379 1.188149 1.306776
1.177475 1.228942 1.336264
1.236074 1.268101 1.365296
1.290559 1.305287 1.393597
1.340584 1.340221 1.420939
0.478675 0.815098 1.050404
0.531307 0.846649 1.063546
0.587008 0.880257 1.080368
0.643476 0.914501 1.100252
0.703110 0.950865 1.122773
0.765384 0.988996 1.147689
0.829933 1.028826 1.174915
0.896314 1.069937 1.204206
0.964085 1.112274 1.235326
1.031177 1.154439 1.267241
1.097032 1.196080 1.299607
1.160881 1.236955 1.332093
1.221943 1.276532 1.364318
1.279512 1.314505 1.396003
1.333086 1.350546 1.426847
1.382260 1.384475 1.456606
0.532316 0.867297 1.043205
0.581846 0.896189 1.059745
0.634502 0.927231 1.079067
0.690171 0.960225 1.101242
0.748654 0.995223 1.126159
0.809629 1.031827 1.153573
0.872745 1.069922 1.183451
0.937574 1.109421 1.215524
1.003823 1.149928 1.249494
1.069449 1.190443 1.284256
1.133898 1.230448 1.319545
1.196374 1.269725 1.354807
1.256291 1.307886 1.389775
1.312796 1.344469 1.424102
1.365439 1.379396 1.457408
1.413799 1.412267 1.489546
0.576967 0.904217 1.034688
0.625538 0.931918 1.053347
0.676938 0.961510 1.075086
0.731091 0.992994 1.099713
0.787848 1.026262 1.127321
0.846940 1.061109 1.157506
0.908090 1.097276 1.190189
0.971018 1.134902 1.225082
1.035410 1.173530 1.261970
1.099264 1.212206 1.299694
1.162066 1.250560 1.337830
1.223213 1.288276 1.375797
1.281834 1.325047 1.413441
1.337365 1.360472 1.450180
1.389106 1.394205 1.485787
1.436589 1.426102 1.520059
0.617844 0.929937 1.026361
0.665097 0.956336 1.047260
0.714821 0.984526 1.071489
0.767052 1.014339 1.098723
0.821711 1.045819 1.129020
0.878621 1.078862 1.162082
0.937571 1.113339 1.197657
0.998351 1.149018 1.235411
1.060675 1.185910 1.275080
1.122743 1.222972 1.315590
1.184018 1.259773 1.356294
1.243790 1.296091 1.396773
1.301308 1.331602 1.436675
1.355850 1.365892 1.475599
1.406742 1.398696 1.513242
1.453462 1.429664 1.549408
0.229847 0.335460 0.568598
0.244183 0.344994 0.583455
0.264211 0.358729 0.606566
0.289618 0.376090 0.636654
0.320262 0.396644 0.672667
0.355962 0.419967 0.713521
0.396580 0.445682 0.758177
0.441953 0.473459 0.805587
0.491925 0.503010 0.854800
0.544746 0.533105 0.903957
0.599913 0.563293 0.952081
0.656671 0.593138 0.998276
0.714075 0.622149 1.041682
0.771181 0.649868 1.081679
0.827108 0.675864 1.117718
0.881087 0.699819 1.149460
0.219174 0.309917 0.554888
0.233728 0.320520 0.573888
0.253668 0.335070 0.600704
0.278777 0.353017 0.634043
0.309008 0.373989 0.672817
0.344261 0.397606 0.715934
0.384483 0.423561 0.762280
0.429606 0.451585 0.810818
0.479498 0.481425 0.860565
0.532456 0.511895 0.909767
0.587903 0.542559 0.957380
0.645045 0.573005 1.002631
0.702812 0.602676 1.044707
0.760331 0.631163 1.083079
0.816473 0.658011 1.117219
0.870307 0.682862 1.146907
0.213454 0.293469 0.562337
0.228360 0.305256 0.584671
0.248430 0.320779 0.614230
0.273533 0.339531 0.649737
0.303712 0.361218 0.690073
0.338978 0.385506 0.734136
0.379325 0.412129 0.780856
0.424689 0.440860 0.829167
0.474952 0.471414 0.878128
0.528488 0.502754 0.925994
0.584589 0.534326 0.971839
0.642406 0.565770 1.014922
0.700774 0.596465 1.054565
0.758751 0.626035 1.090259
0.815059 0.653954 1.121593
0.868869 0.679861 1.148527
0.213046 0.288752 0.588850
0.228612 0.301945 0.613582
0.249234 0.318746 0.644838
0.274873 0.338699 0.681341
0.305628 0.361550 0.722034
0.341562 0.387003 0.765801
0.382700 0.414824 0.811591
0.428935 0.444775 0.858404
0.480182 0.476639 0.905316
0.534771 0.509317 0.950698
0.591905 0.542295 0.993758
0.650645 0.575125 1.033714
0.709707 0.607202 1.070025
0.768197 0.638136 1.102280
0.824725 0.667371 1.130257
0.878364 0.694505 1.153818
0.218149 0.298254 0.631736
0.234958 0.313158 0.657847
0.256812 0.331612 0.689662
0.283735 0.353214 0.726023
0.315867 0.377727 0.765896
0.353253 0.404871 0.808206
0.395894 0.434395 0.851960
0.443745 0.466143 0.896197
0.496569 0.499821 0.940075
0.552652 0.534325 0.982064
0.611149 0.569099 1.021423
0.671048 0.603711 1.057509
0.731076 0.637542 1.089885
0.789970 0.670063 1.118227
0.848254 0.705354 1.139282
0.904626 0.745925 1.153013
0.229968 0.323871 0.687049
0.248520 0.340788 0.713545
0.272213 0.361234 0.744987
0.301104 0.384878 0.780251
0.335293 0.411462 0.818297
0.374847 0.440746 0.858192
0.419696 0.472467 0.898981
0.469730 0.506437 0.939779
0.524639 0.542315 0.979914
0.582656 0.579003 1.017816
0.642802 0.615879 1.052935
0.703994 0.652508 1.084676
0.765941 0.689946 1.111462
0.831282 0.735574 1.128667
0.891916 0.779055 1.145156
0.946786 0.819173 1.160703
0.248757 0.366372 0.750662
0.269567 0.385518 0.776777
0.295654 0.408274 0.806966
0.327150 0.434279 0.840227
0.364049 0.463282 0.875725
0.406402 0.495033 0.912427
0.454055 0.529178 0.949594
0.506762 0.565590 0.986418
0.564145 0.603898 1.022215
0.624247 0.642964 1.055660
0.686259 0.681977 1.086273
0.757533 0.731007 1.106066
0.826003 0.778836 1.125735
0.890308 0.824409 1.144974
0.946438 0.861411 1.163794
0.998742 0.896468 1.181541
0.274455 0.425950 0.818508
0.297989 0.447416 0.843478
0.327016 0.472552 0.871694
0.361649 0.501003 0.902406
0.401794 0.532483 0.934664
0.447478 0.566818 0.967748
0.498328 0.603538 1.000866
0.554009 0.642408 1.033297
0.614080 0.683181 1.064709
0.686853 0.732727 1.086554
0.760019 0.783000 1.108314
0.831095 0.832418 1.130241
0.893590 0.873110 1.152096
0.953324 0.912482 1.173172
1.009495 0.950051 1.193443
1.061661 0.985544 1.212805
0.316287 0.514869 0.899292
0.343437 0.538935 0.922555
0.376447 0.566811 0.948334
0.415264 0.598086 0.975954
0.459782 0.632549 1.004665
0.509662 0.669711 1.033673
0.564642 0.709390 1.062534
0.636198 0.757840 1.083719
0.711464 0.809071 1.106049
0.786681 0.860608 1.129501
0.853733 0.904267 1.153250
0.919205 0.947186 1.176920
0.982356 0.988943 1.200163
1.042367 1.029131 1.222953
1.098542 1.067406 1.244887
1.150378 1.103366 1.266062
0.349598 0.593389 0.955608
0.379744 0.619553 0.976697
0.415909 0.649400 0.999720
0.457951 0.682799 1.024075
0.505693 0.719152 1.049181
0.572663 0.763873 1.067440
0.644329 0.811575 1.087812
0.718690 0.861385 1.110533
0.787401 0.905876 1.135249
0.855679 0.950061 1.160396
0.923057 0.993901 1.185898
0.988689 1.036968 1.211327
1.051769 1.078793 1.236492
1.111491 1.118937 1.261196
1.167200 1.157097 1.285250
1.218516 1.192864 1.308464
0.380820 0.670712 0.996292
0.413683 0.698511 1.014935
0.453359 0.730174 1.034770
0.514156 0.769383 1.049076
0.579740 0.811854 1.066567
0.649358 0.857115 1.086843
0.714943 0.898775 1.109868
0.781970 0.941451 1.134742
0.850716 0.985429 1.161240
0.919120 1.029429 1.188408
0.986400 1.072956 1.216024
1.051765 1.115624 1.243598
1.114363 1.156960 1.271073
1.173517 1.196597 1.298067
1.228637 1.234201 1.324356
1.279220 1.269520 1.349930
0.413081 0.744008 1.018019
0.464260 0.775819 1.028530
0.521408 0.811453 1.042300
0.583606 0.850483 1.059306
0.644165 0.887977 1.079806
0.706726 0.926844 1.102595
0.771764 0.967397 1.127694
0.838760 1.009399 1.154625
0.907210 1.052619 1.183459
0.975113 1.095767 1.213034
1.041771 1.138401 1.243066
1.106374 1.180172 1.273157
1.168237 1.220608 1.303193
1.226599 1.259438 1.332681
1.280956 1.296225 1.361432
1.330791 1.330772 1.389262
0.473216 0.811678 1.015423
0.526011 0.843196 1.028453
0.579815 0.875515 1.045625
0.636154 0.909478 1.065724
0.695511 0.945482 1.088390
0.757540 0.983317 1.113500
0.821829 1.022727 1.140939
0.887930 1.063528 1.170452
0.955416 1.105375 1.201882
1.022225 1.147190 1.234174
1.087822 1.188462 1.266910
1.151407 1.228904 1.299839
1.212257 1.268151 1.332497
1.269625 1.305686 1.364624
1.323040 1.341450 1.395918
1.372118 1.375064 1.426164
0.525067 0.862783 1.009280
0.574395 0.891412 1.025959
0.626903 0.922212 1.045493
0.682319 0.954984 1.067918
0.740601 0.989571 1.093058
0.801356 1.025914 1.120764
0.864222 1.063698 1.150867
0.928847 1.102826 1.183092
0.994802 1.143021 1.217384
1.060189 1.183116 1.252454
1.124363 1.222773 1.288063
1.186690 1.261717 1.323743
1.246336 1.299532 1.359107
1.302721 1.335849 1.393801
1.355210 1.370433 1.427531
1.403392 1.403051 1.460142
0.569320 0.899646 1.002280
0.617730 0.927070 1.021153
0.668964 0.956432 1.043039
0.722945 0.987617 1.067919
0.779500 1.020642 1.095672
0.838415 1.055140 1.126173
0.899347 1.091095 1.159014
0.962048 1.128323 1.194118
1.026155 1.166729 1.231326
1.089799 1.204987 1.269247
1.152448 1.243077 1.307552
1.213375 1.280456 1.345917
1.271850 1.316905 1.383794
1.327161 1.352054 1.420886
1.378783 1.385551 1.456848
1.426153 1.417146 1.491494
0.609995 0.925289 0.995598
0.657060 0.951468 1.016814
0.706642 0.979428 1.041083
0.758730 1.009028 1.068614
0.813205 1.040344 1.099048
0.869928 1.073087 1.132238
0.928702 1.107206 1.167935
0.989287 1.142663 1.205862
1.051421 1.179258 1.245713
1.113294 1.215943 1.286329
1.174304 1.252503 1.327184
1.233924 1.288570 1.367918
1.291283 1.323741 1.408052
1.345654 1.357815 1.447172
1.396405 1.390293 1.485111
1.443012 1.421068 1.521610
0.226482 0.332906 0.550143
0.240899 0.342491 0.564842
0.260961 0.356238 0.587626
0.286373 0.373583 0.617247
0.316972 0.394087 0.652642
0.352594 0.417330 0.692735
0.393089 0.442932 0.736496
0.438295 0.470574 0.782883
0.488044 0.499949 0.830927
0.540607 0.529857 0.878888
0.595434 0.559847 0.925731
0.651848 0.589490 0.970595
0.708780 0.618252 1.012637
0.765453 0.645753 1.051257
0.820893 0.671528 1.085908
0.874204 0.695276 1.116328
0.216335 0.307812 0.537218
0.230991 0.318492 0.555976
0.250990 0.333077 0.582364
0.276128 0.351025 0.615103
0.306340 0.371977 0.653106
0.341542 0.395538 0.695272
0.381676 0.421403 0.740558
0.426647 0.449314 0.787867
0.476318 0.478987 0.836279
0.529005 0.509280 0.884040
0.584126 0.539749 0.930201
0.640913 0.569964 0.973920
0.698246 0.599398 1.014476
0.755194 0.627658 1.051286
0.810813 0.654274 1.083910
0.864123 0.678867 1.112114
0.211148 0.291790 0.544944
0.226181 0.303675 0.566917
0.246329 0.319254 0.595899
0.271480 0.338039 0.630656
0.301660 0.359714 0.670045
0.336879 0.383963 0.712997
0.377132 0.410506 0.758415
0.422365 0.439118 0.805313
0.472416 0.469558 0.852746
0.525674 0.500689 0.899003
0.581416 0.532045 0.943239
0.638835 0.563250 0.984656
0.696761 0.593714 1.022565
0.754206 0.623040 1.056656
0.809925 0.650673 1.086371
0.863164 0.676373 1.111726
0.211264 0.287465 0.571044
0.226961 0.300766 0.595279
0.247672 0.317632 0.625798
0.273366 0.337625 0.661397
0.304132 0.360484 0.700960
0.340029 0.385904 0.743438
0.381042 0.413642 0.787813
0.427150 0.443487 0.833033
0.478171 0.475196 0.878313
0.532449 0.507671 0.921968
0.589240 0.540428 0.963171
0.647573 0.572993 1.001365
0.706269 0.604821 1.035879
0.764080 0.635484 1.066488
0.820041 0.664410 1.092777
0.873052 0.691315 1.114666
0.216760 0.297271 0.612770
0.233699 0.312282 0.638233
0.255650 0.330816 0.669190
0.282642 0.352456 0.704498
0.314765 0.376987 0.743101
0.352093 0.404095 0.783994
0.394656 0.433546 0.826178
0.442323 0.465155 0.868739
0.494895 0.498656 0.910830
0.550672 0.532955 0.950974
0.608832 0.567463 0.988469
0.668211 0.601781 1.022738
0.727764 0.635347 1.053269
0.786186 0.667588 1.079851
0.843363 0.701307 1.100499
0.899047 0.741231 1.114005
0.228832 0.323078 0.666207
0.247516 0.340092 0.691965
0.271304 0.360641 0.722432
0.300242 0.384317 0.756518
0.334430 0.410909 0.793196
0.373921 0.440155 0.831571
0.418665 0.471785 0.870702
0.468522 0.505602 0.909740
0.523146 0.541283 0.947982
0.580780 0.577697 0.984041
0.640571 0.614285 1.017309
0.701269 0.650602 1.047220
0.762241 0.686854 1.072959
0.826883 0.731917 1.089866
0.886841 0.774719 1.106128
0.940366 0.812069 1.122088
0.247682 0.365596 0.727394
0.268620 0.384883 0.752635
0.294831 0.407723 0.781763
0.326346 0.433759 0.813782
0.363242 0.462741 0.847785
0.405533 0.494423 0.882945
0.453019 0.528502 0.918391
0.505554 0.564764 0.953383
0.562646 0.602851 0.987398
0.622433 0.641567 1.018986
0.684022 0.680300 1.047786
0.754101 0.728161 1.067739
0.821933 0.775372 1.087177
0.883943 0.817659 1.106552
0.939790 0.854233 1.125474
0.991822 0.888912 1.143414
0.273258 0.425057 0.792360
0.296910 0.446653 0.816369
0.326062 0.471861 0.843451
0.360713 0.500343 0.872820
0.400879 0.531801 0.903612
0.446446 0.566082 0.935003
0.497168 0.602605 0.966411
0.552706 0.641326 0.997164
0.612485 0.681836 1.026725
0.684146 0.730444 1.048644
0.756634 0.780154 1.070198
0.824743 0.826070 1.092264
0.886906 0.866292 1.114106
0.946329 0.905196 1.135354
1.002274 0.942336 1.155873
1.054138 0.977471 1.175464
0.314671 0.513609 0.869578
0.341965 0.537835 0.891827
0.375050 0.565742 0.916457
0.413896 0.597054 0.942752
0.458349 0.631345 0.970004
0.508235 0.668453 0.997487
0.563098 0.707956 1.024672
0.633454 0.755732 1.045983
0.708234 0.806478 1.068202
0.780266 0.854705 1.091664
0.846844 0.897712 1.115587
0.911977 0.940142 1.139438
0.974787 0.981419 1.162926
1.034518 1.021171 1.185996
1.090429 1.059016 1.208271
1.142085 1.094603 1.229789
0.347674 0.591785 0.922945
0.377985 0.618044 0.942915
0.414190 0.647960 0.964711
0.456300 0.681374 0.987729
0.503966 0.717687 1.011230
0.569718 0.761732 1.029846
0.641059 0.809109 1.050055
0.712418 0.856136 1.072918
0.780398 0.899727 1.097737
0.848321 0.943472 1.123146
0.915361 0.986836 1.148891
0.980707 1.029431 1.174645
1.043511 1.070797 1.200141
1.102985 1.110573 1.225211
1.158492 1.148257 1.249681
1.209628 1.183751 1.273356
0.378615 0.668741 0.960712
0.411659 0.696611 0.978269
0.450618 0.728097 0.997154
0.510566 0.766968 1.011676
0.576036 0.809216 1.029010
0.643268 0.852421 1.049539
0.707805 0.893075 1.072738
0.774533 0.935327 1.097698
0.842980 0.978863 1.124494
0.911060 1.022391 1.152020
0.978036 1.065453 1.179885
1.043112 1.107661 1.207941
1.105472 1.148575 1.235796
1.164383 1.187901 1.263281
1.219288 1.225103 1.290025
1.269772 1.260077 1.316055
0.408296 0.741065 0.980992
0.459743 0.772879 0.991416
0.516935 0.808407 1.005069
0.577586 0.846088 1.022282
0.636994 0.882658 1.043009
0.699307 0.921170 1.066048
0.763998 0.961354 1.091273
0.830679 1.002882 1.118551
0.898835 1.045739 1.147634
0.966441 1.088437 1.177558
1.032800 1.130634 1.207971
1.097173 1.172017 1.238607
1.158771 1.212087 1.269080
1.216944 1.250486 1.299029
1.271124 1.286966 1.328334
1.320875 1.321225 1.356663
0.467491 0.807995 0.978691
0.519604 0.838892 0.992009
0.572551 0.870460 1.009473
0.628672 0.904185 1.029721
0.687693 0.939833 1.052666
0.749494 0.977349 1.077996
0.813505 1.016422 1.105721
0.879325 1.056821 1.135495
0.946533 1.098353 1.167262
1.013108 1.139652 1.199938
1.078421 1.180566 1.233062
1.141750 1.220618 1.266402
1.202401 1.259488 1.299512
1.259657 1.296791 1.332086
1.312950 1.332281 1.363859
1.361879 1.365617 1.394632
0.517624 0.858050 0.974132
0.566798 0.886514 0.990980
0.619100 0.916962 1.010638
0.674293 0.949525 1.033267
0.732373 0.983821 1.058585
0.792908 1.019848 1.086514
0.855511 1.057332 1.116859
0.919864 1.096007 1.149446
0.985600 1.135884 1.184012
1.050715 1.175645 1.219422
1.114648 1.214969 1.255440
1.176739 1.253567 1.291487
1.236256 1.291030 1.327271
1.292453 1.327125 1.362387
1.344832 1.361433 1.396579
1.392924 1.393781 1.429557
0.561428 0.894753 0.968597
0.609730 0.922059 0.987623
0.660843 0.951162 1.009760
0.714631 0.982124 1.034800
0.770998 1.014826 1.062736
0.829677 1.049014 1.093387
0.890396 1.084699 1.126460
0.952871 1.121622 1.161868
1.016784 1.159641 1.199192
1.080200 1.197648 1.237421
1.142601 1.235408 1.276082
1.203307 1.272512 1.314726
1.261632 1.308608 1.352952
1.316810 1.343464 1.390395
1.368303 1.376741 1.426723
1.415560 1.408137 1.461751
0.601906 0.920483 0.963498
0.648877 0.946462 0.984856
0.698340 0.974180 1.009379
0.750238 1.003514 1.036992
0.804556 1.034583 1.067608
0.861104 1.067085 1.100898
0.919681 1.100976 1.136812
0.980036 1.136100 1.174865
1.041996 1.172459 1.214832
1.103656 1.208836 1.255649
1.164470 1.245114 1.296711
1.223910 1.280895 1.337671
1.281073 1.315755 1.378062
1.335306 1.349535 1.417450
1.385899 1.381843 1.455692
1.432410 1.412368 1.492507
0.222478 0.329686 0.528460
0.236996 0.339344 0.543010
0.257123 0.353134 0.565475
0.282549 0.370492 0.594649
0.313127 0.390981 0.629447
0.348686 0.414177 0.668815
0.389076 0.439701 0.711723
0.434125 0.467233 0.757151
0.483676 0.496477 0.804144
0.535975 0.526220 0.850961
0.590496 0.556037 0.896667
0.646525 0.585484 0.940294
0.703090 0.614066 0.981087
0.759303 0.641353 1.018456
0.814162 0.666948 1.051854
0.867006 0.690513 1.081049
0.212923 0.305093 0.516395
0.227706 0.315875 0.534917
0.247791 0.330523 0.560866
0.272972 0.348519 0.593020
0.303188 0.369476 0.630266
0.338350 0.393017 0.671549
0.378398 0.418822 0.715785
0.423223 0.446635 0.761953
0.472703 0.476192 0.809119
0.525132 0.506322 0.855571
0.579953 0.536610 0.900391
0.636342 0.566641 0.942712
0.693247 0.595865 0.981860
0.749795 0.623909 1.017300
0.804825 0.650318 1.048555
0.857543 0.674706 1.075464
0.208342 0.289556 0.524363
0.223521 0.301561 0.545981
0.243775 0.317230 0.574408
0.268990 0.336073 0.608422
0.299191 0.357776 0.646913
0.334392 0.382023 0.688785
0.374580 0.408512 0.733027
0.419645 0.437056 0.778606
0.469497 0.467334 0.824601
0.522486 0.498310 0.869396
0.577911 0.529492 0.912094
0.634944 0.560468 0.951995
0.692403 0.590717 0.988450
0.749324 0.619793 1.020988
0.804604 0.647237 1.049279
0.857163 0.672674 1.073224
0.209059 0.285666 0.550054
0.224915 0.299103 0.573803
0.245735 0.316073 0.603632
0.271491 0.336138 0.638342
0.302280 0.359021 0.676857
0.338137 0.384445 0.718122
0.379067 0.412135 0.761125
0.425013 0.441883 0.804924
0.475824 0.473458 0.848619
0.529806 0.505755 0.890684
0.586249 0.538289 0.930298
0.644181 0.570633 0.966878
0.702348 0.602230 0.999815
0.759726 0.632617 1.028783
0.815128 0.661306 1.053576
0.867516 0.687917 1.074069
0.215009 0.295805 0.590640
0.232108 0.310968 0.615518
0.254174 0.329607 0.645673
0.281225 0.351341 0.679973
0.313354 0.375889 0.717414
0.350669 0.402986 0.756947
0.393113 0.432386 0.797679
0.440616 0.463880 0.838677
0.492947 0.497251 0.879149
0.548442 0.531311 0.917591
0.606196 0.565627 0.953428
0.665286 0.599706 0.986049
0.724243 0.632941 1.014975
0.782129 0.664927 1.039997
0.838252 0.696959 1.060031
0.893280 0.736317 1.073431
0.227393 0.321824 0.642296
0.246234 0.338995 0.667360
0.270121 0.359647 0.696925
0.299111 0.383407 0.729898
0.333315 0.410026 0.765328
0.372738 0.439254 0.802271
0.417384 0.470797 0.839884
0.467059 0.504489 0.877301
0.521426 0.540018 0.913879
0.578778 0.576219 0.948234
0.638138 0.612585 0.979796
0.698436 0.648608 1.008130
0.758386 0.683668 1.032787
0.822322 0.728014 1.049704
0.881629 0.770231 1.065886
0.933816 0.804827 1.082349
0.246357 0.364429 0.701167
0.267452 0.383843 0.725658
0.293737 0.406791 0.753778
0.325311 0.432906 0.784642
0.362209 0.461916 0.817352
0.404419 0.493575 0.851031
0.451818 0.527527 0.884934
0.504163 0.563694 0.918301
0.560989 0.601565 0.950598
0.620524 0.640058 0.980597
0.681625 0.678464 1.007733
0.750499 0.725204 1.027915
0.817692 0.771755 1.047370
0.877442 0.810796 1.067145
0.933039 0.846913 1.086191
0.984785 0.881183 1.104370
0.271863 0.423793 0.763414
0.295685 0.445539 0.786592
0.324910 0.470864 0.812667
0.359611 0.499375 0.840809
0.399753 0.530876 0.870257
0.445217 0.565049 0.900235
0.495792 0.601494 0.930121
0.551094 0.640121 0.959207
