tools/decompiled/jadx/resources/res/raw/dreams.cube
LUT_3D_SIZE 6
0.117538 0.121520 0.332153
0.137852 0.138636 0.409714
0.196736 0.176644 0.549022
0.303157 0.229957 0.717140
0.449047 0.290216 0.875438
0.609418 0.348588 0.997532
0.153006 0.184277 0.493387
0.197995 0.224577 0.591094
0.285866 0.288000 0.730856
0.421200 0.369029 0.881860
0.587595 0.455747 1.012455
0.754812 0.535725 1.105004
0.237739 0.348080 0.752222
0.313273 0.414343 0.845711
0.437281 0.507549 0.960951
0.605672 0.619818 1.073998
0.808182 0.756061 1.147058
0.983379 0.876665 1.203366
0.351281 0.594584 0.985434
0.459379 0.683854 1.058112
0.647274 0.813690 1.123684
0.862763 0.956360 1.196494
1.059785 1.086534 1.271802
1.227228 1.201779 1.342628
0.478675 0.815098 1.050404
0.643476 0.914501 1.100252
0.829933 1.028826 1.174915
1.031177 1.154439 1.267241
1.221943 1.276532 1.364318
1.382260 1.384475 1.456606
0.617844 0.929937 1.026361
0.767052 1.014339 1.098723
0.937571 1.113339 1.197657
1.122743 1.222972 1.315590
1.301308 1.331602 1.436675
1.453462 1.429664 1.549408
0.222478 0.329686 0.528460
0.282549 0.370492 0.594649
0.389076 0.439701 0.711723
0.535975 0.526220 0.850961
0.703090 0.614066 0.981087
0.867006 0.690513 1.081049
0.209059 0.285666 0.550054
0.271491 0.336138 0.638342
0.379067 0.412135 0.761125
0.529806 0.505755 0.890684
0.702348 0.602230 0.999815
0.867516 0.687917 1.074069
0.246357 0.364429 0.701167
0.325311 0.432906 0.784642
0.451818 0.527527 0.884934
0.620524 0.640058 0.980597
0.817692 0.771755 1.047370
0.984785 0.881183 1.104370
0.345637 0.589901 0.888011
0.454464 0.679717 0.949570
0.637549 0.806482 1.011095
0.840833 0.936742 1.084921
1.035107 1.062734 1.162939
1.200635 1.174461 1.237434
0.461703 0.804160 0.940635
0.620901 0.898802 0.992812
0.805048 1.009991 1.069410
1.003825 1.132144 1.164634
1.192397 1.250764 1.265620
1.351412 1.355961 1.362220
0.593789 0.915598 0.930397
0.741658 0.998034 1.004283
0.910550 1.094609 1.104399
1.093831 1.201725 1.223729
1.270705 1.307770 1.346858
1.421674 1.403580 1.462304
0.207447 0.316705 0.449880
0.268268 0.358362 0.513584
0.374430 0.427678 0.624261
0.519663 0.513448 0.754841
0.683696 0.599952 0.875654
0.843183 0.674916 0.966510
0.200343 0.277707 0.473947
0.263961 0.329505 0.556573
0.371348 0.405821 0.669328
0.520219 0.498504 0.786687
0.689326 0.593210 0.883798
0.849756 0.676995 0.947335
0.241357 0.358856 0.610638
0.321110 0.428605 0.686685
0.446975 0.523297 0.775848
0.613334 0.634350 0.859149
0.799217 0.752942 0.923658
0.962950 0.857242 0.982491
0.339053 0.582664 0.774863
0.448368 0.673446 0.828988
0.619594 0.791445 0.889306
0.817518 0.915619 0.965379
1.009231 1.037626 1.046617
1.173063 1.145953 1.125172
0.441549 0.790361 0.823437
0.597341 0.881689 0.877643
0.778940 0.989953 0.955827
0.975231 1.108634 1.053779
1.161822 1.223999 1.158724
1.319652 1.326418 1.259727
0.569108 0.900427 0.827464
0.715410 0.980852 0.901541
0.882427 1.075139 1.001831
1.063827 1.179495 1.122174
1.238929 1.282979 1.247537
1.388687 1.376422 1.366127
0.188071 0.299255 0.361297
0.250172 0.342489 0.422400
0.356394 0.412622 0.526042
0.500301 0.498233 0.648184
0.661677 0.583875 0.761105
0.817306 0.657569 0.845502
0.188845 0.266521 0.389173
0.254025 0.320237 0.466110
0.361429 0.397306 0.568874
0.508644 0.489425 0.675208
0.674664 0.582657 0.762732
0.830927 0.664548 0.819030
0.234780 0.350929 0.512606
0.315457 0.422398 0.582187
0.440769 0.517371 0.661564
0.605030 0.627309 0.734799
0.778692 0.731379 0.795211
0.940215 0.831836 0.855808
0.331491 0.573744 0.657466
0.441328 0.666038 0.706135
0.598108 0.773002 0.763021
0.792991 0.893230 0.840683
0.982324 1.011254 0.924822
1.144711 1.116320 1.007024
0.419169 0.774790 0.704610
0.572720 0.863711 0.759228
0.751749 0.968924 0.837816
0.945567 1.084214 0.937418
1.130329 1.196413 1.045494
1.287015 1.296230 1.150577
0.543647 0.884619 0.722980
0.688304 0.963119 0.796122
0.853437 1.054989 0.894841
1.032818 1.156715 1.014765
1.206176 1.257421 1.141628
1.354828 1.348428 1.263290
0.164767 0.277786 0.271985
0.228814 0.323412 0.330624
0.335640 0.395129 0.426737
0.478675 0.481213 0.539746
0.637858 0.566458 0.645033
0.790154 0.639323 0.724407
0.175130 0.252782 0.306428
0.242362 0.309024 0.377342
0.350160 0.387356 0.469512
0.496026 0.479349 0.564730
0.659308 0.571496 0.643520
0.811532 0.650620 0.694590
0.227188 0.341328 0.417306
0.309129 0.415010 0.480559
0.434088 0.510754 0.550404
0.595227 0.618361 0.614130
0.757537 0.709074 0.664397
0.916964 0.805854 0.726034
0.323530 0.564016 0.543975
0.433582 0.657398 0.587902
0.576166 0.753693 0.635047
0.767898 0.869985 0.713039
0.954908 0.984147 0.798925
1.115866 1.086038 0.883919
0.396283 0.758337 0.584984
0.547564 0.844932 0.639830
0.723979 0.947146 0.718046
0.915317 1.059078 0.817784
1.098178 1.168070 0.927613
1.253929 1.265205 1.035842
0.517565 0.868294 0.619426
0.660661 0.944768 0.691126
0.823838 1.034285 0.787173
1.001135 1.133260 0.904929
1.172732 1.231232 1.031848
1.320338 1.319819 1.155727
0.137969 0.252632 0.187389
0.204714 0.301549 0.244171
0.312836 0.375649 0.333001
0.455590 0.462864 0.436428
0.613119 0.548291 0.533519
0.762756 0.620833 0.608020
0.159605 0.236978 0.231248
0.229427 0.296371 0.296619
0.338063 0.376492 0.378225
0.483056 0.468778 0.461617
0.644190 0.560285 0.531442
0.790641 0.633217 0.575209
0.219139 0.330709 0.331277
0.302577 0.407094 0.388160
0.427423 0.504024 0.448385
0.580044 0.602830 0.499244
0.737192 0.687943 0.536768
0.893338 0.779309 0.594600
0.324038 0.570451 0.447774
0.431928 0.659501 0.485625
0.571352 0.754306 0.523346
0.759240 0.867377 0.597656
0.945968 0.979639 0.685670
1.106606 1.079741 0.773788
0.433490 0.847027 0.520600
0.590771 0.939275 0.579184
0.783992 1.049438 0.668828
0.990258 1.169648 0.781434
1.182138 1.284855 0.903759
1.341414 1.385837 1.022885
0.616807 1.103743 0.633909
0.794482 1.195859 0.723925
0.998179 1.305102 0.844228
1.209649 1.423576 0.990383
1.400602 1.536314 1.145201
1.555424 1.633936 1.292865
