tools/decompiled/jadx/resources/res/raw/duo.cube
LUT_3D_SIZE 16
0.000000 0.000000 0.000000
0.066496 0.019872 0.019872
0.127241 0.038026 0.038026
0.184950 0.055268 0.055268
0.240583 0.071904 0.071904
0.294831 0.088112 0.088112
0.348304 0.104094 0.104094
0.401579 0.120013 0.120013
0.455301 0.136072 0.136072
0.510104 0.152443 0.152443
0.566664 0.169364 0.169364
0.626101 0.187107 0.187107
0.689497 0.206060 0.206060
0.759210 0.226909 0.226909
0.839838 0.250981 0.250981
0.900336 0.269067 0.269067
0.020065 0.041479 0.020065
0.072502 0.045814 0.028308
0.131516 0.055591 0.043000
0.187832 0.067126 0.058430
0.242612 0.079135 0.073830
0.296277 0.091236 0.089067
0.349368 0.104414 0.104414
0.402485 0.120288 0.120288
0.456099 0.136310 0.136310
0.510801 0.152655 0.152655
0.567354 0.169551 0.169551
0.626750 0.187307 0.187307
0.690067 0.206234 0.206234
0.759806 0.227084 0.227084
0.840468 0.251174 0.251174
0.900336 0.269067 0.269067
0.046243 0.095582 0.046243
0.079895 0.097223 0.049627
0.140517 0.102607 0.059745
0.195980 0.109849 0.071919
0.249574 0.118212 0.085050
0.302190 0.127187 0.098653
0.354431 0.136546 0.112554
0.406736 0.146190 0.126705
0.459638 0.156190 0.141194
0.513811 0.166705 0.156171
0.569938 0.177941 0.171805
0.628960 0.190273 0.188412
0.692123 0.206841 0.206841
0.761964 0.227722 0.227722
0.842911 0.251884 0.251884
0.900336 0.269067 0.269067
0.075308 0.155666 0.075308
0.086818 0.156193 0.076255
0.150906 0.159883 0.083724
0.206429 0.164938 0.093068
0.259410 0.171065 0.103733
0.311212 0.177915 0.115305
0.362643 0.185301 0.127524
0.414202 0.193156 0.140306
0.466508 0.201369 0.153616
0.520141 0.210131 0.167563
0.575788 0.219519 0.182295
0.634584 0.229834 0.198055
0.697478 0.241431 0.215203
0.766917 0.255053 0.234402
0.848003 0.272291 0.257163
0.900937 0.282103 0.271753
0.106409 0.219941 0.106409
0.106460 0.220041 0.106460
0.162939 0.222637 0.111745
0.218541 0.226466 0.119142
0.271126 0.231194 0.127818
0.322374 0.236659 0.137515
0.373139 0.242702 0.148056
0.424046 0.249258 0.159317
0.475776 0.256247 0.171308
0.528876 0.263738 0.184065
0.584113 0.271822 0.197706
0.642492 0.280723 0.212470
0.705179 0.290782 0.228681
0.774805 0.302634 0.247047
0.856371 0.317725 0.269048
0.903334 0.325000 0.281500
0.139016 0.287342 0.139016
0.139046 0.287429 0.139046
0.176656 0.289040 0.142229
0.232446 0.292150 0.148375
0.284585 0.295988 0.155592
0.335270 0.300487 0.163784
0.385427 0.305527 0.172831
0.435786 0.311098 0.182700
0.486985 0.317169 0.193383
0.539589 0.323685 0.204895
0.594426 0.330834 0.217370
0.652455 0.338728 0.231054
0.714949 0.347611 0.246226
0.784570 0.358079 0.263602
0.866423 0.371307 0.284585
0.906702 0.376557 0.294693
0.172842 0.357248 0.172842
0.172895 0.357350 0.172894
0.191265 0.358196 0.174385
0.248217 0.360904 0.179749
0.299752 0.364090 0.185911
0.349797 0.367890 0.192953
0.399388 0.372274 0.200815
0.449144 0.377054 0.209443
0.499776 0.382363 0.218936
0.551979 0.388107 0.229275
0.606454 0.394477 0.240648
0.664251 0.401593 0.253252
0.726479 0.409574 0.267350
0.795639 0.418698 0.283465
0.877395 0.430147 0.303179
0.911050 0.433767 0.311111
0.207704 0.429331 0.207704
0.207716 0.429379 0.207716
0.207852 0.429620 0.207852
0.265671 0.432027 0.212717
0.316676 0.434812 0.218104
0.365975 0.438111 0.224241
0.414790 0.441874 0.231125
0.464023 0.446104 0.238780
0.514139 0.450776 0.247216
0.565834 0.455985 0.256544
0.619888 0.461691 0.266883
0.677168 0.467928 0.278335
0.738660 0.474716 0.291114
0.806846 0.482509 0.305871
0.888345 0.492399 0.324225
0.916584 0.494740 0.330374
0.243435 0.503186 0.243435
0.243459 0.503236 0.243459
0.243558 0.503425 0.243558
0.284496 0.505143 0.246868
0.335280 0.507644 0.251737
0.383764 0.510544 0.257176
0.431839 0.513886 0.263273
0.480316 0.517616 0.270088
0.529731 0.521753 0.277649
0.580682 0.526168 0.285950
0.633814 0.530864 0.295097
0.690093 0.536011 0.305295
0.750593 0.541670 0.316795
0.817882 0.548249 0.330194
0.898576 0.556682 0.347082
0.923145 0.558194 0.351967
0.279881 0.578529 0.279881
0.279902 0.578583 0.279902
0.279976 0.578725 0.279976
0.303860 0.579758 0.281888
0.355232 0.581957 0.286344
0.402855 0.584395 0.291175
0.449847 0.587097 0.296516
0.497215 0.590104 0.302472
0.545558 0.593354 0.309056
0.595419 0.596902 0.316331
0.647438 0.600743 0.324440
0.702643 0.604878 0.333484
0.762042 0.609496 0.343798
0.828232 0.614948 0.355871
0.908016 0.622159 0.371336
0.930776 0.623010 0.375464
0.316105 0.653385 0.316105
0.316117 0.653412 0.316117
0.316132 0.653445 0.316132
0.320560 0.653747 0.316517
0.375417 0.655700 0.320864
0.422167 0.657650 0.325148
0.468063 0.659850 0.329875
0.514187 0.662153 0.335058
0.561263 0.664690 0.340821
0.609931 0.667452 0.347240
0.660761 0.670483 0.354399
0.714861 0.673828 0.362430
0.772933 0.677580 0.371607
0.837883 0.682012 0.382506
0.915864 0.687906 0.396453
0.939467 0.688496 0.400348
0.351652 0.727027 0.351652
0.351652 0.727026 0.351652
0.351652 0.727027 0.351652
0.351649 0.727016 0.351649
0.395397 0.728358 0.354961
0.441665 0.729957 0.358901
0.486306 0.731612 0.363075
0.531188 0.733459 0.367663
0.576984 0.735526 0.372760
0.624360 0.737499 0.378367
0.673945 0.739929 0.384691
0.726626 0.742513 0.391822
0.783410 0.745410 0.400011
0.846626 0.748940 0.409724
0.922438 0.753664 0.422180
0.948987 0.753998 0.426196
0.386617 0.799164 0.386617
0.386597 0.799135 0.386598
0.386570 0.799051 0.386570
0.386504 0.798951 0.386504
0.414649 0.799636 0.388515
0.461122 0.800998 0.392152
0.504697 0.802355 0.395902
0.548250 0.803745 0.399989
0.592690 0.805287 0.404468
0.638694 0.806829 0.409442
0.686819 0.808470 0.414972
0.738040 0.810335 0.421278
0.793154 0.812496 0.428507
0.854584 0.815120 0.437153
0.927364 0.818761 0.448118
0.959448 0.819030 0.452659
0.421019 0.870257 0.421019
0.420997 0.870207 0.420997
0.420957 0.870120 0.420956
0.420864 0.869962 0.420864
0.432359 0.869974 0.421529
0.480582 0.871210 0.425069
0.523201 0.872138 0.428422
0.565436 0.873073 0.432056
0.608441 0.874052 0.436001
0.652956 0.875151 0.440384
0.699493 0.876174 0.445232
0.748964 0.877455 0.450739
0.802355 0.878865 0.457126
0.861581 0.880555 0.464629
0.930823 0.882964 0.474184
0.970665 0.883092 0.479386
0.454931 0.940389 0.454931
0.454964 0.940375 0.454964
0.454856 0.940162 0.454856
0.454718 0.939894 0.454718
0.454465 0.939471 0.454465
0.499914 0.940321 0.457594
0.541909 0.940966 0.460689
0.582803 0.941578 0.463878
0.624279 0.942024 0.467286
0.667069 0.942559 0.471099
0.711955 0.943007 0.475283
0.759577 0.943522 0.480018
0.810809 0.943959 0.485490
0.867455 0.944665 0.491899
0.932805 0.945846 0.499968
0.982321 0.945762 0.506014
0.467025 0.965358 0.467025
0.467025 0.965358 0.467025
0.467025 0.965358 0.467025
0.467025 0.965358 0.467025
0.467025 0.965358 0.467025
0.500003 0.966401 0.469446
0.543940 0.967891 0.472916
0.585381 0.969366 0.476511
0.626940 0.971074 0.480391
0.669586 0.972885 0.484638
0.713935 0.974964 0.489397
0.760944 0.977244 0.494759
0.811064 0.980031 0.500819
0.866039 0.983127 0.507932
0.928277 0.987095 0.516474
0.991343 0.991348 0.525708
0.003688 0.003688 0.019730
0.067515 0.020437 0.028981
0.127724 0.038311 0.043783
0.185241 0.055445 0.058991
0.240789 0.072007 0.074048
0.294982 0.088179 0.088965
0.348409 0.104122 0.104122
0.401705 0.120047 0.120047
0.455398 0.136097 0.136097
0.510180 0.152468 0.152468
0.566737 0.169378 0.169378
0.626180 0.187134 0.187134
0.689526 0.206067 0.206067
0.759261 0.226924 0.226924
0.839930 0.251025 0.251025
0.900336 0.269067 0.269067
0.020453 0.041754 0.030026
0.072755 0.045979 0.035756
0.131927 0.055416 0.047632
0.188198 0.066714 0.061135
0.242885 0.078757 0.075218
0.296430 0.091059 0.089518
0.349507 0.104441 0.104441
0.402593 0.120314 0.120314
0.456160 0.136324 0.136324
0.510851 0.152675 0.152675
0.567384 0.169560 0.169560
0.626779 0.187319 0.187319
0.690150 0.206242 0.206242
0.759894 0.227109 0.227109
0.840597 0.251211 0.251211
0.900336 0.269067 0.269067
0.046390 0.095710 0.050355
0.079863 0.097432 0.053234
0.140707 0.102688 0.062257
0.196197 0.109802 0.073330
0.249721 0.118133 0.085614
0.302272 0.127176 0.098667
0.354468 0.136506 0.112551
0.406801 0.146149 0.126707
0.459703 0.156171 0.141212
0.513870 0.166671 0.156174
0.569941 0.177902 0.171803
0.628948 0.190248 0.188411
0.692243 0.206874 0.206874
0.762071 0.227744 0.227744
0.842895 0.251916 0.251916
0.900336 0.269067 0.269067
0.075357 0.155741 0.076075
0.086563 0.156286 0.076860
0.150920 0.159950 0.084071
0.206471 0.164960 0.093088
0.259459 0.171076 0.103758
0.311265 0.177923 0.115319
0.362615 0.185304 0.127528
0.414237 0.193115 0.140304
0.466564 0.201379 0.153629
0.520186 0.210116 0.167575
0.575874 0.219512 0.182321
0.634599 0.229818 0.198070
0.697462 0.241406 0.215207
0.767005 0.255059 0.234418
0.848058 0.272281 0.257189
0.900935 0.282059 0.271770
0.106423 0.219963 0.106423
0.106484 0.220097 0.106484
0.162900 0.222655 0.111752
0.218554 0.226497 0.119152
0.271171 0.231210 0.127835
0.322392 0.236683 0.137537
0.373149 0.242715 0.148066
0.424075 0.249258 0.159330
0.475805 0.256241 0.171310
0.528939 0.263730 0.184076
0.584127 0.271816 0.197709
0.642579 0.280722 0.212478
0.705284 0.290764 0.228678
0.774815 0.302620 0.247045
0.856379 0.317700 0.269031
0.903332 0.324988 0.281491
0.139026 0.287373 0.139026
0.139065 0.287458 0.139065
0.176607 0.289077 0.142251
0.232438 0.292176 0.148389
0.284590 0.296008 0.155601
0.335255 0.300493 0.163788
0.385498 0.305545 0.172844
0.435826 0.311108 0.182713
0.487030 0.317162 0.193398
0.539638 0.323691 0.204912
0.594474 0.330839 0.217381
0.652564 0.338725 0.231050
0.714938 0.347608 0.246217
0.784595 0.358081 0.263614
0.866457 0.371314 0.284598
0.906700 0.376536 0.294690
0.172868 0.357331 0.172868
0.172910 0.357429 0.172910
0.191187 0.358180 0.174374
0.248192 0.360895 0.179769
0.299745 0.364132 0.185912
0.349828 0.367935 0.192954
0.399415 0.372319 0.200813
0.449182 0.377102 0.209460
0.499820 0.382386 0.218948
0.552000 0.388115 0.229281
0.606456 0.394484 0.240657
0.664284 0.401588 0.253257
0.726560 0.409577 0.267363
0.795689 0.418689 0.283473
0.877453 0.430150 0.303195
0.911047 0.433738 0.311104
0.207701 0.429345 0.207701
0.207735 0.429422 0.207735
0.207852 0.429621 0.207852
0.265644 0.432011 0.212711
0.316665 0.434826 0.218109
0.365973 0.438134 0.224251
0.414804 0.441886 0.231131
0.464004 0.446083 0.238769
0.514161 0.450795 0.247226
0.565851 0.455997 0.256552
0.619920 0.461707 0.266896
0.677192 0.467930 0.278341
0.738685 0.474712 0.291117
0.806872 0.482500 0.305872
0.888375 0.492386 0.324226
0.916582 0.494782 0.330368
0.243454 0.503183 0.243454
0.243471 0.503264 0.243471
0.243573 0.503459 0.243573
0.284457 0.505171 0.246877
0.335265 0.507664 0.251743
0.383753 0.510562 0.257183
0.431833 0.513898 0.263277
0.480330 0.517637 0.270097
0.529738 0.521761 0.277653
0.580687 0.526170 0.285951
0.633825 0.530866 0.295099
0.690107 0.536011 0.305297
0.750603 0.541665 0.316795
0.817898 0.548244 0.330195
0.898598 0.556685 0.347083
0.923143 0.558182 0.351962
0.279896 0.578551 0.279896
0.279909 0.578576 0.279909
0.279991 0.578766 0.279991
0.303825 0.579765 0.281889
0.355249 0.581973 0.286350
0.402831 0.584371 0.291164
0.449858 0.587106 0.296520
0.497211 0.590111 0.302474
0.545557 0.593356 0.309057
0.595421 0.596904 0.316332
0.647443 0.600745 0.324442
0.702643 0.604872 0.333482
0.762046 0.609491 0.343797
0.828236 0.614941 0.355868
0.908011 0.622147 0.371328
0.930773 0.622998 0.375457
0.316109 0.653395 0.316109
0.316120 0.653419 0.316120
0.316136 0.653455 0.316136
0.320506 0.653750 0.316514
0.375374 0.655709 0.320866
0.422156 0.657658 0.325151
0.468039 0.659853 0.329875
0.514174 0.662154 0.335058
0.561255 0.664685 0.340818
0.609924 0.667489 0.347237
0.660754 0.670475 0.354393
0.714847 0.673815 0.362421
0.772924 0.677568 0.371599
0.837874 0.681999 0.382497
0.915848 0.687890 0.396445
0.939464 0.688479 0.400342
0.351654 0.726908 0.351654
0.351654 0.726909 0.351654
0.351654 0.726910 0.351654
0.351651 0.727023 0.351651
0.395364 0.728354 0.354956
0.441641 0.729950 0.358894
0.486304 0.731606 0.363072
0.531168 0.733454 0.367658
0.576971 0.735519 0.372754
0.624348 0.737487 0.378359
0.673932 0.739915 0.384681
0.726608 0.742499 0.391815
0.783397 0.745396 0.400004
0.846691 0.748929 0.409728
0.922409 0.753718 0.422169
0.948983 0.753978 0.426188
0.386610 0.799154 0.386610
0.386593 0.799128 0.386593
0.386609 0.799112 0.386609
0.386500 0.798944 0.386500
0.414644 0.799671 0.388535
0.461098 0.800987 0.392147
0.504705 0.802341 0.395893
0.548231 0.803731 0.399981
0.592695 0.805275 0.404462
0.638695 0.806840 0.409461
0.686803 0.808452 0.414963
0.738022 0.810315 0.421268
0.793164 0.812474 0.428496
0.854556 0.815095 0.437140
0.927323 0.818733 0.448102
0.959443 0.819006 0.452649
0.421012 0.870240 0.421012
0.420989 0.870188 0.420989
0.420949 0.870102 0.420949
0.420856 0.869943 0.420856
0.432305 0.869954 0.421518
0.480549 0.871189 0.425059
0.523250 0.872117 0.428412
0.565414 0.873051 0.432045
0.608416 0.874027 0.435988
0.652937 0.875125 0.440372
0.699484 0.876201 0.445242
0.748956 0.877418 0.450736
0.802330 0.878837 0.457112
0.861544 0.880574 0.464610
0.930781 0.882933 0.474167
0.970658 0.883117 0.479373
0.454921 0.940361 0.454921
0.454950 0.940432 0.454950
0.454842 0.940130 0.454842
0.454722 0.939937 0.454722
0.454450 0.939438 0.454450
0.499875 0.940286 0.457578
0.541883 0.940929 0.460672
0.582791 0.941556 0.463868
0.624249 0.941984 0.467267
0.667047 0.942525 0.471084
0.711919 0.942974 0.475267
0.759545 0.943476 0.480039
0.810818 0.943917 0.485470
0.867407 0.944700 0.491908
0.932738 0.945786 0.499937
0.982316 0.945737 0.506004
0.467025 0.965358 0.467025
0.467025 0.965358 0.467025
0.467025 0.965358 0.467025
0.467025 0.965358 0.467025
0.467025 0.965358 0.467025
0.500022 0.966400 0.469444
0.543918 0.967890 0.472914
0.585367 0.969365 0.476510
0.626920 0.971073 0.480389
0.669568 0.972884 0.484636
0.713916 0.974961 0.489391
0.760917 0.977242 0.494756
0.811031 0.980029 0.500815
0.866076 0.983130 0.507937
0.928244 0.987093 0.516470
0.991343 0.991348 0.525708
0.010511 0.010511 0.056236
0.069889 0.022913 0.061358
0.129340 0.039832 0.072044
0.186322 0.056540 0.083943
0.241571 0.072860 0.096093
0.295592 0.088872 0.108296
0.348924 0.104686 0.120568
0.402099 0.120486 0.132992
0.455731 0.136423 0.145723
0.510478 0.152710 0.158985
0.567027 0.169548 0.173085
0.626325 0.187217 0.188443
0.689798 0.206152 0.206152
0.759586 0.227004 0.227004
0.840091 0.251068 0.251068
0.900336 0.269067 0.269067
0.022808 0.043075 0.064376
0.073587 0.046848 0.067771
0.133144 0.055664 0.075632
0.189341 0.066448 0.085569
0.243750 0.078446 0.096695
0.297070 0.091104 0.108515
0.349916 0.104989 0.120636
0.402979 0.120743 0.132981
0.456490 0.136653 0.145686
0.511134 0.152903 0.158945
0.567640 0.169729 0.173066
0.627079 0.187422 0.188514
0.690410 0.206327 0.206327
0.760139 0.227164 0.227164
0.840797 0.251285 0.251285
0.900336 0.269067 0.269067
0.047579 0.096411 0.079478
0.079455 0.098455 0.081004
0.141984 0.103052 0.086909
0.197982 0.108544 0.093448
0.251527 0.115640 0.101955
0.303756 0.124359 0.112325
0.355628 0.133738 0.123311
0.407624 0.143622 0.134811
0.460348 0.154023 0.146884
0.514328 0.165056 0.159695
0.570268 0.176928 0.173531
0.629245 0.189975 0.188806
0.692361 0.206917 0.206917
0.762312 0.227800 0.227800
0.843140 0.251981 0.251981
0.900336 0.269067 0.269067
0.076109 0.156205 0.098491
0.085634 0.157319 0.098695
0.152224 0.161808 0.103275
0.208305 0.165699 0.109746
0.261149 0.170664 0.116971
0.312567 0.176928 0.125976
0.363627 0.184082 0.135821
0.414956 0.191911 0.146388
0.467042 0.200309 0.157701
0.520554 0.209330 0.169868
0.576075 0.219103 0.183142
0.634749 0.229741 0.198079
0.697644 0.241327 0.215227
0.767215 0.254981 0.234457
0.848246 0.272231 0.257205
0.900927 0.281953 0.271738
0.106886 0.220280 0.121179
0.106934 0.220390 0.121153
0.162822 0.224582 0.123648
0.220166 0.228392 0.130035
0.272618 0.232039 0.136765
0.323439 0.236761 0.144668
0.373910 0.242452 0.153427
0.424608 0.248861 0.163008
0.476146 0.255871 0.173452
0.529135 0.263524 0.184931
0.584274 0.271775 0.197735
0.642637 0.280672 0.212487
0.705415 0.290732 0.228708
0.774876 0.302576 0.247045
0.856629 0.317648 0.269118
0.903325 0.324881 0.281446
0.139270 0.287557 0.146979
0.139322 0.287655 0.146948
0.175917 0.290238 0.148413
0.232766 0.293303 0.153959
0.285443 0.297038 0.160377
0.335949 0.300980 0.167382
0.385851 0.305697 0.175255
0.436102 0.311142 0.184006
0.487137 0.317164 0.193743
0.539749 0.323697 0.204917
0.594561 0.330830 0.217396
0.652701 0.338701 0.231085
0.715065 0.347567 0.246244
0.784806 0.358044 0.263631
0.866596 0.371258 0.284611
0.906693 0.376460 0.294660
0.172970 0.357443 0.175543
0.173002 0.357474 0.175533
0.190628 0.358598 0.176337
0.248084 0.361255 0.181393
0.299838 0.364390 0.187062
0.349902 0.368130 0.193558
0.399424 0.372296 0.200909
0.449232 0.377162 0.209479
0.499891 0.382385 0.218962
0.552094 0.388126 0.229316
0.606560 0.394500 0.240674
0.664315 0.401582 0.253262
0.726700 0.409547 0.267349
0.795834 0.418700 0.283516
0.877408 0.430149 0.303194
0.911041 0.433698 0.311089
0.207744 0.429413 0.207744
0.207781 0.429479 0.207781
0.207891 0.429739 0.207891
0.265540 0.432108 0.212748
0.316636 0.434928 0.218147
0.365948 0.438172 0.224256
0.414836 0.441928 0.231140
0.464051 0.446152 0.238788
0.514184 0.450856 0.247259
0.565918 0.456005 0.256570
0.619994 0.461734 0.266920
0.677277 0.467942 0.278361
0.738671 0.474706 0.291129
0.806939 0.482496 0.305881
0.888318 0.492339 0.324205
0.916575 0.494707 0.330349
0.243480 0.503286 0.243480
0.243510 0.503310 0.243510
0.243593 0.503548 0.243593
0.284335 0.505201 0.246899
0.335235 0.507701 0.251757
0.383729 0.510590 0.257185
0.431884 0.513927 0.263315
0.480328 0.517697 0.270130
0.529781 0.521753 0.277648
0.580706 0.526216 0.285963
0.633825 0.530873 0.295101
0.690081 0.536007 0.305299
0.750580 0.541648 0.316786
0.817900 0.548222 0.330193
0.898651 0.556657 0.347080
0.923137 0.558144 0.351969
0.279917 0.578588 0.279917
0.279971 0.578671 0.279971
0.280027 0.578803 0.280027
0.303670 0.579787 0.281889
0.355173 0.581986 0.286361
0.402799 0.584413 0.291178
0.449850 0.587138 0.296532
0.497195 0.590133 0.302482
0.545556 0.593369 0.309062
0.595424 0.596908 0.316334
0.647449 0.600739 0.324440
0.702655 0.604861 0.333479
0.762060 0.609501 0.343803
0.828248 0.614942 0.355871
0.908024 0.622112 0.371311
0.930762 0.622966 0.375415
0.316123 0.653425 0.316123
0.316135 0.653453 0.316135
0.316148 0.653484 0.316148
0.320218 0.653709 0.316482
0.375316 0.655727 0.320867
0.422120 0.657671 0.325152
0.467989 0.659861 0.329874
0.514127 0.662160 0.335056
0.561234 0.664679 0.340814
0.609927 0.667476 0.347210
0.660736 0.670454 0.354378
0.714817 0.673783 0.362400
0.772908 0.677535 0.371576
0.837843 0.681952 0.382466
0.915870 0.687886 0.396437
0.939454 0.688417 0.400318
0.351652 0.727028 0.351652
0.351654 0.726910 0.351654
0.351652 0.727028 0.351652
0.351647 0.727013 0.351647
0.395248 0.728341 0.354940
0.441552 0.729942 0.358881
0.486277 0.731589 0.363053
0.531074 0.733428 0.367634
0.576958 0.735493 0.372736
0.624334 0.737534 0.378377
0.673931 0.739877 0.384659
0.726541 0.742450 0.391790
0.783379 0.745357 0.399983
0.846628 0.748884 0.409703
0.922343 0.753663 0.422169
0.948970 0.753907 0.426160
0.386592 0.799127 0.386592
0.386604 0.799103 0.386604
0.386591 0.799083 0.386591
0.386479 0.798946 0.386479
0.414502 0.799634 0.388500
0.460994 0.800985 0.392125
0.504589 0.802293 0.395867
0.548178 0.803679 0.399960
0.592626 0.805221 0.404433
0.638639 0.806818 0.409432
0.686720 0.808385 0.414943
0.737958 0.810244 0.421248
0.793090 0.812397 0.428457
0.854465 0.815012 0.437097
0.927359 0.818650 0.448104
0.959426 0.818915 0.452612
0.420984 0.870176 0.420984
0.420961 0.870125 0.420961
0.420921 0.870039 0.420921
0.420827 0.869877 0.420827
0.432140 0.869881 0.421477
0.480434 0.871115 0.425053
0.523124 0.872039 0.428392
0.565360 0.872971 0.432007
0.608397 0.874026 0.436007
0.652818 0.875115 0.440327
0.699442 0.876109 0.445201
0.748884 0.877450 0.450728
0.802233 0.878728 0.457058
0.861425 0.880458 0.464590
0.930787 0.882897 0.474154
0.970648 0.883064 0.479351
0.454942 0.940414 0.454942
0.454906 0.940327 0.454906
0.454863 0.940178 0.454863
0.454709 0.939916 0.454709
0.454468 0.939479 0.454468
0.499771 0.940171 0.457546
0.541800 0.940903 0.460618
0.582736 0.941580 0.463872
0.624212 0.942009 0.467273
0.667020 0.942483 0.471069
0.711782 0.942829 0.475200
0.759454 0.943342 0.479983
0.810769 0.943893 0.485402
0.867328 0.944542 0.491840
0.932733 0.945781 0.499934
0.982307 0.945691 0.505985
0.467025 0.965358 0.467025
0.467025 0.965358 0.467025
0.467025 0.965358 0.467025
0.467025 0.965358 0.467025
0.467025 0.965358 0.467025
0.499900 0.966396 0.469435
0.543835 0.967900 0.472907
0.585302 0.969362 0.476502
0.626871 0.971070 0.480383
0.669511 0.972881 0.484629
0.713864 0.974959 0.489387
0.760788 0.977234 0.494739
0.811024 0.980025 0.500806
0.865952 0.983238 0.507915
0.928154 0.987087 0.516449
0.991343 0.991348 0.525708
0.019552 0.019552 0.104618
0.072573 0.028151 0.108166
0.131885 0.043327 0.116975
0.188272 0.059172 0.127430
0.243081 0.074996 0.138149
0.296793 0.090656 0.148748
0.349933 0.106255 0.159237
0.402988 0.121859 0.169695
0.456499 0.137636 0.180278
0.511127 0.153785 0.191154
0.567603 0.170478 0.202562
0.626962 0.188064 0.214894
0.690291 0.206830 0.228497
0.760058 0.227561 0.244179
0.840687 0.251523 0.263400
0.900402 0.269280 0.277157
0.028123 0.045904 0.111803
0.074576 0.048558 0.114582
0.134984 0.057649 0.121382
0.190910 0.068197 0.129953
0.245078 0.079994 0.139444
0.298152 0.092475 0.149396
0.350896 0.106537 0.159553
0.403815 0.122103 0.169858
0.457256 0.137866 0.180318
0.511822 0.153974 0.191140
0.568233 0.170668 0.202529
0.627542 0.188243 0.214807
0.690911 0.207017 0.228407
0.760665 0.227738 0.244128
0.841309 0.251713 0.263356
0.900401 0.269273 0.276978
0.050595 0.098048 0.126275
0.078849 0.098989 0.128426
0.143262 0.102695 0.132986
0.199709 0.107750 0.137881
0.253319 0.114190 0.144182
0.305340 0.122838 0.152187
0.356958 0.132210 0.160941
0.408800 0.142159 0.170206
0.461300 0.152728 0.180004
0.515078 0.164036 0.190432
0.570887 0.176369 0.201754
0.629725 0.190104 0.214313
0.692911 0.207591 0.228110
0.762698 0.228319 0.243856
0.843585 0.252391 0.263263
0.900395 0.269249 0.276293
0.078150 0.157326 0.142631
0.085807 0.158259 0.143448
0.151319 0.162940 0.145498
0.210408 0.165898 0.150898
0.264118 0.168567 0.153944
0.315510 0.173289 0.159476
0.366395 0.179273 0.166260
0.417335 0.186132 0.173905
0.469063 0.193751 0.182325
0.522186 0.202205 0.191498
0.577359 0.211539 0.201662
0.635643 0.222094 0.213067
0.698250 0.234273 0.226202
0.767567 0.248800 0.241834
0.848498 0.267216 0.261526
0.900768 0.278385 0.274025
0.108376 0.221115 0.160980
0.108430 0.221224 0.161005
0.156778 0.228099 0.157651
0.222946 0.232393 0.163166
0.276090 0.233459 0.170475
0.326642 0.236419 0.175379
0.376739 0.240686 0.181169
0.427030 0.245990 0.187971
0.478157 0.252112 0.195695
0.530774 0.259053 0.204274
0.585525 0.266891 0.213915
0.643505 0.275777 0.224881
0.705922 0.286122 0.237615
0.775335 0.298536 0.252873
0.856762 0.314443 0.272288
0.903170 0.322817 0.282937
0.140435 0.288225 0.181588
0.140478 0.288310 0.181557
0.170928 0.293924 0.178484
0.232192 0.297776 0.181409
0.289252 0.301766 0.187224
0.339763 0.303210 0.192889
0.388905 0.306293 0.199718
0.438542 0.310439 0.205797
0.489099 0.315464 0.212835
0.541241 0.321339 0.220838
0.595649 0.328096 0.229963
0.653361 0.335856 0.240450
0.715672 0.344877 0.252736
0.785055 0.355794 0.267611
0.866798 0.369609 0.286556
0.906618 0.375622 0.295312
0.173845 0.357933 0.204410
0.173904 0.358041 0.204410
0.188151 0.360804 0.202920
0.246225 0.365120 0.204072
0.300836 0.368283 0.209109
0.353102 0.372047 0.214793
0.402751 0.374813 0.220246
0.451635 0.378067 0.226564
0.501666 0.382329 0.233298
0.553370 0.387389 0.240790
0.607427 0.393282 0.249410
0.664932 0.400245 0.259489
0.727022 0.408271 0.271329
0.795999 0.417661 0.285567
0.877657 0.429599 0.303915
0.911028 0.433561 0.311055
0.208399 0.429784 0.229426
0.208424 0.429888 0.229387
0.208527 0.430092 0.229228
0.263203 0.434791 0.229028
0.316201 0.437586 0.233597
0.366882 0.440758 0.238657
0.416721 0.444409 0.244276
0.466068 0.447936 0.250152
