tools/decompiled/jadx/resources/res/raw/duo.cube
LUT_3D_SIZE 6
0.000000 0.000000 0.000000
0.184950 0.055268 0.055268
0.348304 0.104094 0.104094
0.510104 0.152443 0.152443
0.689497 0.206060 0.206060
0.900336 0.269067 0.269067
0.075308 0.155666 0.075308
0.206429 0.164938 0.093068
0.362643 0.185301 0.127524
0.520141 0.210131 0.167563
0.697478 0.241431 0.215203
0.900937 0.282103 0.271753
0.172842 0.357248 0.172842
0.248217 0.360904 0.179749
0.399388 0.372274 0.200815
0.551979 0.388107 0.229275
0.726479 0.409574 0.267350
0.911050 0.433767 0.311111
0.279881 0.578529 0.279881
0.303860 0.579758 0.281888
0.449847 0.587097 0.296516
0.595419 0.596902 0.316331
0.762042 0.609496 0.343798
0.930776 0.623010 0.375464
0.386617 0.799164 0.386617
0.386504 0.798951 0.386504
0.504697 0.802355 0.395902
0.638694 0.806829 0.409442
0.793154 0.812496 0.428507
0.959448 0.819030 0.452659
0.467025 0.965358 0.467025
0.467025 0.965358 0.467025
0.543940 0.967891 0.472916
0.669586 0.972885 0.484638
0.811064 0.980031 0.500819
0.991343 0.991348 0.525708
0.019552 0.019552 0.104618
0.188272 0.059172 0.127430
0.349933 0.106255 0.159237
0.511127 0.153785 0.191154
0.690291 0.206830 0.228497
0.900402 0.269280 0.277157
0.078150 0.157326 0.142631
0.210408 0.165898 0.150898
0.366395 0.179273 0.166260
0.522186 0.202205 0.191498
0.698250 0.234273 0.226202
0.900768 0.278385 0.274025
0.173845 0.357933 0.204410
0.246225 0.365120 0.204072
0.402751 0.374813 0.220246
0.553370 0.387389 0.240790
0.727022 0.408271 0.271329
0.911028 0.433561 0.311055
0.280096 0.578774 0.285742
0.302331 0.580383 0.285675
0.449793 0.587539 0.298760
0.595453 0.596938 0.316483
0.762069 0.609465 0.343777
0.930753 0.622908 0.375383
0.386583 0.799071 0.386583
0.386494 0.798887 0.386494
0.504483 0.802215 0.395825
0.638539 0.806709 0.409376
0.793012 0.812317 0.428416
0.959402 0.818803 0.452598
0.467025 0.965358 0.467025
0.467025 0.965358 0.467025
0.543730 0.967894 0.472895
0.669483 0.972875 0.484618
0.810843 0.980013 0.500782
0.991343 0.991348 0.525708
0.056118 0.056118 0.300253
0.198885 0.079548 0.316518
0.356676 0.119660 0.347274
0.516035 0.163863 0.376624
0.694323 0.214723 0.405435
0.901669 0.274853 0.437618
0.095106 0.166315 0.335931
0.204535 0.157983 0.346764
0.372280 0.180436 0.365996
0.526759 0.205426 0.383364
0.701898 0.236955 0.406202
0.901948 0.280489 0.435237
0.182802 0.362571 0.388402
0.240426 0.369271 0.397834
0.406716 0.365359 0.405061
0.561241 0.379031 0.407641
0.731349 0.384175 0.411110
0.908398 0.389611 0.413512
0.285722 0.581590 0.443225
0.301710 0.584455 0.443044
0.428946 0.598988 0.427197
0.608261 0.610032 0.439792
0.766668 0.603379 0.450355
0.928676 0.601241 0.446305
0.389642 0.800145 0.494742
0.389497 0.799992 0.493973
0.477453 0.806520 0.468578
0.629111 0.811058 0.476870
0.796574 0.817056 0.488645
0.958589 0.811473 0.493455
0.468643 0.966038 0.527302
0.468617 0.966026 0.526610
0.520042 0.967400 0.503433
0.656152 0.972559 0.511950
0.804951 0.979900 0.523695
0.991537 0.991542 0.543200
0.099713 0.099713 0.533491
0.215797 0.114296 0.544869
0.368963 0.145760 0.572219
0.525374 0.184387 0.602103
0.702160 0.231351 0.631371
0.904743 0.287345 0.661101
0.125786 0.184317 0.562482
0.213076 0.172152 0.570400
0.374257 0.191822 0.589299
0.532868 0.217644 0.612826
0.709120 0.250256 0.636700
0.904996 0.291692 0.662124
0.201339 0.372187 0.614843
0.243853 0.365794 0.619406
0.375872 0.342493 0.630509
0.554652 0.360562 0.646232
0.736851 0.382737 0.656475
0.911272 0.393707 0.659587
0.298144 0.587640 0.666375
0.309463 0.588393 0.668035
0.425864 0.589211 0.678799
0.579212 0.581217 0.683695
0.770740 0.596534 0.683376
0.929617 0.588435 0.670812
0.398193 0.803465 0.706145
0.398071 0.803241 0.705586
0.481246 0.810017 0.703563
0.612816 0.816335 0.698172
0.798954 0.822438 0.699739
0.960436 0.808429 0.699749
0.475557 0.968985 0.724031
0.475521 0.968968 0.723478
0.518525 0.970082 0.709671
0.623566 0.973556 0.688004
0.784377 0.980968 0.684406
0.993660 0.993666 0.692669
0.140159 0.140159 0.749942
0.235000 0.150163 0.756790
0.383724 0.175045 0.775433
0.537158 0.208103 0.798404
0.712205 0.250577 0.822417
0.908497 0.301675 0.846735
0.158244 0.205495 0.768346
0.225093 0.188565 0.772770
0.383340 0.206429 0.787008
0.540134 0.230730 0.805864
0.717163 0.263804 0.827091
0.908671 0.304207 0.848300
0.222609 0.383919 0.808734
0.250943 0.372014 0.810332
0.367287 0.335052 0.816222
0.542958 0.352130 0.828911
0.731661 0.375843 0.844575
0.914729 0.398157 0.854625
0.312298 0.594672 0.851304
0.317291 0.593634 0.851772
0.412244 0.572232 0.854055
0.549029 0.550844 0.857808
0.750293 0.565024 0.867758
0.931453 0.576599 0.867725
0.407988 0.807057 0.885947
0.407820 0.806793 0.885728
0.478861 0.803717 0.888069
0.601372 0.800419 0.891301
0.781227 0.803885 0.896361
0.963264 0.807090 0.893768
0.484113 0.972653 0.905397
0.484082 0.972639 0.904945
0.525350 0.973817 0.901644
0.628950 0.977494 0.897218
0.785406 0.984716 0.897126
0.997807 0.997813 0.905573
0.163929 0.163929 0.877024
0.245753 0.171401 0.879046
0.394100 0.192288 0.884406
0.546135 0.221025 0.890187
0.720558 0.260126 0.898288
0.910008 0.307311 0.910016
0.176549 0.216724 0.881490
0.231062 0.197531 0.881838
0.390610 0.214059 0.885840
0.547071 0.236762 0.890766
0.724066 0.268753 0.898843
0.910025 0.307535 0.910034
0.233150 0.390266 0.892565
0.253353 0.377392 0.891876
0.363233 0.330934 0.890684
0.541318 0.347981 0.896168
0.730061 0.371426 0.904678
0.915865 0.398413 0.915874
0.317791 0.597614 0.912898
0.317796 0.597625 0.912900
0.406450 0.567940 0.911278
0.538589 0.540268 0.911797
0.739555 0.553829 0.920566
0.931875 0.569495 0.931884
0.411151 0.807423 0.943357
0.410961 0.807041 0.943266
0.472915 0.797719 0.943286
0.589115 0.787471 0.944923
0.766577 0.788919 0.951937
0.962917 0.796417 0.962927
0.487905 0.974348 0.974351
0.487905 0.974348 0.974351
0.527348 0.975539 0.975543
0.630099 0.979374 0.979378
0.784590 0.986700 0.986704
1.000028 1.000033 1.000036
