tools/decompiled/jadx/resources/res/raw/glacier.cube
LUT_3D_SIZE 6
0.000000 0.000000 0.000000
0.186231 0.000000 0.000000
0.372461 0.000000 0.000000
0.558692 0.000000 0.000000
0.744922 0.000000 0.000000
0.931153 0.000000 0.000000
0.000000 0.200000 0.000000
0.186231 0.200000 0.000000
0.372461 0.200000 0.000000
0.558692 0.200000 0.000000
0.744922 0.200000 0.000000
0.931153 0.200000 0.000000
0.000000 0.400000 0.000000
0.186231 0.400000 0.000000
0.372461 0.400000 0.000000
0.558692 0.400000 0.000000
0.744922 0.400000 0.000000
0.931153 0.400000 0.000000
0.000000 0.600000 0.000000
0.186231 0.600000 0.000000
0.372461 0.600000 0.000000
0.558692 0.600000 0.000000
0.744922 0.600000 0.000000
0.931153 0.600000 0.000000
0.000000 0.800000 0.000000
0.186231 0.800000 0.000000
0.372461 0.800000 0.000000
0.558692 0.800000 0.000000
0.744922 0.800000 0.000000
0.931153 0.800000 0.000000
0.000000 1.000000 0.000000
0.186231 1.000000 0.000000
0.372461 1.000000 0.000000
0.558692 1.000000 0.000000
0.744922 1.000000 0.000000
0.931153 1.000000 0.000000
0.000000 0.000000 0.214787
0.186231 0.000000 0.214787
0.372461 0.000000 0.214787
0.558692 0.000000 0.214787
0.744922 0.000000 0.214787
0.931153 0.000000 0.214787
0.000000 0.200000 0.214787
0.186231 0.200000 0.214787
0.372461 0.200000 0.214787
0.558692 0.200000 0.214787
0.744922 0.200000 0.214787
0.931153 0.200000 0.214787
0.000000 0.400000 0.214787
0.186231 0.400000 0.214787
0.372461 0.400000 0.214787
0.558692 0.400000 0.214787
0.744922 0.400000 0.214787
0.931153 0.400000 0.214787
0.000000 0.600000 0.214787
0.186231 0.600000 0.214787
0.372461 0.600000 0.214787
0.558692 0.600000 0.214787
0.744922 0.600000 0.214787
0.931153 0.600000 0.214787
0.000000 0.800000 0.214787
0.186231 0.800000 0.214787
0.372461 0.800000 0.214787
0.558692 0.800000 0.214787
0.744922 0.800000 0.214788
0.931153 0.800000 0.214787
0.000000 1.000000 0.214787
0.186231 1.000000 0.214787
0.372461 1.000000 0.214788
0.558692 1.000000 0.214787
0.744922 1.000000 0.214787
0.931153 1.000000 0.214787
0.000000 0.000000 0.429575
0.186231 0.000000 0.429575
0.372461 0.000000 0.429575
0.558692 0.000000 0.429575
0.744922 0.000000 0.429575
0.931153 0.000000 0.429575
0.000000 0.200000 0.429575
0.186231 0.200000 0.429575
0.372461 0.200000 0.429575
0.558692 0.200000 0.429575
0.744922 0.200000 0.429575
0.931153 0.200000 0.429575
0.000000 0.400000 0.429575
0.186231 0.400000 0.429575
0.372461 0.400000 0.429575
0.558692 0.400000 0.429575
0.744922 0.400000 0.429575
0.931153 0.400000 0.429575
0.000000 0.600000 0.429575
0.186231 0.600000 0.429575
0.372461 0.600000 0.429575
0.558692 0.600000 0.429575
0.744922 0.600000 0.429575
0.931153 0.600000 0.429575
0.000000 0.800000 0.429575
0.186231 0.800000 0.429575
0.372461 0.800000 0.429575
0.558692 0.800000 0.429575
0.744922 0.800000 0.429575
0.931153 0.800000 0.429575
0.000000 1.000000 0.429575
0.186231 1.000000 0.429575
0.372461 1.000000 0.429575
0.558692 1.000000 0.429575
0.744922 1.000000 0.429575
0.931153 1.000000 0.429575
0.000000 0.000000 0.644362
0.186231 0.000000 0.644362
0.372461 0.000000 0.644362
0.558692 0.000000 0.644362
0.744922 0.000000 0.644362
0.931153 0.000000 0.644362
0.000000 0.200000 0.644362
0.186231 0.200000 0.644362
0.372461 0.200000 0.644362
0.558692 0.200000 0.644362
0.744922 0.200000 0.644362
0.931153 0.200000 0.644362
0.000000 0.400000 0.644362
0.186231 0.400000 0.644362
0.372461 0.400000 0.644362
0.558692 0.400000 0.644362
0.744922 0.400000 0.644362
0.931153 0.400000 0.644362
0.000000 0.600000 0.644362
0.186231 0.600000 0.644362
0.372461 0.600000 0.644362
0.558692 0.600000 0.644362
0.744922 0.600000 0.644362
0.931153 0.600000 0.644362
0.000000 0.800000 0.644362
0.186231 0.800000 0.644362
0.372461 0.800000 0.644362
0.558692 0.800000 0.644362
0.744922 0.800000 0.644362
0.931153 0.800000 0.644362
0.000000 1.000000 0.644362
0.186231 1.000000 0.644362
0.372461 1.000000 0.644362
0.558692 1.000000 0.644362
0.744922 1.000000 0.644362
0.931153 1.000000 0.644362
0.000000 0.000000 0.859150
0.186231 0.000000 0.859150
0.372461 0.000000 0.859150
0.558692 0.000000 0.859150
0.744922 0.000000 0.859150
0.931153 0.000000 0.859150
0.000000 0.200000 0.859150
0.186231 0.200000 0.859150
0.372461 0.200000 0.859150
0.558692 0.200000 0.859150
0.744922 0.200000 0.859150
0.931153 0.200000 0.859150
0.000000 0.400000 0.859150
0.186231 0.400000 0.859150
0.372461 0.400000 0.859150
0.558692 0.400000 0.859150
0.744922 0.400000 0.859150
0.931153 0.400000 0.859150
0.000000 0.600000 0.859150
0.186231 0.600000 0.859150
0.372461 0.600000 0.859150
0.558692 0.600000 0.859150
0.744922 0.600000 0.859150
0.931153 0.600000 0.859150
0.000000 0.800000 0.859150
0.186231 0.800000 0.859150
0.372461 0.800000 0.859150
0.558692 0.800000 0.859150
0.744922 0.800000 0.859150
0.931153 0.800000 0.859150
0.000000 1.000000 0.859150
0.186231 1.000000 0.859150
0.372461 1.000000 0.859150
0.558692 1.000000 0.859150
0.744922 1.000000 0.859150
0.931153 1.000000 0.859150
0.000000 0.000000 1.073937
0.186231 0.000000 1.073937
0.372461 0.000000 1.073937
0.558692 0.000000 1.073937
0.744922 0.000000 1.073937
0.931153 0.000000 1.073937
0.000000 0.200000 1.073937
0.186231 0.200000 1.073937
0.372461 0.200000 1.073937
0.558692 0.200000 1.073937
0.744922 0.200000 1.073937
0.931153 0.200000 1.073937
0.000000 0.400000 1.073937
0.186231 0.400000 1.073937
0.372461 0.400000 1.073937
0.558692 0.400000 1.073937
0.744922 0.400000 1.073937
0.931153 0.400000 1.073937
0.000000 0.600000 1.073937
0.186231 0.600000 1.073937
0.372461 0.600000 1.073937
0.558692 0.600000 1.073937
0.744922 0.600000 1.073937
0.931153 0.600000 1.073937
0.000000 0.800000 1.073937
0.186231 0.800000 1.073937
0.372461 0.800000 1.073937
0.558692 0.800000 1.073937
0.744922 0.800000 1.073937
0.931153 0.800000 1.073937
0.000000 1.000000 1.073937
0.186231 1.000000 1.073937
0.372461 1.000000 1.073937
0.558692 1.000000 1.073937
0.744922 1.000000 1.073937
0.931153 1.000000 1.073937
