tools/decompiled/jadx/resources/res/raw/glacier.cube
LUT_3D_SIZE 16
0.000000 0.000000 0.000000
0.062077 0.000000 0.000000
0.124154 0.000000 0.000000
0.186231 0.000000 0.000000
0.248307 0.000000 0.000000
0.310384 0.000000 0.000000
0.372461 0.000000 0.000000
0.434538 0.000000 0.000000
0.496615 0.000000 0.000000
0.558692 0.000000 0.000000
0.620769 0.000000 0.000000
0.682845 0.000000 0.000000
0.744922 0.000000 0.000000
0.806999 0.000000 0.000000
0.869076 0.000000 0.000000
0.931153 0.000000 0.000000
0.000000 0.066667 0.000000
0.062077 0.066667 0.000000
0.124154 0.066667 0.000000
0.186231 0.066667 0.000000
0.248307 0.066667 0.000000
0.310384 0.066667 0.000000
0.372461 0.066667 0.000000
0.434538 0.066667 0.000000
0.496615 0.066667 0.000000
0.558692 0.066667 0.000000
0.620769 0.066667 0.000000
0.682845 0.066667 0.000000
0.744922 0.066667 0.000000
0.806999 0.066667 0.000000
0.869076 0.066667 0.000000
0.931153 0.066667 0.000000
0.000000 0.133333 0.000000
0.062077 0.133333 0.000000
0.124154 0.133333 0.000000
0.186231 0.133333 0.000000
0.248307 0.133333 0.000000
0.310384 0.133333 0.000000
0.372461 0.133333 0.000000
0.434538 0.133333 0.000000
0.496615 0.133333 0.000000
0.558692 0.133333 0.000000
0.620769 0.133333 0.000000
0.682845 0.133333 0.000000
0.744922 0.133333 0.000000
0.806999 0.133333 0.000000
0.869076 0.133333 0.000000
0.931153 0.133333 0.000000
0.000000 0.200000 0.000000
0.062077 0.200000 0.000000
0.124154 0.200000 0.000000
0.186231 0.200000 0.000000
0.248307 0.200000 0.000000
0.310384 0.200000 0.000000
0.372461 0.200000 0.000000
0.434538 0.200000 0.000000
0.496615 0.200000 0.000000
0.558692 0.200000 0.000000
0.620769 0.200000 0.000000
0.682845 0.200000 0.000000
0.744922 0.200000 0.000000
0.806999 0.200000 0.000000
0.869076 0.200000 0.000000
0.931153 0.200000 0.000000
0.000000 0.266667 0.000000
0.062077 0.266667 0.000000
0.124154 0.266667 0.000000
0.186231 0.266667 0.000000
0.248307 0.266667 0.000000
0.310384 0.266667 0.000000
0.372461 0.266667 0.000000
0.434538 0.266667 0.000000
0.496615 0.266667 0.000000
0.558692 0.266667 0.000000
0.620769 0.266667 0.000000
0.682845 0.266667 0.000000
0.744922 0.266667 0.000000
0.806999 0.266667 0.000000
0.869076 0.266667 0.000000
0.931153 0.266667 0.000000
0.000000 0.333333 0.000000
0.062077 0.333333 0.000000
0.124154 0.333333 0.000000
0.186231 0.333333 0.000000
0.248307 0.333333 0.000000
0.310384 0.333333 0.000000
0.372461 0.333333 0.000000
0.434538 0.333333 0.000000
0.496615 0.333333 0.000000
0.558692 0.333333 0.000000
0.620769 0.333333 0.000000
0.682845 0.333333 0.000000
0.744922 0.333333 0.000000
0.806999 0.333333 0.000000
0.869076 0.333333 0.000000
0.931153 0.333333 0.000000
0.000000 0.400000 0.000000
0.062077 0.400000 0.000000
0.124154 0.400000 0.000000
0.186231 0.400000 0.000000
0.248307 0.400000 0.000000
0.310384 0.400000 0.000000
0.372461 0.400000 0.000000
0.434538 0.400000 0.000000
0.496615 0.400000 0.000000
0.558692 0.400000 0.000000
0.620769 0.400000 0.000000
0.682845 0.400000 0.000000
0.744922 0.400000 0.000000
0.806999 0.400000 0.000000
0.869076 0.400000 0.000000
0.931153 0.400000 0.000000
0.000000 0.466667 0.000000
0.062077 0.466667 0.000000
0.124154 0.466667 0.000000
0.186231 0.466667 0.000000
0.248307 0.466667 0.000000
0.310384 0.466667 0.000000
0.372461 0.466667 0.000000
0.434538 0.466667 0.000000
0.496615 0.466667 0.000000
0.558692 0.466667 0.000000
0.620769 0.466667 0.000000
0.682845 0.466667 0.000000
0.744922 0.466667 0.000000
0.806999 0.466667 0.000000
0.869076 0.466667 0.000000
0.931153 0.466667 0.000000
0.000000 0.533333 0.000000
0.062077 0.533333 0.000000
0.124154 0.533333 0.000000
0.186231 0.533333 0.000000
0.248307 0.533333 0.000000
0.310384 0.533333 0.000000
0.372461 0.533333 0.000000
0.434538 0.533333 0.000000
0.496615 0.533333 0.000000
0.558692 0.533333 0.000000
0.620769 0.533333 0.000000
0.682845 0.533333 0.000000
0.744922 0.533333 0.000000
0.806999 0.533333 0.000000
0.869076 0.533333 0.000000
0.931153 0.533333 0.000000
0.000000 0.600000 0.000000
0.062077 0.600000 0.000000
0.124154 0.600000 0.000000
0.186231 0.600000 0.000000
0.248307 0.600000 0.000000
0.310384 0.600000 0.000000
0.372461 0.600000 0.000000
0.434538 0.600000 0.000000
0.496615 0.600000 0.000000
0.558692 0.600000 0.000000
0.620769 0.600000 0.000000
0.682845 0.600000 0.000000
0.744922 0.600000 0.000000
0.806999 0.600000 0.000000
0.869076 0.600000 0.000000
0.931153 0.600000 0.000000
0.000000 0.666667 0.000000
0.062077 0.666667 0.000000
0.124154 0.666667 0.000000
0.186231 0.666667 0.000000
0.248307 0.666667 0.000000
0.310384 0.666667 0.000000
0.372461 0.666667 0.000000
0.434538 0.666667 0.000000
0.496615 0.666667 0.000000
0.558692 0.666667 0.000000
0.620769 0.666667 0.000000
0.682845 0.666667 0.000000
0.744922 0.666667 0.000000
0.806999 0.666667 0.000000
0.869076 0.666667 0.000000
0.931153 0.666667 0.000000
0.000000 0.733333 0.000000
0.062077 0.733333 0.000000
0.124154 0.733333 0.000000
0.186231 0.733333 0.000000
0.248307 0.733333 0.000000
0.310384 0.733333 0.000000
0.372461 0.733333 0.000000
0.434538 0.733333 0.000000
0.496615 0.733333 0.000000
0.558692 0.733333 0.000000
0.620769 0.733333 0.000000
0.682845 0.733333 0.000000
0.744922 0.733333 0.000000
0.806999 0.733333 0.000000
0.869076 0.733333 0.000000
0.931153 0.733333 0.000000
0.000000 0.800000 0.000000
0.062077 0.800000 0.000000
0.124154 0.800000 0.000000
0.186231 0.800000 0.000000
0.248307 0.800000 0.000000
0.310384 0.800000 0.000000
0.372461 0.800000 0.000000
0.434538 0.800000 0.000000
0.496615 0.800000 0.000000
0.558692 0.800000 0.000000
0.620769 0.800000 0.000000
0.682845 0.800000 0.000000
0.744922 0.800000 0.000000
0.806999 0.800000 0.000000
0.869076 0.800000 0.000000
0.931153 0.800000 0.000000
0.000000 0.866667 0.000000
0.062077 0.866667 0.000000
0.124154 0.866667 0.000000
0.186231 0.866667 0.000000
0.248307 0.866667 0.000000
0.310384 0.866667 0.000000
0.372461 0.866667 0.000000
0.434538 0.866667 0.000000
0.496615 0.866667 0.000000
0.558692 0.866667 0.000000
0.620769 0.866667 0.000000
0.682845 0.866667 0.000000
0.744922 0.866667 0.000000
0.806999 0.866667 0.000000
0.869076 0.866667 0.000000
0.931153 0.866667 0.000000
0.000000 0.933333 0.000000
0.062077 0.933333 0.000000
0.124154 0.933333 0.000000
0.186231 0.933333 0.000000
0.248307 0.933333 0.000000
0.310384 0.933333 0.000000
0.372461 0.933333 0.000000
0.434538 0.933333 0.000000
0.496615 0.933333 0.000000
0.558692 0.933333 0.000000
0.620769 0.933333 0.000000
0.682845 0.933333 0.000000
0.744922 0.933333 0.000000
0.806999 0.933333 0.000000
0.869076 0.933333 0.000000
0.931153 0.933333 0.000000
0.000000 1.000000 0.000000
0.062077 1.000000 0.000000
0.124154 1.000000 0.000000
0.186231 1.000000 0.000000
0.248307 1.000000 0.000000
0.310384 1.000000 0.000000
0.372461 1.000000 0.000000
0.434538 1.000000 0.000000
0.496615 1.000000 0.000000
0.558692 1.000000 0.000000
0.620769 1.000000 0.000000
0.682845 1.000000 0.000000
0.744922 1.000000 0.000000
0.806999 1.000000 0.000000
0.869076 1.000000 0.000000
0.931153 1.000000 0.000000
0.000000 0.000000 0.071596
0.062077 0.000000 0.071596
0.124154 0.000000 0.071596
0.186231 0.000000 0.071596
0.248307 0.000000 0.071596
0.310384 0.000000 0.071596
0.372461 0.000000 0.071596
0.434538 0.000000 0.071596
0.496615 0.000000 0.071596
0.558692 0.000000 0.071596
0.620769 0.000000 0.071596
0.682845 0.000000 0.071596
0.744922 0.000000 0.071596
0.806999 0.000000 0.071596
0.869076 0.000000 0.071596
0.931153 0.000000 0.071596
0.000000 0.066667 0.071596
0.062077 0.066667 0.071596
0.124154 0.066667 0.071596
0.186231 0.066667 0.071596
0.248307 0.066667 0.071596
0.310384 0.066667 0.071596
0.372461 0.066667 0.071596
0.434538 0.066667 0.071596
0.496615 0.066667 0.071596
0.558692 0.066667 0.071596
0.620769 0.066667 0.071596
0.682845 0.066667 0.071596
0.744922 0.066667 0.071596
0.806999 0.066667 0.071596
0.869076 0.066667 0.071596
0.931153 0.066667 0.071596
0.000000 0.133333 0.071596
0.062077 0.133333 0.071596
0.124154 0.133333 0.071596
0.186231 0.133333 0.071596
0.248307 0.133333 0.071596
0.310384 0.133333 0.071596
0.372461 0.133333 0.071596
0.434538 0.133333 0.071596
0.496615 0.133333 0.071596
0.558692 0.133333 0.071596
0.620769 0.133333 0.071596
0.682845 0.133333 0.071596
0.744922 0.133333 0.071596
0.806999 0.133333 0.071596
0.869076 0.133333 0.071596
0.931153 0.133333 0.071596
0.000000 0.200000 0.071596
0.062077 0.200000 0.071596
0.124154 0.200000 0.071596
0.186231 0.200000 0.071596
0.248307 0.200000 0.071596
0.310384 0.200000 0.071596
0.372461 0.200000 0.071596
0.434538 0.200000 0.071596
0.496615 0.200000 0.071596
0.558692 0.200000 0.071596
0.620769 0.200000 0.071596
0.682845 0.200000 0.071596
0.744922 0.200000 0.071596
0.806999 0.200000 0.071596
0.869076 0.200000 0.071596
0.931153 0.200000 0.071596
0.000000 0.266667 0.071596
0.062077 0.266667 0.071596
0.124154 0.266667 0.071596
0.186231 0.266667 0.071596
0.248307 0.266667 0.071596
0.310384 0.266667 0.071596
0.372461 0.266667 0.071596
0.434538 0.266667 0.071596
0.496615 0.266667 0.071596
0.558692 0.266667 0.071596
0.620769 0.266667 0.071596
0.682845 0.266667 0.071596
0.744922 0.266667 0.071596
0.806999 0.266667 0.071596
0.869076 0.266667 0.071596
0.931153 0.266667 0.071596
0.000000 0.333333 0.071596
0.062077 0.333333 0.071596
0.124154 0.333333 0.071596
0.186231 0.333333 0.071596
0.248307 0.333333 0.071596
0.310384 0.333333 0.071596
0.372461 0.333333 0.071596
0.434538 0.333333 0.071596
0.496615 0.333333 0.071596
0.558692 0.333333 0.071596
0.620769 0.333333 0.071596
0.682845 0.333333 0.071596
0.744922 0.333333 0.071596
0.806999 0.333333 0.071596
0.869076 0.333333 0.071596
0.931153 0.333333 0.071596
0.000000 0.400000 0.071596
0.062077 0.400000 0.071596
0.124154 0.400000 0.071596
0.186231 0.400000 0.071596
0.248307 0.400000 0.071596
0.310384 0.400000 0.071596
0.372461 0.400000 0.071596
0.434538 0.400000 0.071596
0.496615 0.400000 0.071596
0.558692 0.400000 0.071596
0.620769 0.400000 0.071596
0.682845 0.400000 0.071596
0.744922 0.400000 0.071596
0.806999 0.400000 0.071596
0.869076 0.400000 0.071596
0.931153 0.400000 0.071596
0.000000 0.466667 0.071596
0.062077 0.466667 0.071596
0.124154 0.466667 0.071596
0.186231 0.466667 0.071596
0.248307 0.466667 0.071596
0.310384 0.466667 0.071596
0.372461 0.466667 0.071596
0.434538 0.466667 0.071596
0.496615 0.466667 0.071596
0.558692 0.466667 0.071596
0.620769 0.466667 0.071596
0.682845 0.466667 0.071596
0.744922 0.466667 0.071596
0.806999 0.466667 0.071596
0.869076 0.466667 0.071596
0.931153 0.466667 0.071596
0.000000 0.533333 0.071596
0.062077 0.533333 0.071596
0.124154 0.533333 0.071596
0.186231 0.533333 0.071596
0.248307 0.533333 0.071596
0.310384 0.533333 0.071596
0.372461 0.533333 0.071596
0.434538 0.533333 0.071596
0.496615 0.533333 0.071596
0.558692 0.533333 0.071596
0.620769 0.533333 0.071596
0.682845 0.533333 0.071596
0.744922 0.533333 0.071596
0.806999 0.533333 0.071596
0.869076 0.533333 0.071596
0.931153 0.533333 0.071596
0.000000 0.600000 0.071596
0.062077 0.600000 0.071596
0.124154 0.600000 0.071596
0.186231 0.600000 0.071596
0.248307 0.600000 0.071596
0.310384 0.600000 0.071596
0.372461 0.600000 0.071596
0.434538 0.600000 0.071596
0.496615 0.600000 0.071596
0.558692 0.600000 0.071596
0.620769 0.600000 0.071596
0.682845 0.600000 0.071596
0.744922 0.600000 0.071596
0.806999 0.600000 0.071596
0.869076 0.600000 0.071596
0.931153 0.600000 0.071596
0.000000 0.666667 0.071596
0.062077 0.666667 0.071596
0.124154 0.666667 0.071596
0.186231 0.666667 0.071596
0.248307 0.666667 0.071596
0.310384 0.666667 0.071596
0.372461 0.666667 0.071596
0.434538 0.666667 0.071596
0.496615 0.666667 0.071596
0.558692 0.666667 0.071596
0.620769 0.666667 0.071596
0.682845 0.666667 0.071596
0.744922 0.666667 0.071596
0.806999 0.666667 0.071596
0.869076 0.666667 0.071596
0.931153 0.666667 0.071596
0.000000 0.733333 0.071596
0.062077 0.733333 0.071596
0.124154 0.733333 0.071596
0.186231 0.733333 0.071596
0.248307 0.733333 0.071596
0.310384 0.733333 0.071596
0.372461 0.733333 0.071596
0.434538 0.733333 0.071596
0.496615 0.733333 0.071596
0.558692 0.733333 0.071596
0.620769 0.733333 0.071596
0.682845 0.733333 0.071596
0.744922 0.733333 0.071596
0.806999 0.733333 0.071596
0.869076 0.733333 0.071596
0.931153 0.733333 0.071596
0.000000 0.800000 0.071596
0.062077 0.800000 0.071596
0.124154 0.800000 0.071596
0.186231 0.800000 0.071596
0.248307 0.800000 0.071596
0.310384 0.800000 0.071596
0.372461 0.800000 0.071596
0.434538 0.800000 0.071596
0.496615 0.800000 0.071596
0.558692 0.800000 0.071596
0.620769 0.800000 0.071596
0.682845 0.800000 0.071596
0.744922 0.800000 0.071596
0.806999 0.800000 0.071596
0.869076 0.800000 0.071596
0.931153 0.800000 0.071596
0.000000 0.866667 0.071596
0.062077 0.866667 0.071596
0.124154 0.866667 0.071596
0.186231 0.866667 0.071596
0.248307 0.866667 0.071596
0.310384 0.866667 0.071596
0.372461 0.866667 0.071596
0.434538 0.866667 0.071596
0.496615 0.866667 0.071596
0.558692 0.866667 0.071596
0.620769 0.866667 0.071596
0.682845 0.866667 0.071596
0.744922 0.866667 0.071596
0.806999 0.866667 0.071596
0.869076 0.866667 0.071596
0.931153 0.866667 0.071596
0.000000 0.933333 0.071596
0.062077 0.933333 0.071596
0.124154 0.933333 0.071596
0.186231 0.933333 0.071596
0.248307 0.933333 0.071596
0.310384 0.933333 0.071596
0.372461 0.933333 0.071596
0.434538 0.933333 0.071596
0.496615 0.933333 0.071596
0.558692 0.933333 0.071596
0.620769 0.933333 0.071596
0.682845 0.933333 0.071596
0.744922 0.933333 0.071596
0.806999 0.933333 0.071596
0.869076 0.933333 0.071596
0.931153 0.933333 0.071596
0.000000 1.000000 0.071596
0.062077 1.000000 0.071596
0.124154 1.000000 0.071596
0.186231 1.000000 0.071596
0.248307 1.000000 0.071596
0.310384 1.000000 0.071596
0.372461 1.000000 0.071596
0.434538 1.000000 0.071596
0.496615 1.000000 0.071596
0.558692 1.000000 0.071596
0.620769 1.000000 0.071596
0.682845 1.000000 0.071596
0.744922 1.000000 0.071596
0.806999 1.000000 0.071596
0.869076 1.000000 0.071596
0.931153 1.000000 0.071596
0.000000 0.000000 0.143192
0.062077 0.000000 0.143192
0.124154 0.000000 0.143192
0.186231 0.000000 0.143192
0.248307 0.000000 0.143192
0.310384 0.000000 0.143192
0.372461 0.000000 0.143192
0.434538 0.000000 0.143192
0.496615 0.000000 0.143192
0.558692 0.000000 0.143192
0.620769 0.000000 0.143192
0.682845 0.000000 0.143192
0.744922 0.000000 0.143192
0.806999 0.000000 0.143192
0.869076 0.000000 0.143192
0.931153 0.000000 0.143192
0.000000 0.066667 0.143192
0.062077 0.066667 0.143192
0.124154 0.066667 0.143192
0.186231 0.066667 0.143192
0.248307 0.066667 0.143192
0.310384 0.066667 0.143192
0.372461 0.066667 0.143192
0.434538 0.066667 0.143192
0.496615 0.066667 0.143192
0.558692 0.066667 0.143192
0.620769 0.066667 0.143192
0.682845 0.066667 0.143192
0.744922 0.066667 0.143192
0.806999 0.066667 0.143192
0.869076 0.066667 0.143192
0.931153 0.066667 0.143192
0.000000 0.133333 0.143192
0.062077 0.133333 0.143192
0.124154 0.133333 0.143192
0.186231 0.133333 0.143192
0.248307 0.133333 0.143192
0.310384 0.133333 0.143192
0.372461 0.133333 0.143192
0.434538 0.133333 0.143192
0.496615 0.133333 0.143192
0.558692 0.133333 0.143192
0.620769 0.133333 0.143192
0.682845 0.133333 0.143192
0.744922 0.133333 0.143192
0.806999 0.133333 0.143192
0.869076 0.133333 0.143192
0.931153 0.133333 0.143192
0.000000 0.200000 0.143192
0.062077 0.200000 0.143192
0.124154 0.200000 0.143192
0.186231 0.200000 0.143192
0.248307 0.200000 0.143192
0.310384 0.200000 0.143192
0.372461 0.200000 0.143192
0.434538 0.200000 0.143192
0.496615 0.200000 0.143192
0.558692 0.200000 0.143192
0.620769 0.200000 0.143192
0.682845 0.200000 0.143192
0.744922 0.200000 0.143192
0.806999 0.200000 0.143192
0.869076 0.200000 0.143192
0.931153 0.200000 0.143192
0.000000 0.266667 0.143192
0.062077 0.266667 0.143192
0.124154 0.266667 0.143192
0.186231 0.266667 0.143192
0.248307 0.266667 0.143192
0.310384 0.266667 0.143192
0.372461 0.266667 0.143192
0.434538 0.266667 0.143192
0.496615 0.266667 0.143192
0.558692 0.266667 0.143192
0.620769 0.266667 0.143192
0.682845 0.266667 0.143192
0.744922 0.266667 0.143192
0.806999 0.266667 0.143192
0.869076 0.266667 0.143192
0.931153 0.266667 0.143192
0.000000 0.333333 0.143192
0.062077 0.333333 0.143192
0.124154 0.333333 0.143192
0.186231 0.333333 0.143192
0.248307 0.333333 0.143192
0.310384 0.333333 0.143192
0.372461 0.333333 0.143192
0.434538 0.333333 0.143192
0.496615 0.333333 0.143192
0.558692 0.333333 0.143192
0.620769 0.333333 0.143192
0.682845 0.333333 0.143192
0.744922 0.333333 0.143192
0.806999 0.333333 0.143192
0.869076 0.333333 0.143192
0.931153 0.333333 0.143192
0.000000 0.400000 0.143192
0.062077 0.400000 0.143192
0.124154 0.400000 0.143192
0.186231 0.400000 0.143192
0.248307 0.400000 0.143192
0.310384 0.400000 0.143192
0.372461 0.400000 0.143192
0.434538 0.400000 0.143192
0.496615 0.400000 0.143192
0.558692 0.400000 0.143192
0.620769 0.400000 0.143192
0.682845 0.400000 0.143192
0.744922 0.400000 0.143192
0.806999 0.400000 0.143192
0.869076 0.400000 0.143192
0.931153 0.400000 0.143192
0.000000 0.466667 0.143192
0.062077 0.466667 0.143192
0.124154 0.466667 0.143192
0.186231 0.466667 0.143192
0.248307 0.466667 0.143192
0.310384 0.466667 0.143192
0.372461 0.466667 0.143192
0.434538 0.466667 0.143192
0.496615 0.466667 0.143192
0.558692 0.466667 0.143192
0.620769 0.466667 0.143192
0.682845 0.466667 0.143192
0.744922 0.466667 0.143192
0.806999 0.466667 0.143192
0.869076 0.466667 0.143192
0.931153 0.466667 0.143192
0.000000 0.533333 0.143192
0.062077 0.533333 0.143192
0.124154 0.533333 0.143192
0.186231 0.533333 0.143192
0.248307 0.533333 0.143192
0.310384 0.533333 0.143192
0.372461 0.533333 0.143192
0.434538 0.533333 0.143192
0.496615 0.533333 0.143192
0.558692 0.533333 0.143192
0.620769 0.533333 0.143192
0.682845 0.533333 0.143192
0.744922 0.533333 0.143192
0.806999 0.533333 0.143192
0.869076 0.533333 0.143192
0.931153 0.533333 0.143192
0.000000 0.600000 0.143192
0.062077 0.600000 0.143192
0.124154 0.600000 0.143192
0.186231 0.600000 0.143192
0.248307 0.600000 0.143192
0.310384 0.600000 0.143192
0.372461 0.600000 0.143192
0.434538 0.600000 0.143192
0.496615 0.600000 0.143192
0.558692 0.600000 0.143192
0.620769 0.600000 0.143192
0.682845 0.600000 0.143192
0.744922 0.600000 0.143192
0.806999 0.600000 0.143192
0.869076 0.600000 0.143192
0.931153 0.600000 0.143192
0.000000 0.666667 0.143192
0.062077 0.666667 0.143192
0.124154 0.666667 0.143192
0.186231 0.666667 0.143192
0.248307 0.666667 0.143192
0.310384 0.666667 0.143192
0.372461 0.666667 0.143192
0.434538 0.666667 0.143192
0.496615 0.666667 0.143192
0.558692 0.666667 0.143192
0.620769 0.666667 0.143192
0.682845 0.666667 0.143192
0.744922 0.666667 0.143192
0.806999 0.666667 0.143192
0.869076 0.666667 0.143192
0.931153 0.666667 0.143192
0.000000 0.733333 0.143192
0.062077 0.733333 0.143192
0.124154 0.733333 0.143192
0.186231 0.733333 0.143192
0.248307 0.733333 0.143192
0.310384 0.733333 0.143192
0.372461 0.733333 0.143192
0.434538 0.733333 0.143192
0.496615 0.733333 0.143192
0.558692 0.733333 0.143192
0.620769 0.733333 0.143192
0.682845 0.733333 0.143192
0.744922 0.733333 0.143192
0.806999 0.733333 0.143192
0.869076 0.733333 0.143192
0.931153 0.733333 0.143192
0.000000 0.800000 0.143192
0.062077 0.800000 0.143192
0.124154 0.800000 0.143192
0.186231 0.800000 0.143192
0.248307 0.800000 0.143192
0.310384 0.800000 0.143192
0.372461 0.800000 0.143192
0.434538 0.800000 0.143192
0.496615 0.800000 0.143192
0.558692 0.800000 0.143192
0.620769 0.800000 0.143192
0.682845 0.800000 0.143192
0.744922 0.800000 0.143192
0.806999 0.800000 0.143192
0.869076 0.800000 0.143192
0.931153 0.800000 0.143192
0.000000 0.866667 0.143192
0.062077 0.866667 0.143192
0.124154 0.866667 0.143192
0.186231 0.866667 0.143192
0.248307 0.866667 0.143192
0.310384 0.866667 0.143192
0.372461 0.866667 0.143192
0.434538 0.866667 0.143192
0.496615 0.866667 0.143192
0.558692 0.866667 0.143192
0.620769 0.866667 0.143192
0.682845 0.866667 0.143192
0.744922 0.866667 0.143192
0.806999 0.866667 0.143192
0.869076 0.866667 0.143192
0.931153 0.866667 0.143192
0.000000 0.933333 0.143192
0.062077 0.933333 0.143192
0.124154 0.933333 0.143192
0.186231 0.933333 0.143192
0.248307 0.933333 0.143192
0.310384 0.933333 0.143192
0.372461 0.933333 0.143192
0.434538 0.933333 0.143192
0.496615 0.933333 0.143192
0.558692 0.933333 0.143192
0.620769 0.933333 0.143192
0.682845 0.933333 0.143192
0.744922 0.933333 0.143192
0.806999 0.933333 0.143192
0.869076 0.933333 0.143192
0.931153 0.933333 0.143192
0.000000 1.000000 0.143192
0.062077 1.000000 0.143192
0.124154 1.000000 0.143192
0.186231 1.000000 0.143192
0.248307 1.000000 0.143192
0.310384 1.000000 0.143192
0.372461 1.000000 0.143192
0.434538 1.000000 0.143192
0.496615 1.000000 0.143192
0.558692 1.000000 0.143192
0.620769 1.000000 0.143192
0.682845 1.000000 0.143192
0.744922 1.000000 0.143192
0.806999 1.000000 0.143192
0.869076 1.000000 0.143192
0.931153 1.000000 0.143192
0.000000 0.000000 0.214787
0.062077 0.000000 0.214787
0.124154 0.000000 0.214787
0.186231 0.000000 0.214787
0.248307 0.000000 0.214787
0.310384 0.000000 0.214787
0.372461 0.000000 0.214787
0.434538 0.000000 0.214787
0.496615 0.000000 0.214787
0.558692 0.000000 0.214787
0.620769 0.000000 0.214787
0.682845 0.000000 0.214787
0.744922 0.000000 0.214787
0.806999 0.000000 0.214787
0.869076 0.000000 0.214787
0.931153 0.000000 0.214787
0.000000 0.066667 0.214787
0.062077 0.066667 0.214787
0.124154 0.066667 0.214787
0.186231 0.066667 0.214787
0.248307 0.066667 0.214787
0.310384 0.066667 0.214787
0.372461 0.066667 0.214787
0.434538 0.066667 0.214787
0.496615 0.066667 0.214787
0.558692 0.066667 0.214787
0.620769 0.066667 0.214787
0.682845 0.066667 0.214787
0.744922 0.066667 0.214787
0.806999 0.066667 0.214787
0.869076 0.066667 0.214787
0.931153 0.066667 0.214787
0.000000 0.133333 0.214787
0.062077 0.133333 0.214787
0.124154 0.133333 0.214787
0.186231 0.133333 0.214787
0.248307 0.133333 0.214787
0.310384 0.133333 0.214787
0.372461 0.133333 0.214787
0.434538 0.133333 0.214787
0.496615 0.133333 0.214787
0.558692 0.133333 0.214787
0.620769 0.133333 0.214787
0.682845 0.133333 0.214787
0.744922 0.133333 0.214787
0.806999 0.133333 0.214787
0.869076 0.133333 0.214787
0.931153 0.133333 0.214787
0.000000 0.200000 0.214787
0.062077 0.200000 0.214787
0.124154 0.200000 0.214787
0.186231 0.200000 0.214787
0.248307 0.200000 0.214787
0.310384 0.200000 0.214787
0.372461 0.200000 0.214787
0.434538 0.200000 0.214787
0.496615 0.200000 0.214787
0.558692 0.200000 0.214787
0.620769 0.200000 0.214787
0.682845 0.200000 0.214787
0.744922 0.200000 0.214787
0.806999 0.200000 0.214787
0.869076 0.200000 0.214787
0.931153 0.200000 0.214787
0.000000 0.266667 0.214787
0.062077 0.266667 0.214787
0.124154 0.266667 0.214787
0.186231 0.266667 0.214787
0.248307 0.266667 0.214787
0.310384 0.266667 0.214787
0.372461 0.266667 0.214787
0.434538 0.266667 0.214787
0.496615 0.266667 0.214787
0.558692 0.266667 0.214787
0.620769 0.266667 0.214787
0.682845 0.266667 0.214787
0.744922 0.266667 0.214787
0.806999 0.266667 0.214787
0.869076 0.266667 0.214787
0.931153 0.266667 0.214787
0.000000 0.333333 0.214787
0.062077 0.333333 0.214787
0.124154 0.333333 0.214787
0.186231 0.333333 0.214787
0.248307 0.333333 0.214787
0.310384 0.333333 0.214787
0.372461 0.333333 0.214787
0.434538 0.333333 0.214787
0.496615 0.333333 0.214787
0.558692 0.333333 0.214787
0.620769 0.333333 0.214787
0.682845 0.333333 0.214787
0.744922 0.333333 0.214787
0.806999 0.333333 0.214787
0.869076 0.333333 0.214787
0.931153 0.333333 0.214787
0.000000 0.400000 0.214787
0.062077 0.400000 0.214787
0.124154 0.400000 0.214787
0.186231 0.400000 0.214787
0.248307 0.400000 0.214787
0.310384 0.400000 0.214787
0.372461 0.400000 0.214787
0.434538 0.400000 0.214787
0.496615 0.400000 0.214787
0.558692 0.400000 0.214787
0.620769 0.400000 0.214787
0.682845 0.400000 0.214787
0.744922 0.400000 0.214787
0.806999 0.400000 0.214787
0.869076 0.400000 0.214787
0.931153 0.400000 0.214787
0.000000 0.466667 0.214787
0.062077 0.466667 0.214787
0.124154 0.466667 0.214787
0.186231 0.466667 0.214787
0.248307 0.466667 0.214787
0.310384 0.466667 0.214787
0.372461 0.466667 0.214787
0.434538 0.466667 0.214787
