tools/decompiled/jadx/resources/res/raw/noir.cube
LUT_3D_SIZE 16
-0.039976 -0.039661 -0.040220
-0.039488 -0.039174 -0.039732
-0.026379 -0.026071 -0.026629
-0.002908 -0.002607 -0.003133
0.025389 0.025681 0.025179
0.055125 0.055413 0.054922
0.087914 0.088196 0.087720
0.124810 0.125093 0.124623
0.166921 0.167210 0.166743
0.215142 0.215431 0.214986
0.268808 0.269090 0.268654
0.328501 0.328784 0.328345
0.394253 0.394554 0.394118
0.469427 0.469745 0.469326
0.552193 0.552510 0.552097
0.629258 0.629571 0.629166
-0.037005 -0.036690 -0.037249
-0.033967 -0.033651 -0.034214
-0.018596 -0.018296 -0.018843
0.006164 0.006466 0.005948
0.033693 0.033979 0.033485
0.064504 0.064791 0.064307
0.098470 0.098753 0.098278
0.136717 0.137003 0.136533
0.180113 0.180402 0.179937
0.228776 0.229066 0.228628
0.282482 0.282763 0.282329
0.342134 0.342417 0.341977
0.408207 0.408511 0.408082
0.484407 0.484733 0.484311
0.565486 0.565797 0.565389
0.640045 0.640360 0.639957
-0.023955 -0.023651 -0.024206
-0.017767 -0.017467 -0.018013
0.000650 0.000953 0.000430
0.025334 0.025627 0.025125
0.053962 0.054251 0.053759
0.085323 0.085605 0.085129
0.119867 0.120149 0.119679
0.159529 0.159816 0.159346
0.202867 0.203158 0.202705
0.251191 0.251477 0.251046
0.304455 0.304737 0.304299
0.363442 0.363733 0.363296
0.429396 0.429702 0.429283
0.505734 0.506063 0.505640
0.584313 0.584626 0.584221
0.656049 0.656368 0.655970
-0.005981 -0.005681 -0.006210
0.003965 0.004269 0.003749
0.023492 0.023786 0.023282
0.049750 0.050040 0.049544
0.079346 0.079629 0.079152
0.110528 0.110811 0.110338
0.145269 0.145558 0.145088
0.183997 0.184287 0.183825
0.227378 0.227668 0.227229
0.275630 0.275912 0.275477
0.328674 0.328956 0.328516
0.387781 0.388081 0.387647
0.454411 0.454723 0.454304
0.529601 0.529929 0.529509
0.605405 0.605722 0.605316
0.674088 0.674413 0.674014
0.015712 0.016012 0.015501
0.028661 0.028951 0.028452
0.049659 0.049950 0.049454
0.077271 0.077554 0.077076
0.106862 0.107144 0.106671
0.137814 0.138101 0.137632
0.172075 0.172362 0.171894
0.209732 0.210019 0.209571
0.252341 0.252627 0.252193
0.299648 0.299930 0.299492
0.352506 0.352793 0.352354
0.412414 0.412718 0.412290
0.480967 0.481295 0.480873
0.555163 0.555483 0.555070
0.627040 0.627358 0.626954
0.693620 0.693953 0.693554
0.039937 0.040224 0.039729
0.056316 0.056605 0.056114
0.079132 0.079415 0.078938
0.106210 0.106492 0.106019
0.135326 0.135612 0.135143
0.166511 0.166798 0.166330
0.199754 0.200043 0.199590
0.237212 0.237503 0.237067
0.278985 0.279267 0.278829
0.325350 0.325633 0.325195
0.377748 0.378045 0.377612
0.438049 0.438355 0.437935
0.507590 0.507918 0.507495
0.580780 0.581093 0.580689
0.649976 0.650299 0.649900
0.713783 0.714116 0.713719
0.068939 0.069224 0.068744
0.087432 0.087714 0.087238
0.111188 0.111470 0.110998
0.138033 0.138319 0.137850
0.165969 0.166257 0.165788
0.195833 0.196124 0.195668
0.229286 0.229577 0.229138
0.265858 0.266141 0.265706
0.307232 0.307514 0.307077
0.353286 0.353572 0.353134
0.405561 0.405865 0.405428
0.466599 0.466918 0.466498
0.534753 0.535079 0.534661
0.605824 0.606140 0.605735
0.672563 0.672887 0.672489
0.734835 0.735172 0.734781
0.101844 0.102126 0.101652
0.121526 0.121809 0.121339
0.146196 0.146485 0.146016
0.171830 0.172118 0.171650
0.198764 0.199053 0.198599
0.227854 0.228146 0.227705
0.259954 0.260237 0.259803
0.296447 0.296729 0.296292
0.336955 0.337238 0.336799
0.382760 0.383058 0.382621
0.435919 0.436224 0.435802
0.497502 0.497828 0.497406
0.563704 0.564018 0.563608
0.630875 0.631191 0.630786
0.695165 0.695498 0.695099
0.754959 0.755306 0.754923
0.138728 0.139015 0.138546
0.159291 0.159579 0.159110
0.183303 0.183593 0.183129
0.207912 0.208202 0.207752
0.233821 0.234114 0.233677
0.262386 0.262669 0.262234
0.293608 0.293890 0.293455
0.329070 0.329353 0.328914
0.369157 0.369450 0.369015
0.414498 0.414803 0.414375
0.468940 0.469259 0.468841
0.530201 0.530526 0.530106
0.593569 0.593878 0.593474
0.657186 0.657504 0.657106
0.718247 0.718580 0.718183
0.775296 0.775661 0.775270
0.179376 0.179665 0.179200
0.200002 0.200291 0.199838
0.222767 0.223058 0.222614
0.246475 0.246763 0.246330
0.271802 0.272085 0.271649
0.299369 0.299651 0.299216
0.329994 0.330277 0.329838
0.364577 0.364868 0.364431
0.404170 0.404474 0.404037
0.450058 0.450367 0.449946
0.504383 0.504712 0.504289
0.563347 0.563658 0.563250
0.623990 0.624300 0.623893
0.683988 0.684315 0.683916
0.742129 0.742468 0.742081
0.796297 0.796667 0.796273
0.222429 0.222720 0.222276
0.242570 0.242860 0.242427
0.263912 0.264194 0.263758
0.286785 0.287067 0.286632
0.311066 0.311348 0.310909
0.338145 0.338428 0.337989
0.368273 0.368565 0.368128
0.402557 0.402860 0.402425
0.442227 0.442534 0.442113
0.488758 0.489085 0.488664
0.540659 0.540984 0.540567
0.595805 0.596120 0.595716
0.653240 0.653562 0.653163
0.711216 0.711546 0.711148
0.765855 0.766211 0.765825
0.817352 0.817713 0.817322
0.266807 0.267090 0.266653
0.285650 0.285932 0.285497
0.306062 0.306345 0.305907
0.327888 0.328171 0.327732
0.352098 0.352382 0.351942
0.378337 0.378634 0.378200
0.408834 0.409139 0.408707
0.443882 0.444190 0.443770
0.484284 0.484611 0.484190
0.529210 0.529536 0.529115
0.578032 0.578334 0.577932
0.628418 0.628731 0.628325
0.682433 0.682761 0.682362
0.737742 0.738079 0.737690
0.789670 0.790044 0.789646
0.839203 0.839556 0.839171
0.311580 0.311862 0.311421
0.329094 0.329378 0.328939
0.348693 0.348977 0.348537
0.369865 0.370159 0.369723
0.393415 0.393716 0.393279
0.420224 0.420529 0.420104
0.451179 0.451487 0.451067
0.487130 0.487459 0.487038
0.526336 0.526663 0.526242
0.569437 0.569744 0.569339
0.614716 0.615029 0.614621
0.661985 0.662302 0.661903
0.712501 0.712831 0.712433
0.763996 0.764349 0.763964
0.812211 0.812575 0.812185
0.861825 0.862192 0.861805
0.354500 0.354785 0.354345
0.371061 0.371354 0.370919
0.389756 0.390056 0.389619
0.410911 0.411216 0.410784
0.434919 0.435225 0.434804
0.462507 0.462823 0.462405
0.494465 0.494794 0.494372
0.529204 0.529530 0.529109
0.567294 0.567604 0.567196
0.608034 0.608349 0.607943
0.651074 0.651395 0.650996
0.696421 0.696752 0.696352
0.744248 0.744586 0.744201
0.790163 0.790536 0.790140
0.835368 0.835720 0.835332
0.884309 0.884673 0.884298
0.395379 0.395682 0.395240
0.411533 0.411838 0.411407
0.430343 0.430649 0.430228
0.452086 0.452397 0.451977
0.476810 0.477134 0.476715
0.505041 0.505369 0.504946
0.536150 0.536477 0.536057
0.570211 0.570518 0.570112
0.606769 0.607084 0.606678
0.645956 0.646276 0.645876
0.687470 0.687800 0.687401
0.731807 0.732143 0.731751
0.776657 0.777023 0.776631
0.818327 0.818688 0.818299
0.860097 0.860464 0.860074
0.907968 0.908339 0.907940
0.435575 0.435880 0.435460
0.452115 0.452425 0.452005
0.471894 0.472216 0.471797
0.494631 0.494961 0.494539
0.519489 0.519815 0.519393
0.547930 0.548254 0.547837
0.578830 0.579132 0.578730
0.612162 0.612476 0.612068
0.648304 0.648623 0.648223
0.687339 0.687668 0.687269
0.729155 0.729490 0.729096
0.772694 0.773057 0.772667
0.814204 0.814567 0.814178
0.852934 0.853293 0.852911
0.892642 0.893011 0.892627
0.935974 0.936342 0.935957
-0.039804 -0.039490 -0.040049
-0.039028 -0.038714 -0.039273
-0.026226 -0.025919 -0.026477
-0.003225 -0.002923 -0.003449
0.024128 0.024421 0.023918
0.053597 0.053888 0.053395
0.086668 0.086951 0.086474
0.123690 0.123974 0.123504
0.166462 0.166751 0.166284
0.214552 0.214839 0.214394
0.267763 0.268045 0.267608
0.327014 0.327297 0.326859
0.392242 0.392544 0.392103
0.466441 0.466759 0.466340
0.549160 0.549479 0.549064
0.626285 0.626600 0.626195
-0.035664 -0.035348 -0.035909
-0.032107 -0.031792 -0.032354
-0.016778 -0.016479 -0.017023
0.006442 0.006745 0.006227
0.033768 0.034056 0.033558
0.064589 0.064875 0.064392
0.098510 0.098793 0.098318
0.136923 0.137209 0.136740
0.180656 0.180947 0.180483
0.229268 0.229557 0.229119
0.282628 0.282911 0.282474
0.341945 0.342230 0.341792
0.407911 0.408214 0.407782
0.483584 0.483908 0.483486
0.564877 0.565187 0.564779
0.639208 0.639523 0.639120
-0.020866 -0.020565 -0.021116
-0.013851 -0.013553 -0.014092
0.003716 0.004019 0.003499
0.027634 0.027925 0.027425
0.056472 0.056762 0.056270
0.087927 0.088209 0.087732
0.122744 0.123028 0.122558
0.161542 0.161830 0.161361
0.204709 0.204998 0.204548
0.253022 0.253306 0.252875
0.305668 0.305950 0.305511
0.364575 0.364867 0.364432
0.430379 0.430685 0.430263
0.506263 0.506592 0.506169
0.584504 0.584816 0.584411
0.655961 0.656280 0.655882
-0.001309 -0.001006 -0.001531
0.008836 0.009139 0.008623
0.027948 0.028238 0.027739
0.054098 0.054388 0.053895
0.083304 0.083586 0.083110
0.114477 0.114759 0.114289
0.149428 0.149717 0.149248
0.188238 0.188527 0.188067
0.231413 0.231702 0.231264
0.278890 0.279171 0.278736
0.331096 0.331379 0.330939
0.389556 0.389856 0.389424
0.455928 0.456240 0.455820
0.530784 0.531111 0.530691
0.606119 0.606436 0.606029
0.674727 0.675051 0.674653
0.021687 0.021983 0.021477
0.034386 0.034673 0.034176
0.055611 0.055900 0.055409
0.082675 0.082957 0.082481
0.111851 0.112133 0.111662
0.142647 0.142934 0.142465
0.176613 0.176901 0.176434
0.214369 0.214657 0.214210
0.256860 0.257144 0.256709
0.304068 0.304350 0.303912
0.356579 0.356867 0.356430
0.415954 0.416258 0.415831
0.483519 0.483848 0.483426
0.556857 0.557177 0.556765
0.628297 0.628614 0.628210
0.694610 0.694943 0.694544
0.047001 0.047291 0.046795
0.062964 0.063251 0.062766
0.085597 0.085879 0.085402
0.112198 0.112480 0.112009
0.141005 0.141293 0.140823
0.171765 0.172053 0.171586
0.204743 0.205032 0.204581
0.241942 0.242232 0.241798
0.283526 0.283808 0.283373
0.329931 0.330215 0.329776
0.382152 0.382450 0.382017
0.442715 0.443022 0.442602
0.511588 0.511915 0.511493
0.583575 0.583888 0.583484
0.651697 0.652019 0.651621
0.715123 0.715456 0.715059
0.076760 0.077043 0.076567
0.094505 0.094787 0.094311
0.118085 0.118367 0.117897
0.144439 0.144727 0.144258
0.171924 0.172212 0.171744
0.201273 0.201562 0.201109
0.234372 0.234663 0.234226
0.270820 0.271101 0.270666
0.312027 0.312309 0.311871
0.357869 0.358156 0.357716
0.410056 0.410361 0.409926
0.471359 0.471681 0.471260
0.539266 0.539591 0.539174
0.609612 0.609928 0.609522
0.675551 0.675876 0.675477
0.736577 0.736914 0.736525
0.109982 0.110264 0.109792
0.128866 0.129150 0.128681
0.153111 0.153400 0.152930
0.178170 0.178458 0.177993
0.204675 0.204963 0.204512
0.233344 0.233635 0.233197
0.265168 0.265450 0.265014
0.301397 0.301679 0.301241
0.341951 0.342234 0.341793
0.387491 0.387792 0.387351
0.440547 0.440854 0.440432
0.502081 0.502408 0.501986
0.567936 0.568249 0.567841
0.634821 0.635138 0.634734
0.698536 0.698869 0.698470
0.757936 0.758285 0.757902
0.147046 0.147335 0.146865
0.166529 0.166816 0.166347
0.189837 0.190128 0.189668
0.214156 0.214445 0.213998
0.239744 0.240035 0.239601
0.267780 0.268063 0.267627
0.298780 0.299062 0.298626
0.333852 0.334135 0.333697
0.373750 0.374045 0.373611
0.419281 0.419586 0.419162
0.473745 0.474067 0.473649
0.534586 0.534910 0.534491
0.597605 0.597915 0.597510
0.660832 0.661151 0.660752
0.721622 0.721955 0.721559
0.778269 0.778637 0.778244
0.187077 0.187368 0.186906
0.206647 0.206935 0.206485
0.229137 0.229430 0.228990
0.252477 0.252762 0.252330
0.277384 0.277666 0.277230
0.304602 0.304884 0.304447
0.334954 0.335237 0.334798
0.369320 0.369612 0.369176
0.408648 0.408952 0.408518
0.454697 0.455008 0.454587
0.508953 0.509281 0.508858
0.567620 0.567928 0.567522
0.627694 0.628005 0.627599
0.687476 0.687805 0.687405
0.745410 0.745751 0.745365
0.799245 0.799614 0.799221
0.229511 0.229803 0.229363
0.248760 0.249047 0.248615
0.269884 0.270166 0.269728
0.292400 0.292681 0.292246
0.316382 0.316663 0.316224
0.343088 0.343371 0.342932
0.372994 0.373288 0.372853
0.407076 0.407380 0.406947
0.446835 0.447144 0.446724
0.493244 0.493571 0.493150
0.544980 0.545304 0.544887
0.599854 0.600171 0.599767
0.657051 0.657373 0.656974
0.714810 0.715141 0.714742
0.769019 0.769379 0.768990
0.820345 0.820705 0.820314
0.272881 0.273163 0.272725
0.291181 0.291463 0.291028
0.311329 0.311611 0.311172
0.333003 0.333286 0.332847
0.356914 0.357200 0.356760
0.383143 0.383441 0.383007
0.413366 0.413671 0.413242
0.448509 0.448818 0.448398
0.488892 0.489221 0.488799
0.533471 0.533798 0.533377
0.581969 0.582272 0.581870
0.632216 0.632530 0.632125
0.686215 0.686545 0.686146
0.741357 0.741696 0.741308
0.792801 0.793175 0.792777
0.842200 0.842554 0.842171
0.316841 0.317123 0.316683
0.333994 0.334277 0.333838
0.353449 0.353734 0.353294
0.374290 0.374585 0.374152
0.397986 0.398288 0.397851
0.424810 0.425115 0.424692
0.455840 0.456152 0.455733
0.491573 0.491904 0.491481
0.530640 0.530967 0.530546
0.573511 0.573816 0.573412
0.618537 0.618850 0.618442
0.665863 0.666181 0.665782
0.716129 0.716460 0.716062
0.767456 0.767812 0.767426
0.815492 0.815854 0.815465
0.864933 0.865301 0.864913
0.359125 0.359412 0.358973
0.375426 0.375721 0.375287
0.394138 0.394440 0.394001
0.415307 0.415612 0.415183
0.439284 0.439589 0.439169
0.467094 0.467412 0.466995
0.498815 0.499144 0.498721
0.533514 0.533840 0.533420
0.571391 0.571698 0.571293
0.612032 0.612347 0.611940
0.654901 0.655222 0.654823
0.700274 0.700605 0.700206
0.748036 0.748376 0.747992
0.793362 0.793734 0.793338
0.838495 0.838848 0.838463
0.887427 0.887792 0.887414
0.399572 0.399876 0.399435
0.415769 0.416075 0.415647
0.434635 0.434941 0.434520
0.456422 0.456734 0.456315
0.481347 0.481674 0.481254
0.509364 0.509690 0.509268
0.540586 0.540911 0.540493
0.574514 0.574820 0.574416
0.610792 0.611107 0.610699
0.649900 0.650221 0.649822
0.691422 0.691755 0.691356
0.735754 0.736092 0.735701
0.780360 0.780728 0.780335
0.821769 0.822128 0.821738
0.863464 0.863835 0.863442
0.911199 0.911569 0.911172
0.439805 0.440110 0.439690
0.456527 0.456840 0.456421
0.476436 0.476761 0.476341
0.499100 0.499430 0.499007
0.524046 0.524372 0.523950
0.552559 0.552881 0.552466
0.583238 0.583542 0.583141
0.616559 0.616871 0.616462
0.652699 0.653018 0.652619
0.691844 0.692175 0.691775
0.733718 0.734054 0.733662
0.777002 0.777369 0.776976
0.818117 0.818478 0.818089
0.856696 0.857059 0.856674
0.896112 0.896483 0.896093
0.939340 0.939702 0.939316
-0.036298 -0.035984 -0.036543
-0.034045 -0.033730 -0.034291
-0.020957 -0.020656 -0.021206
0.002482 0.002784 0.002263
0.029369 0.029658 0.029160
0.059132 0.059421 0.058932
0.091664 0.091947 0.091471
0.128492 0.128776 0.128307
0.170865 0.171152 0.170684
0.217988 0.218279 0.217832
0.270500 0.270783 0.270347
0.328292 0.328575 0.328137
0.392488 0.392791 0.392347
0.465878 0.466196 0.465778
0.547645 0.547967 0.547551
0.624341 0.624657 0.624253
-0.030660 -0.030347 -0.030909
-0.025361 -0.025055 -0.025612
-0.008855 -0.008556 -0.009088
0.013653 0.013953 0.013442
0.040900 0.041188 0.040692
0.071415 0.071699 0.071218
0.104572 0.104854 0.104381
0.142699 0.142987 0.142518
0.185556 0.185844 0.185383
0.233085 0.233374 0.232935
0.285618 0.285900 0.285462
0.343870 0.344155 0.343718
0.409038 0.409343 0.408907
0.483409 0.483732 0.483312
0.563649 0.563959 0.563550
0.638245 0.638560 0.638157
-0.014266 -0.013968 -0.014508
-0.005334 -0.005033 -0.005562
0.011165 0.011467 0.010953
0.035034 0.035321 0.034825
0.063561 0.063847 0.063363
0.094407 0.094689 0.094213
0.128420 0.128704 0.128235
0.166563 0.166851 0.166384
0.208973 0.209260 0.208812
0.256601 0.256885 0.256450
0.308765 0.309047 0.308609
0.366910 0.367203 0.366768
0.432456 0.432762 0.432339
0.507568 0.507895 0.507473
0.585073 0.585381 0.584977
0.656509 0.656826 0.656428
0.006879 0.007183 0.006665
0.018310 0.018609 0.018100
0.035579 0.035866 0.035369
0.062125 0.062412 0.061926
0.091122 0.091404 0.090928
0.122149 0.122432 0.121962
0.156721 0.157010 0.156540
0.194655 0.194944 0.194488
0.236733 0.237023 0.236586
0.283299 0.283581 0.283144
0.334754 0.335037 0.334598
0.392546 0.392845 0.392413
0.458705 0.459019 0.458598
0.532892 0.533218 0.532799
0.607646 0.607961 0.607554
0.675715 0.676039 0.675641
0.030854 0.031143 0.030645
0.044634 0.044923 0.044427
0.064241 0.064528 0.064044
0.090660 0.090943 0.090466
0.119623 0.119905 0.119435
0.150203 0.150492 0.150022
0.183927 0.184217 0.183754
0.221362 0.221653 0.221209
0.263382 0.263666 0.263230
0.309684 0.309966 0.309528
0.361272 0.361563 0.361127
0.419629 0.419934 0.419507
0.486841 0.487170 0.486748
0.559417 0.559735 0.559325
0.630193 0.630510 0.630106
0.696071 0.696404 0.696005
0.057416 0.057704 0.057215
0.073649 0.073932 0.073454
0.094635 0.094917 0.094441
0.120417 0.120700 0.120229
0.148721 0.149010 0.148541
0.179100 0.179390 0.178924
0.211727 0.212016 0.211568
0.248599 0.248886 0.248454
0.289873 0.290155 0.289721
0.336031 0.336315 0.335877
0.388075 0.388375 0.387940
0.448171 0.448479 0.448058
0.515629 0.515957 0.515535
0.586570 0.586883 0.586479
0.654058 0.654380 0.653981
0.717045 0.717378 0.716981
0.087216 0.087498 0.087021
0.104902 0.105184 0.104711
0.127276 0.127560 0.127091
0.152822 0.153111 0.152642
0.179637 0.179926 0.179460
0.208434 0.208722 0.208273
0.241133 0.241422 0.240988
0.277219 0.277501 0.277065
0.318064 0.318346 0.317907
0.363798 0.364086 0.363647
0.415913 0.416218 0.415787
0.477208 0.477533 0.477112
0.544630 0.544954 0.544538
0.613622 0.613938 0.613532
0.678543 0.678870 0.678471
0.738938 0.739276 0.738887
0.120379 0.120661 0.120191
0.139355 0.139643 0.139173
0.162045 0.162333 0.161864
0.186390 0.186681 0.186219
0.212231 0.212519 0.212071
0.240292 0.240582 0.240148
0.271567 0.271849 0.271412
0.307361 0.307644 0.307206
0.347749 0.348032 0.347591
0.393173 0.393475 0.393035
0.446189 0.446498 0.446078
0.507520 0.507846 0.507424
0.572967 0.573278 0.572872
0.639299 0.639617 0.639215
0.702471 0.702804 0.702405
0.761120 0.761471 0.761088
0.157142 0.157431 0.156961
0.176423 0.176712 0.176245
0.198229 0.198520 0.198065
0.221989 0.222279 0.221836
0.246958 0.247246 0.246814
0.274479 0.274761 0.274324
0.304947 0.305230 0.304792
0.339735 0.340019 0.339580
0.379230 0.379526 0.379094
0.424726 0.425031 0.424609
0.479355 0.479679 0.479260
0.539820 0.540144 0.539726
0.602371 0.602682 0.602277
0.665265 0.665584 0.665186
0.725629 0.725963 0.725569
0.781809 0.782178 0.781784
0.196284 0.196575 0.196118
0.215611 0.215900 0.215454
0.236760 0.237052 0.236616
0.259714 0.259997 0.259563
0.284046 0.284328 0.283892
0.310942 0.311225 0.310785
0.340881 0.341164 0.340725
0.374861 0.375155 0.374720
0.414139 0.414445 0.414015
0.460146 0.460460 0.460041
0.514277 0.514605 0.514182
0.572759 0.573066 0.572662
0.632297 0.632610 0.632205
0.691830 0.692160 0.691761
0.749295 0.749638 0.749253
0.802594 0.802962 0.802570
0.237719 0.238010 0.237574
0.256425 0.256709 0.256277
0.276784 0.277066 0.276629
0.298756 0.299039 0.298602
0.322570 0.322853 0.322413
0.348981 0.349264 0.348824
0.378594 0.378891 0.378456
0.412506 0.412812 0.412382
0.452283 0.452595 0.452175
0.498588 0.498916 0.498493
0.549939 0.550261 0.549846
0.604518 0.604834 0.604429
0.661540 0.661862 0.661463
0.718980 0.719312 0.718915
0.772905 0.773268 0.772878
0.823969 0.824327 0.823934
0.280062 0.280344 0.279908
0.297906 0.298188 0.297753
0.317426 0.317709 0.317268
0.338937 0.339221 0.338781
0.362490 0.362779 0.362341
0.388674 0.388974 0.388538
0.418765 0.419069 0.418644
0.453965 0.454276 0.453856
0.494101 0.494429 0.494007
0.538619 0.538945 0.538525
0.586583 0.586887 0.586486
0.636762 0.637078 0.636674
0.690730 0.691061 0.690662
0.745679 0.746020 0.745634
0.796530 0.796901 0.796506
0.845833 0.846188 0.845807
0.322891 0.323174 0.322734
0.339994 0.340277 0.339838
0.358919 0.359206 0.358767
0.379684 0.379981 0.379548
0.403357 0.403660 0.403225
0.430120 0.430425 0.430004
0.461102 0.461417 0.460998
0.496753 0.497084 0.496660
0.535679 0.536007 0.535586
0.578222 0.578526 0.578124
0.623142 0.623454 0.623047
0.670270 0.670589 0.670190
0.720507 0.720840 0.720443
0.771590 0.771952 0.771563
0.819298 0.819658 0.819267
0.868584 0.868952 0.868566
0.364493 0.364783 0.364346
0.380646 0.380943 0.380510
0.399377 0.399681 0.399242
0.420529 0.420834 0.420409
0.444515 0.444821 0.444401
0.472445 0.472767 0.472348
0.503923 0.504252 0.503829
0.538558 0.538884 0.538465
0.576325 0.576632 0.576228
0.616794 0.617108 0.616701
0.659475 0.659795 0.659397
0.704845 0.705176 0.704777
0.752384 0.752727 0.752344
0.797360 0.797731 0.797336
0.842249 0.842602 0.842219
0.891208 0.891576 0.891193
0.404641 0.404945 0.404507
0.420694 0.421000 0.420575
0.439671 0.439976 0.439556
0.461602 0.461917 0.461499
0.486737 0.487066 0.486644
0.514478 0.514804 0.514382
0.545689 0.546014 0.545597
0.579422 0.579727 0.579325
0.615709 0.616023 0.615615
0.654653 0.654973 0.654575
0.696172 0.696505 0.696106
0.740547 0.740887 0.740498
0.784751 0.785122 0.784726
0.825739 0.826096 0.825705
0.867216 0.867589 0.867196
0.914795 0.915165 0.914770
0.444774 0.445080 0.444660
0.461734 0.462049 0.461631
0.481863 0.482190 0.481770
0.504343 0.504671 0.504249
0.529584 0.529910 0.529489
0.557893 0.558210 0.557799
0.588495 0.588802 0.588401
0.621774 0.622084 0.621675
0.657974 0.658293 0.657894
0.697084 0.697415 0.697016
0.739069 0.739407 0.739018
0.782147 0.782519 0.782122
0.822721 0.823080 0.822690
0.861150 0.861516 0.861128
0.900184 0.900556 0.900160
0.943149 0.943505 0.943118
-0.030261 -0.029948 -0.030510
-0.027480 -0.027171 -0.027730
-0.013842 -0.013543 -0.014083
0.009825 0.010127 0.009612
0.036928 0.037215 0.036718
0.066788 0.067073 0.066592
0.099304 0.099586 0.099112
0.135929 0.136214 0.135745
0.177297 0.177585 0.177119
0.223787 0.224079 0.223637
0.274807 0.275089 0.274655
0.331409 0.331692 0.331253
0.394822 0.395124 0.394688
0.467055 0.467374 0.466956
0.547514 0.547837 0.547422
0.623596 0.623912 0.623508
-0.023908 -0.023604 -0.024159
-0.018284 -0.017985 -0.018531
-0.001086 -0.000783 -0.001308
0.022933 0.023227 0.022723
0.050637 0.050928 0.050433
0.080890 0.081173 0.080697
0.113709 0.113991 0.113520
0.151285 0.151573 0.151103
0.192890 0.193179 0.192721
0.239347 0.239639 0.239203
0.290648 0.290930 0.290496
0.347841 0.348125 0.347687
0.411746 0.412051 0.411618
0.484911 0.485235 0.484814
0.564003 0.564312 0.563904
0.637959 0.638275 0.637872
-0.006823 -0.006522 -0.007053
0.003134 0.003438 0.002917
0.020796 0.021093 0.020587
0.046149 0.046438 0.045942
0.074368 0.074651 0.074173
0.104290 0.104572 0.104099
0.137383 0.137670 0.137200
0.174480 0.174767 0.174299
0.216051 0.216342 0.215895
0.262509 0.262792 0.262358
0.313544 0.313827 0.313390
0.370599 0.370891 0.370454
0.435179 0.435484 0.435061
0.509073 0.509399 0.508977
0.585802 0.586107 0.585704
0.656415 0.656732 0.656333
0.015918 0.016218 0.015708
0.029213 0.029503 0.029004
0.047293 0.047583 0.047087
0.072509 0.072792 0.072314
0.101292 0.101574 0.101100
0.131838 0.132123 0.131653
0.165327 0.165614 0.165145
0.201963 0.202252 0.201799
0.242810 0.243100 0.242665
0.288396 0.288678 0.288243
0.338978 0.339262 0.338825
0.396299 0.396600 0.396163
0.461958 0.462274 0.461854
0.535382 0.535705 0.535288
0.609258 0.609572 0.609164
0.676875 0.677199 0.676800
0.040960 0.041248 0.040752
0.056922 0.057212 0.056721
0.076284 0.076567 0.076090
0.100462 0.100745 0.100270
0.129447 0.129732 0.129262
0.159630 0.159918 0.159449
0.192693 0.192984 0.192526
0.229420 0.229714 0.229274
0.270298 0.270581 0.270145
0.315486 0.315769 0.315331
0.366227 0.366518 0.366082
0.423959 0.424264 0.423838
0.490559 0.490887 0.490464
0.562418 0.562734 0.562324
0.632501 0.632818 0.632414
0.697964 0.698298 0.697899
0.068798 0.069083 0.068602
0.086201 0.086483 0.086007
0.106603 0.106886 0.106413
0.129922 0.130206 0.129736
0.157673 0.157961 0.157491
0.187711 0.188001 0.187540
0.219977 0.220267 0.219823
0.256409 0.256693 0.256261
0.297230 0.297512 0.297077
0.342875 0.343158 0.342720
0.393956 0.394257 0.393818
0.453227 0.453538 0.453117
0.519828 0.520156 0.519734
0.589787 0.590100 0.589696
0.656626 0.656948 0.656550
0.719211 0.719544 0.719148
0.098806 0.099088 0.098614
0.117198 0.117480 0.117009
0.138941 0.139228 0.138758
0.161549 0.161837 0.161367
0.187756 0.188046 0.187585
0.216308 0.216598 0.216151
0.248652 0.248939 0.248506
0.284433 0.284715 0.284280
0.324939 0.325222 0.324783
0.370394 0.370686 0.370248
0.422540 0.422846 0.422420
0.483614 0.483940 0.483519
0.549787 0.550109 0.549694
0.617364 0.617680 0.617273
0.681402 0.681729 0.681330
0.741477 0.741816 0.741429
0.131903 0.132189 0.131720
0.151044 0.151334 0.150864
0.172915 0.173203 0.172735
0.194608 0.194899 0.194442
