tools/decompiled/jadx/resources/res/raw/noir.cube
LUT_3D_SIZE 6
-0.039976 -0.039661 -0.040220
-0.002908 -0.002607 -0.003133
0.087914 0.088196 0.087720
0.215142 0.215431 0.214986
0.394253 0.394554 0.394118
0.629258 0.629571 0.629166
-0.005981 -0.005681 -0.006210
0.049750 0.050040 0.049544
0.145269 0.145558 0.145088
0.275630 0.275912 0.275477
0.454411 0.454723 0.454304
0.674088 0.674413 0.674014
0.068939 0.069224 0.068744
0.138033 0.138319 0.137850
0.229286 0.229577 0.229138
0.353286 0.353572 0.353134
0.534753 0.535079 0.534661
0.734835 0.735172 0.734781
0.179376 0.179665 0.179200
0.246475 0.246763 0.246330
0.329994 0.330277 0.329838
0.450058 0.450367 0.449946
0.623990 0.624300 0.623893
0.796297 0.796667 0.796273
0.311580 0.311862 0.311421
0.369865 0.370159 0.369723
0.451179 0.451487 0.451067
0.569437 0.569744 0.569339
0.712501 0.712831 0.712433
0.861825 0.862192 0.861805
0.435575 0.435880 0.435460
0.494631 0.494961 0.494539
0.578830 0.579132 0.578730
0.687339 0.687668 0.687269
0.814204 0.814567 0.814178
0.935974 0.936342 0.935957
-0.030261 -0.029948 -0.030510
0.009825 0.010127 0.009612
0.099304 0.099586 0.099112
0.223787 0.224079 0.223637
0.394822 0.395124 0.394688
0.623596 0.623912 0.623508
0.015918 0.016218 0.015708
0.072509 0.072792 0.072314
0.165327 0.165614 0.165145
0.288396 0.288678 0.288243
0.461958 0.462274 0.461854
0.676875 0.677199 0.676800
0.098806 0.099088 0.098614
0.161549 0.161837 0.161367
0.248652 0.248939 0.248506
0.370394 0.370686 0.370248
0.549787 0.550109 0.549694
0.741477 0.741816 0.741429
0.205753 0.206042 0.205592
0.267613 0.267894 0.267459
0.347417 0.347700 0.347260
0.466385 0.466703 0.466284
0.637413 0.637729 0.637327
0.806371 0.806737 0.806347
0.329674 0.329958 0.329518
0.385878 0.386176 0.385741
0.467392 0.467711 0.467292
0.583673 0.583978 0.583578
0.725522 0.725856 0.725461
0.872688 0.873055 0.872673
0.450566 0.450875 0.450456
0.510296 0.510622 0.510200
0.594522 0.594833 0.594431
0.703229 0.703559 0.703160
0.827913 0.828268 0.827880
0.947387 0.947736 0.947347
-0.007917 -0.007618 -0.008149
0.033582 0.033871 0.033374
0.126052 0.126336 0.125866
0.245308 0.245596 0.245161
0.407911 0.408215 0.407781
0.625463 0.625779 0.625374
0.041938 0.042226 0.041729
0.105125 0.105407 0.104933
0.197389 0.197678 0.197223
0.310298 0.310579 0.310141
0.475411 0.475734 0.475315
0.680235 0.680561 0.680162
0.133595 0.133881 0.133412
0.197351 0.197642 0.197187
0.276173 0.276455 0.276019
0.393835 0.394137 0.393701
0.565719 0.566029 0.565621
0.749464 0.749807 0.749423
0.236995 0.237287 0.236851
0.297383 0.297666 0.297230
0.368738 0.369031 0.368596
0.489773 0.490101 0.489679
0.656328 0.656647 0.656248
0.819953 0.820313 0.819923
0.352539 0.352822 0.352382
0.409295 0.409600 0.409167
0.488245 0.488574 0.488152
0.602399 0.602714 0.602310
0.743859 0.744198 0.743812
0.887589 0.887955 0.887576
0.471083 0.471404 0.470986
0.532869 0.533195 0.532774
0.617777 0.618090 0.617683
0.726275 0.726610 0.726215
0.846958 0.847312 0.846933
0.962351 0.962666 0.962282
0.017593 0.017892 0.017383
0.066140 0.066425 0.065943
0.155404 0.155693 0.155223
0.271356 0.271638 0.271201
0.426133 0.426439 0.426017
0.631430 0.631741 0.631336
0.074513 0.074796 0.074319
0.138751 0.139039 0.138569
0.224413 0.224704 0.224262
0.336637 0.336920 0.336481
0.494537 0.494864 0.494442
0.686588 0.686918 0.686519
0.167606 0.167893 0.167424
0.232847 0.233142 0.232703
0.309355 0.309637 0.309197
0.422670 0.422976 0.422551
0.582793 0.583103 0.582700
0.755879 0.756225 0.755842
0.272165 0.272448 0.272010
0.332364 0.332648 0.332209
0.401616 0.401919 0.401483
0.518441 0.518766 0.518345
0.678354 0.678681 0.678282
0.833254 0.833606 0.833217
0.380238 0.380536 0.380102
0.438944 0.439250 0.438830
0.517346 0.517672 0.517250
0.624107 0.624422 0.624015
0.765699 0.766055 0.765669
0.905895 0.906267 0.905868
0.497630 0.497960 0.497537
0.561266 0.561582 0.561171
0.647239 0.647559 0.647159
0.757376 0.757723 0.757340
0.869977 0.870346 0.869962
0.980410 0.980740 0.980342
0.053453 0.053743 0.053250
0.109220 0.109502 0.109030
0.195597 0.195888 0.195431
0.302036 0.302318 0.301881
0.448240 0.448549 0.448129
0.639871 0.640192 0.639791
0.115833 0.116115 0.115644
0.181442 0.181733 0.181267
0.262887 0.263170 0.262735
0.366339 0.366629 0.366191
0.515504 0.515832 0.515410
0.694901 0.695232 0.694833
0.206551 0.206839 0.206389
0.269840 0.270122 0.269685
0.343364 0.343648 0.343208
0.449090 0.449398 0.448979
0.601267 0.601579 0.601174
0.764204 0.764558 0.764174
0.306692 0.306974 0.306536
0.366509 0.366800 0.366364
0.440276 0.440582 0.440162
0.550088 0.550411 0.549996
0.697293 0.697624 0.697225
0.842996 0.843348 0.842968
0.412730 0.413035 0.412606
0.475489 0.475812 0.475393
0.552799 0.553120 0.552705
0.652132 0.652454 0.652055
0.789472 0.789846 0.789449
0.918432 0.918802 0.918408
0.529879 0.530207 0.529785
0.595344 0.595656 0.595254
0.682957 0.683284 0.682885
0.791298 0.791670 0.791275
0.897510 0.897879 0.897490
1.000311 1.000659 1.000244
0.102885 0.103167 0.102694
0.162194 0.162483 0.162013
0.242248 0.242538 0.242106
0.339857 0.340140 0.339702
0.474565 0.474889 0.474468
0.649212 0.649530 0.649131
0.166200 0.166489 0.166019
0.229731 0.230024 0.229584
0.305625 0.305907 0.305469
0.401522 0.401826 0.401391
0.540183 0.540508 0.540090
0.704409 0.704742 0.704343
0.249890 0.250176 0.249744
0.309152 0.309434 0.308994
0.379364 0.379661 0.379227
0.481099 0.481425 0.481005
0.618441 0.618756 0.618349
0.773882 0.774247 0.773855
0.341327 0.341610 0.341171
0.399336 0.399639 0.399201
0.477816 0.478140 0.477721
0.582691 0.582997 0.582596
0.714410 0.714742 0.714344
0.852925 0.853284 0.852902
0.445619 0.445926 0.445506
0.510485 0.510812 0.510389
0.595809 0.596121 0.595719
0.697998 0.698329 0.697930
0.815296 0.815660 0.815270
0.929397 0.929767 0.929380
0.570139 0.570447 0.570041
0.637176 0.637493 0.637091
0.727679 0.728013 0.727619
0.831621 0.831976 0.831588
0.929132 0.929502 0.929115
1.036847 1.037187 1.036811
