tools/decompiled/jadx/resources/res/raw/notch.cube
LUT_3D_SIZE 6
0.001015 0.002805 0.001014
0.121066 0.052075 0.030317
0.511197 0.138012 0.118662
0.721840 0.189500 0.179435
0.815626 0.199986 0.210892
0.816947 0.180016 0.198710
0.058784 0.162692 0.058831
0.104229 0.213548 0.078825
0.482654 0.292225 0.143908
0.737321 0.321659 0.196743
0.844494 0.315923 0.219558
0.867013 0.281666 0.209109
0.122029 0.337718 0.122242
0.136469 0.377705 0.137112
0.370465 0.454474 0.176944
0.703598 0.497541 0.223721
0.864712 0.498930 0.244535
0.914570 0.474300 0.244788
0.141238 0.390903 0.141238
0.157797 0.436719 0.157797
0.224626 0.525238 0.190951
0.582271 0.597180 0.238096
0.812199 0.621391 0.269044
0.937500 0.631862 0.287110
0.147948 0.409480 0.147948
0.150092 0.415390 0.150092
0.195424 0.540862 0.195424
0.435712 0.658789 0.247068
0.778843 0.735565 0.299019
0.952250 0.771039 0.327549
0.165732 0.458705 0.165732
0.165713 0.458638 0.165713
0.198054 0.548211 0.198054
0.292371 0.711547 0.258256
0.709809 0.823820 0.320549
0.937683 0.882367 0.359030
0.010554 0.016525 0.069740
0.159225 0.055058 0.124977
0.541357 0.134122 0.214152
0.735716 0.185851 0.271905
0.824926 0.193888 0.297586
0.826017 0.181700 0.280550
0.069910 0.192916 0.086516
0.120056 0.236816 0.127444
0.510208 0.303075 0.216792
0.753176 0.325938 0.273755
0.854664 0.316566 0.295404
0.876311 0.280462 0.280125
0.130479 0.360872 0.138563
0.143991 0.398051 0.158697
0.387035 0.470021 0.209832
0.716876 0.508107 0.260968
0.877233 0.508333 0.282757
0.931702 0.486461 0.274158
0.149222 0.412980 0.149828
0.165949 0.459218 0.167561
0.226566 0.547095 0.202507
0.599788 0.618461 0.249198
0.837121 0.646320 0.279655
0.950571 0.645022 0.292276
0.150931 0.417719 0.150931
0.154930 0.428792 0.154930
0.199537 0.552291 0.199537
0.434972 0.658371 0.246890
0.778608 0.735264 0.298911
0.952113 0.771044 0.327533
0.165724 0.458677 0.165724
0.165704 0.458606 0.165704
0.197891 0.547729 0.197891
0.291862 0.711343 0.258171
0.709554 0.823865 0.320544
0.937818 0.882300 0.359060
0.056988 0.041067 0.268908
0.244661 0.069910 0.354602
0.584815 0.142846 0.445137
0.755236 0.172627 0.485074
0.835734 0.187835 0.496392
0.836742 0.187269 0.474986
0.089452 0.232901 0.284008
0.182636 0.263263 0.356839
0.562643 0.309586 0.449998
0.775905 0.322797 0.490966
0.868255 0.307119 0.502482
0.885902 0.265503 0.486260
0.147446 0.403357 0.255632
0.159284 0.434222 0.300699
0.429165 0.493588 0.389868
0.739288 0.521526 0.452296
0.889724 0.517599 0.483765
0.946807 0.494547 0.479531
0.167515 0.462367 0.203909
0.182889 0.504166 0.240656
0.238128 0.583867 0.309915
0.627428 0.648018 0.375944
0.857161 0.672505 0.413511
0.967473 0.674073 0.426839
0.166128 0.459687 0.169251
0.175232 0.484769 0.181868
0.222855 0.615951 0.248662
0.468291 0.724307 0.310534
0.804767 0.786897 0.360224
0.972795 0.813838 0.383626
0.178084 0.492892 0.178171
0.177959 0.492522 0.178032
0.216284 0.598529 0.218175
0.292829 0.755618 0.277660
0.724913 0.858526 0.335471
0.947761 0.907849 0.369345
0.185688 0.071787 0.463496
0.361155 0.104025 0.522545
0.628245 0.151963 0.590537
0.773060 0.180887 0.621541
0.843460 0.194842 0.626790
0.843503 0.193693 0.601299
0.138591 0.258089 0.496744
0.292011 0.278050 0.550940
0.621217 0.309170 0.622135
0.797244 0.312536 0.649793
0.878221 0.289534 0.654486
0.892077 0.242468 0.637963
0.164341 0.436228 0.449710
0.178060 0.461421 0.500422
0.490460 0.505570 0.587810
0.762615 0.523568 0.643301
0.899966 0.515542 0.670907
0.958277 0.490902 0.674101
0.187362 0.510601 0.355914
0.200614 0.544709 0.410924
0.283401 0.613513 0.507217
0.667174 0.667358 0.582877
0.876836 0.685819 0.626471
0.969356 0.684332 0.650063
0.187738 0.517251 0.251532
0.197359 0.543155 0.278118
0.243219 0.666069 0.408311
0.503882 0.762469 0.511501
0.822473 0.816051 0.577779
0.981358 0.839548 0.616057
0.202115 0.558294 0.235004
0.202035 0.558034 0.234623
0.242888 0.669375 0.323133
0.314356 0.814677 0.434769
0.753991 0.909032 0.520556
0.965779 0.954149 0.578115
0.339982 0.111455 0.594703
0.472235 0.129688 0.631272
0.672397 0.165197 0.679474
0.789596 0.188279 0.701068
0.848844 0.199553 0.701224
0.846626 0.197554 0.669761
0.288645 0.276556 0.646134
0.426249 0.289636 0.680429
0.666910 0.305663 0.726275
0.812087 0.299326 0.745097
0.885399 0.269168 0.746356
0.897043 0.225892 0.728027
0.180097 0.460733 0.619641
0.260003 0.477799 0.656778
0.564608 0.509497 0.723172
0.790472 0.519422 0.764043
0.910706 0.507863 0.784396
0.958709 0.481360 0.790295
0.204926 0.547731 0.522593
0.216880 0.577502 0.576068
0.368989 0.634746 0.672622
0.714899 0.677286 0.740960
0.899132 0.690344 0.777879
0.970591 0.685403 0.798815
0.215498 0.586252 0.424806
0.215273 0.585669 0.424118
0.261575 0.706323 0.586074
0.560261 0.786483 0.685769
0.845590 0.830669 0.752077
0.983508 0.850266 0.792063
0.232742 0.637340 0.392201
0.232698 0.637211 0.391866
0.266698 0.727303 0.499862
0.371438 0.857437 0.630476
0.789657 0.936321 0.715218
0.982823 0.974743 0.770878
0.350610 0.120786 0.607344
0.466928 0.131402 0.637842
0.666030 0.164438 0.685740
0.787288 0.188596 0.714960
0.845610 0.200144 0.724067
0.840099 0.197295 0.690215
0.304155 0.274508 0.653505
0.432386 0.285225 0.685889
0.666564 0.296065 0.735329
0.811043 0.283716 0.763903
0.884981 0.248784 0.776063
0.897963 0.217023 0.767525
0.200680 0.460315 0.670539
0.314201 0.475864 0.706513
0.601079 0.503559 0.774428
0.806486 0.510366 0.819910
0.918268 0.497161 0.841655
0.958713 0.469474 0.851721
0.215791 0.567983 0.634335
0.227400 0.596743 0.684126
0.453699 0.645563 0.764573
0.755075 0.679843 0.827733
0.921554 0.690167 0.869263
0.971227 0.682547 0.893081
0.240167 0.643430 0.597212
0.240059 0.643103 0.597368
0.276817 0.737560 0.730186
0.633986 0.805059 0.813636
0.876107 0.839709 0.864499
0.984854 0.854838 0.898254
0.262159 0.709377 0.569079
0.262159 0.709360 0.569018
0.289256 0.779862 0.663303
0.466431 0.890601 0.784830
0.822487 0.953099 0.851778
0.996413 0.986211 0.895196
