tools/decompiled/jadx/resources/res/raw/notch.cube
LUT_3D_SIZE 16
0.001015 0.002805 0.001014
0.004783 0.008329 0.003085
0.038451 0.026217 0.011902
0.121066 0.052075 0.030317
0.248995 0.083304 0.058506
0.387669 0.114205 0.089722
0.511197 0.138012 0.118662
0.596483 0.157780 0.141444
0.668878 0.175486 0.162336
0.721840 0.189500 0.179435
0.758607 0.197396 0.192634
0.791169 0.200419 0.203424
0.815626 0.199986 0.210892
0.828723 0.196824 0.214197
0.827291 0.189680 0.209176
0.816947 0.180016 0.198710
0.009997 0.027668 0.009999
0.012362 0.033935 0.012271
0.032928 0.051766 0.019377
0.111172 0.078780 0.035358
0.240245 0.109593 0.061951
0.382469 0.137729 0.092464
0.511295 0.160754 0.121660
0.598466 0.180224 0.144397
0.671327 0.196102 0.164799
0.726207 0.205852 0.181380
0.762526 0.211518 0.193927
0.794436 0.213275 0.204193
0.819844 0.211443 0.211392
0.834038 0.206260 0.214521
0.833251 0.198046 0.209644
0.823003 0.186603 0.199072
0.031061 0.085963 0.031073
0.033832 0.093626 0.033854
0.044696 0.114603 0.041622
0.102302 0.142230 0.054279
0.222319 0.172574 0.075449
0.370534 0.200634 0.103649
0.501869 0.221858 0.130722
0.603534 0.237986 0.153751
0.673633 0.248638 0.171696
0.736732 0.256260 0.188024
0.774252 0.259439 0.199298
0.804889 0.258988 0.208046
0.831613 0.254803 0.214262
0.849583 0.247052 0.216985
0.850933 0.234719 0.212279
0.841572 0.218278 0.201691
0.058784 0.162692 0.058831
0.061207 0.169397 0.061279
0.068346 0.188135 0.068205
0.104229 0.213548 0.078825
0.207998 0.243149 0.096041
0.347924 0.270994 0.119471
0.482654 0.292225 0.143908
0.603890 0.308538 0.167277
0.675156 0.316596 0.182899
0.737321 0.321659 0.196743
0.787167 0.323171 0.207818
0.817912 0.320884 0.214767
0.844494 0.315923 0.219558
0.867238 0.308394 0.221937
0.875063 0.297277 0.218648
0.867013 0.281666 0.209109
0.084912 0.234997 0.085086
0.086918 0.240550 0.087136
0.093003 0.257386 0.093426
0.108940 0.280400 0.102470
0.190986 0.308398 0.116626
0.317242 0.334988 0.135551
0.456913 0.357512 0.157716
0.575439 0.372937 0.177971
0.671590 0.382698 0.194987
0.731796 0.385721 0.206150
0.788306 0.386625 0.216151
0.828311 0.384306 0.222808
0.855319 0.379227 0.226387
0.879808 0.372292 0.228215
0.896718 0.362907 0.226961
0.890315 0.348430 0.218878
0.105745 0.292666 0.105997
0.107543 0.297638 0.107843
0.113183 0.313238 0.113685
0.121007 0.334743 0.121860
0.171284 0.361646 0.133685
0.283504 0.388369 0.149647
0.419994 0.412620 0.169200
0.541236 0.429813 0.187682
0.650225 0.442387 0.204813
0.723596 0.447899 0.216379
0.779899 0.449555 0.224911
0.831068 0.449318 0.232138
0.864995 0.444846 0.235833
0.889326 0.437427 0.237095
0.911623 0.428412 0.237015
0.904690 0.413460 0.230489
0.122029 0.337718 0.122242
0.123735 0.342445 0.123983
0.129041 0.357143 0.129426
0.136469 0.377705 0.137112
0.155200 0.403053 0.146954
0.245643 0.430065 0.160530
0.370465 0.454474 0.176944
0.502053 0.475176 0.194996
0.610901 0.488695 0.210489
0.703598 0.497541 0.223721
0.765716 0.500241 0.232130
0.818873 0.500542 0.239004
0.864712 0.498930 0.244535
0.893682 0.493987 0.246975
0.916639 0.487054 0.248106
0.914570 0.474300 0.244788
0.132913 0.367858 0.133004
0.134579 0.372452 0.134696
0.139942 0.387288 0.140111
0.147660 0.408662 0.147945
0.156923 0.434265 0.157340
0.208631 0.462531 0.169122
0.321216 0.489094 0.183847
0.454317 0.513126 0.201093
0.568932 0.529836 0.216511
0.672321 0.541953 0.230761
0.749544 0.548167 0.241312
0.804172 0.549374 0.248302
0.854601 0.549116 0.254699
0.894988 0.545910 0.259225
0.915560 0.537923 0.260066
0.913947 0.524509 0.256546
0.138832 0.384257 0.138861
0.140551 0.389010 0.140566
0.146022 0.404137 0.146054
0.154040 0.426329 0.154092
0.163343 0.452045 0.163407
0.181586 0.480724 0.174026
0.273969 0.510564 0.188042
0.394830 0.536005 0.203612
0.521176 0.558097 0.220494
0.630409 0.574398 0.235690
0.722804 0.585801 0.248787
0.786654 0.590725 0.257452
0.836482 0.591645 0.263673
0.873971 0.585887 0.266809
0.912867 0.586890 0.272097
0.927893 0.582567 0.272968
0.141238 0.390903 0.141238
0.143190 0.396307 0.143190
0.149090 0.412619 0.149090
0.157797 0.436719 0.157797
0.167801 0.464402 0.167801
0.178530 0.493643 0.178363
0.224626 0.525238 0.190951
0.337966 0.553313 0.205869
0.465932 0.578338 0.222528
0.582271 0.597180 0.238096
0.678979 0.609015 0.250955
0.755845 0.614622 0.260732
0.812199 0.621391 0.269044
0.865512 0.627202 0.276934
0.916284 0.632312 0.284569
0.937500 0.631862 0.287110
0.140773 0.389630 0.140773
0.142630 0.394762 0.142630
0.148378 0.410607 0.148378
0.158325 0.438185 0.158325
0.169590 0.469361 0.169590
0.180448 0.499451 0.180448
0.192972 0.530045 0.191558
0.279074 0.557038 0.204198
0.400646 0.587776 0.221158
0.530863 0.615569 0.239563
0.637323 0.635560 0.255004
0.735649 0.652659 0.269763
0.803607 0.662970 0.279980
0.858227 0.670434 0.288195
0.910993 0.677315 0.296243
0.946197 0.680717 0.301391
0.141578 0.391817 0.141578
0.141532 0.391724 0.141532
0.142408 0.394127 0.142408
0.152008 0.420724 0.152008
0.165607 0.458324 0.165607
0.179312 0.496201 0.179312
0.192888 0.533837 0.192888
0.235735 0.572462 0.207797
0.351729 0.608251 0.225255
0.487728 0.641324 0.244663
0.605107 0.666549 0.261878
0.708575 0.687265 0.277558
0.795070 0.703676 0.291054
0.851400 0.713307 0.299804
0.905639 0.722515 0.308405
0.953757 0.730235 0.316069
0.147948 0.409480 0.147948
0.147936 0.409450 0.147936
0.147894 0.409297 0.147894
0.150092 0.415390 0.150092
0.164332 0.454779 0.164332
0.180589 0.499751 0.180589
0.195424 0.540862 0.195424
0.212606 0.582269 0.210457
0.305264 0.623269 0.228165
0.435712 0.658789 0.247068
0.570639 0.690690 0.266839
0.679307 0.714480 0.283340
0.778843 0.735565 0.299019
0.842357 0.748599 0.309280
0.898397 0.760032 0.318500
0.952250 0.771039 0.327549
0.154617 0.427952 0.154617
0.154610 0.427924 0.154610
0.154597 0.427880 0.154597
0.154528 0.427669 0.154528
0.161694 0.447528 0.161694
0.180463 0.499490 0.180463
0.197637 0.547002 0.197637
0.213961 0.592119 0.213961
0.260032 0.637866 0.231455
0.385533 0.676614 0.250291
0.531351 0.713227 0.271347
0.649442 0.740771 0.289138
0.755207 0.764202 0.305588
0.833260 0.781526 0.318265
0.890736 0.794191 0.327828
0.946132 0.806567 0.337208
0.160672 0.444676 0.160672
0.160667 0.444657 0.160667
0.160652 0.444602 0.160652
0.160637 0.444578 0.160637
0.160596 0.444475 0.160596
0.178019 0.492666 0.178019
0.199385 0.551863 0.199385
0.217546 0.602101 0.217546
0.237403 0.651575 0.235498
0.339143 0.696145 0.254775
0.487545 0.736308 0.276181
0.620337 0.768567 0.295821
0.732081 0.794860 0.313143
0.824217 0.816176 0.327998
0.884591 0.830467 0.338114
0.941419 0.844302 0.347974
0.165732 0.458705 0.165732
0.165730 0.458698 0.165730
0.165721 0.458668 0.165721
0.165713 0.458638 0.165713
0.165697 0.458596 0.165697
0.173167 0.479240 0.173167
0.198054 0.548211 0.198054
0.219186 0.606616 0.219186
0.238708 0.660639 0.238705
0.292371 0.711547 0.258256
0.441499 0.755615 0.280072
0.589958 0.794041 0.301959
0.709809 0.823820 0.320549
0.814677 0.849855 0.337594
0.878678 0.866574 0.348583
0.937683 0.882367 0.359030
0.002043 0.005103 0.006372
0.006148 0.010968 0.005114
0.042953 0.028264 0.014317
0.127109 0.053907 0.033379
0.256036 0.084623 0.062397
0.393695 0.114683 0.094496
0.515552 0.137992 0.124132
0.599984 0.157803 0.147749
0.671897 0.175618 0.169303
0.723666 0.189336 0.186866
0.760348 0.196885 0.200247
0.792622 0.199771 0.210943
0.816773 0.199424 0.218401
0.829893 0.196599 0.222240
0.828672 0.189725 0.217103
0.818243 0.180220 0.205938
0.011244 0.031118 0.011289
0.013764 0.037789 0.013797
0.035632 0.055321 0.021313
0.116620 0.081674 0.038098
0.246707 0.111401 0.065570
0.388021 0.138386 0.096971
0.515778 0.161134 0.126927
0.601857 0.180543 0.150404
0.674377 0.196224 0.171476
0.728151 0.205610 0.188545
0.764147 0.211010 0.201334
0.796036 0.212706 0.211603
0.821081 0.210834 0.218751
0.835224 0.205846 0.222368
0.834533 0.197865 0.217289
0.824386 0.186630 0.206058
0.032543 0.090072 0.032601
0.035298 0.097683 0.035399
0.046110 0.118234 0.043222
0.105507 0.145342 0.056503
0.226991 0.174980 0.078751
0.375321 0.202324 0.107734
0.506200 0.223025 0.135480
0.606465 0.238786 0.159042
0.676225 0.249105 0.177534
0.738650 0.256442 0.194338
0.775783 0.259445 0.206060
0.806168 0.258803 0.214918
0.832956 0.254589 0.221096
0.850800 0.246843 0.223981
0.851992 0.234369 0.218994
0.842901 0.217737 0.207702
0.060180 0.166555 0.060369
0.062573 0.173182 0.062844
0.069588 0.191592 0.069891
0.105916 0.216640 0.080929
0.211077 0.245749 0.098812
0.352104 0.273171 0.123080
0.486248 0.293866 0.148102
0.606996 0.309749 0.171769
0.677244 0.317411 0.187682
0.739149 0.322264 0.201897
0.788683 0.323615 0.213267
0.819321 0.321218 0.220469
0.845975 0.316256 0.225288
0.868749 0.308700 0.227716
0.876320 0.297458 0.224137
0.868180 0.281696 0.213713
0.086008 0.238026 0.086382
0.087996 0.243526 0.088453
0.094028 0.260210 0.094886
0.109776 0.283002 0.104206
0.192720 0.310813 0.118871
0.319908 0.337028 0.138383
0.459602 0.359215 0.160969
0.578100 0.374209 0.181465
0.673267 0.383634 0.198576
0.733406 0.386486 0.210049
0.789793 0.387391 0.220314
0.829539 0.384952 0.227088
0.856616 0.379826 0.230694
0.880986 0.372821 0.232491
0.897865 0.363373 0.230950
0.892083 0.349030 0.222248
0.106719 0.295350 0.107192
0.108497 0.300281 0.109071
0.114115 0.315803 0.115018
0.121906 0.337213 0.123441
0.172196 0.363989 0.135595
0.285237 0.390376 0.151875
0.422443 0.414423 0.171703
0.543378 0.431255 0.190273
0.652142 0.443663 0.207588
0.725133 0.448978 0.219319
0.781612 0.450620 0.228088
0.832610 0.450354 0.235288
0.866175 0.445654 0.238773
0.890540 0.438228 0.239878
0.913073 0.429276 0.239705
0.906799 0.414612 0.232226
0.122949 0.340256 0.123345
0.124642 0.344951 0.125103
0.129914 0.359527 0.130598
0.137335 0.380064 0.138444
0.155670 0.405259 0.148463
0.246712 0.432047 0.162213
0.372262 0.456303 0.178799
0.503683 0.476810 0.196937
0.612977 0.490101 0.212642
0.705387 0.498990 0.225960
0.767236 0.501596 0.234221
0.820623 0.501767 0.240912
0.866387 0.500078 0.246203
0.895171 0.495224 0.248478
0.918572 0.488493 0.249217
0.918092 0.476490 0.245805
0.133752 0.370198 0.133946
0.135433 0.374844 0.135660
0.140776 0.389628 0.141107
0.148471 0.410902 0.148982
0.157702 0.436463 0.158469
0.209306 0.464675 0.170361
0.322242 0.491005 0.185118
0.456095 0.515026 0.202442
0.570653 0.531566 0.217779
0.674263 0.543642 0.231922
0.751315 0.549741 0.242267
0.806014 0.551016 0.249137
0.856612 0.550763 0.255471
0.896860 0.547791 0.260002
0.919420 0.540869 0.261318
0.913893 0.524438 0.256525
0.139641 0.386477 0.139685
0.141340 0.391186 0.141386
0.146797 0.406280 0.146865
0.154815 0.428455 0.154926
0.164131 0.454280 0.164308
0.182188 0.482969 0.174944
0.274567 0.512652 0.188895
0.396456 0.538218 0.204533
0.522950 0.560267 0.221346
0.632467 0.576453 0.236532
0.725233 0.587878 0.249628
0.788850 0.593044 0.258351
0.840107 0.594689 0.264962
0.885008 0.593035 0.270112
0.912858 0.586852 0.272102
0.927869 0.582526 0.272940
0.142081 0.393224 0.142082
0.144046 0.398659 0.144047
0.150004 0.415108 0.150006
0.158737 0.439326 0.158740
0.168668 0.466842 0.168670
0.179404 0.496085 0.179249
0.225127 0.527588 0.191812
0.339144 0.555705 0.206751
0.468078 0.580980 0.223558
0.585118 0.600192 0.239294
0.684408 0.613631 0.252890
0.761531 0.619045 0.262645
0.812233 0.621358 0.269016
0.865430 0.627128 0.276920
0.916228 0.632274 0.284556
0.937567 0.631775 0.287096
0.141836 0.392525 0.141836
0.143721 0.397772 0.143721
0.149544 0.413873 0.149544
0.159558 0.441628 0.159558
0.170854 0.472894 0.170854
0.181893 0.503439 0.181893
0.194982 0.535834 0.193665
0.282909 0.566076 0.207487
0.400535 0.587707 0.221134
0.530764 0.615520 0.239539
0.637241 0.635477 0.254969
0.735579 0.652690 0.269753
0.803616 0.662969 0.279981
0.858173 0.670399 0.288181
0.910906 0.677290 0.296230
0.946179 0.680576 0.301376
0.141561 0.391778 0.141561
0.141538 0.391711 0.141538
0.142372 0.394021 0.142372
0.151992 0.420663 0.151992
0.165570 0.458232 0.165570
0.179276 0.496172 0.179276
0.192870 0.533772 0.192870
0.235704 0.572417 0.207779
0.351726 0.608252 0.225243
0.487641 0.641266 0.244655
0.605013 0.666505 0.261847
0.708458 0.687252 0.277545
0.795008 0.703775 0.291051
0.851452 0.713286 0.299804
0.905564 0.722362 0.308374
0.953757 0.730274 0.316078
0.147958 0.409504 0.147958
0.147943 0.409468 0.147943
0.147878 0.409257 0.147878
0.150072 0.415344 0.150072
0.164311 0.454735 0.164311
0.180561 0.499676 0.180561
0.195400 0.540821 0.195400
0.212573 0.582207 0.210432
0.305158 0.623254 0.228154
0.435646 0.658707 0.247053
0.570583 0.690635 0.266805
0.679465 0.714481 0.283362
0.778883 0.735514 0.299008
0.842395 0.748564 0.309275
0.898418 0.760008 0.318496
0.952227 0.771018 0.327542
0.154620 0.427963 0.154620
0.154609 0.427920 0.154609
0.154592 0.427859 0.154592
0.154527 0.427666 0.154527
0.161674 0.447445 0.161674
0.180472 0.499512 0.180472
0.197646 0.546981 0.197646
0.213941 0.592068 0.213941
0.259911 0.637849 0.231454
0.385520 0.676632 0.250295
0.531291 0.713316 0.271367
0.649475 0.740727 0.289129
0.755251 0.764182 0.305586
0.833282 0.781497 0.318270
0.890720 0.794179 0.327824
0.946168 0.806561 0.337216
0.160671 0.444673 0.160671
0.160664 0.444648 0.160664
0.160649 0.444593 0.160649
0.160635 0.444571 0.160635
0.160593 0.444466 0.160593
0.177973 0.492559 0.177973
0.199376 0.551810 0.199376
0.217544 0.602096 0.217544
0.237358 0.651484 0.235455
0.339128 0.696118 0.254765
0.487481 0.736286 0.276169
0.620288 0.768632 0.295846
0.732054 0.794848 0.313138
0.824190 0.816161 0.327992
0.884605 0.830662 0.338161
0.941437 0.844469 0.347998
0.165731 0.458703 0.165731
0.165729 0.458696 0.165729
0.165721 0.458666 0.165721
0.165712 0.458634 0.165712
0.165688 0.458562 0.165688
0.173114 0.479104 0.173114
0.198053 0.548170 0.198053
0.219176 0.606590 0.219176
0.238721 0.660709 0.238718
0.292329 0.711540 0.258248
0.441386 0.755588 0.280054
0.589940 0.794034 0.301957
0.709758 0.823902 0.320568
0.814663 0.849857 0.337593
0.878680 0.866577 0.348584
0.937689 0.882211 0.358974
0.004135 0.008934 0.021982
0.009330 0.014362 0.031789
0.051177 0.030817 0.042338
0.141333 0.056059 0.060210
0.273109 0.085684 0.089432
0.409640 0.114740 0.122412
0.527333 0.136806 0.153290
0.609315 0.156727 0.178257
0.679755 0.175468 0.201105
0.729294 0.188443 0.218606
0.765226 0.195291 0.231155
0.796822 0.197780 0.240556
0.820165 0.197533 0.246606
0.832576 0.195141 0.249129
0.831681 0.189278 0.243890
0.821785 0.180873 0.233035
0.014610 0.040219 0.020491
0.017129 0.046612 0.026559
0.042016 0.062604 0.039762
0.130367 0.087215 0.060771
0.262787 0.114334 0.090231
0.403058 0.139277 0.123147
0.527401 0.161017 0.154449
0.610783 0.180209 0.179617
0.682329 0.195243 0.202420
0.733461 0.204280 0.219477
0.768881 0.209465 0.231771
0.800256 0.210789 0.241054
0.824679 0.208598 0.246830
0.838054 0.203418 0.249074
0.837619 0.196542 0.243828
0.828029 0.186638 0.232715
0.037207 0.102898 0.039536
0.039723 0.109830 0.043121
0.050218 0.128752 0.053932
0.114992 0.153949 0.072042
0.240087 0.181085 0.098301
0.387923 0.206333 0.129535
0.517967 0.225653 0.159102
0.614343 0.240189 0.183945
0.683526 0.249991 0.204245
0.743516 0.256826 0.221975
0.780124 0.259407 0.234697
0.810429 0.258313 0.243497
0.836617 0.253477 0.248373
0.853892 0.245162 0.250035
0.855097 0.232451 0.244424
0.846580 0.215919 0.232529
0.064284 0.177846 0.066614
0.066584 0.184188 0.069593
0.073273 0.201727 0.078460
0.111194 0.225601 0.092575
0.220733 0.253091 0.113874
0.364567 0.278961 0.140741
0.496302 0.297994 0.167003
0.614214 0.312703 0.191711
0.683615 0.319817 0.209220
0.745229 0.324210 0.224720
0.793039 0.325002 0.236926
0.823165 0.322177 0.244955
0.849790 0.316802 0.250029
0.872319 0.308882 0.251829
0.879420 0.297421 0.247032
0.871944 0.281722 0.234767
0.089637 0.248001 0.092141
0.091588 0.253381 0.094577
0.097424 0.269489 0.102175
0.112480 0.291677 0.113712
0.198281 0.318214 0.130727
0.328321 0.343147 0.152196
0.467615 0.363939 0.175824
0.586130 0.378081 0.197355
0.678580 0.386616 0.215123
0.738633 0.389142 0.227741
0.795053 0.389658 0.238844
0.833610 0.386798 0.246149
0.860087 0.381438 0.250227
0.885059 0.374367 0.252133
0.901781 0.364778 0.249562
0.896627 0.350618 0.238139
0.109946 0.304209 0.112273
0.111707 0.309073 0.114365
0.117193 0.324236 0.121067
0.124823 0.345207 0.130902
0.175143 0.371458 0.144907
0.290708 0.396817 0.162602
0.430297 0.419989 0.183476
0.549912 0.435739 0.202490
0.658053 0.447413 0.220162
0.729726 0.452273 0.232391
0.786341 0.453702 0.241779
0.836923 0.453260 0.249326
0.869723 0.448308 0.252892
0.894429 0.440659 0.253760
0.917634 0.431827 0.252916
0.912262 0.417376 0.242934
0.125834 0.348222 0.127578
0.127505 0.352850 0.129457
0.132721 0.367241 0.135436
0.140032 0.387403 0.144127
0.157376 0.412529 0.155429
0.250213 0.438700 0.170295
0.377898 0.462096 0.187549
0.508793 0.481561 0.205811
0.619048 0.494526 0.221840
0.710015 0.502758 0.235128
0.771583 0.505164 0.243758
0.825487 0.505412 0.250649
0.871110 0.503574 0.255583
0.899113 0.498686 0.256948
0.923492 0.492350 0.256967
0.925074 0.481403 0.251221
0.136607 0.378074 0.137576
0.138268 0.382628 0.139347
0.143573 0.397310 0.145058
0.151230 0.418474 0.153434
0.160443 0.443951 0.163641
0.211185 0.471749 0.176138
0.325774 0.497438 0.191212
0.460754 0.520640 0.208585
0.576019 0.536817 0.224054
0.679876 0.548703 0.238242
0.756046 0.554452 0.248268
0.811010 0.555688 0.254773
0.862484 0.555434 0.260110
0.901703 0.552646 0.263633
0.926204 0.547009 0.264712
0.932643 0.536842 0.262215
0.142425 0.394142 0.142746
0.144125 0.398866 0.144487
0.149585 0.414021 0.150117
0.157538 0.435993 0.158339
0.166831 0.461671 0.167993
0.184079 0.490292 0.178904
0.276487 0.519452 0.192858
0.400947 0.544870 0.208554
0.528267 0.566687 0.225197
0.638759 0.583020 0.240157
0.732167 0.594458 0.252837
0.794613 0.599405 0.260992
0.847473 0.602048 0.267891
0.897357 0.603376 0.274456
0.926977 0.599012 0.277118
0.930784 0.584605 0.273897
0.144640 0.400311 0.144662
0.146661 0.405889 0.146696
0.152761 0.422795 0.152818
0.161496 0.446950 0.161593
0.171442 0.474463 0.171605
0.182145 0.503811 0.182252
0.226360 0.535616 0.194808
0.342569 0.563375 0.209654
0.473874 0.588743 0.226547
0.591781 0.608067 0.242348
0.693794 0.622508 0.256498
0.774809 0.631777 0.267784
0.827406 0.634433 0.274477
0.873398 0.633124 0.279506
0.916201 0.632181 0.284525
0.937525 0.631716 0.287079
0.144795 0.400734 0.144795
0.146718 0.406078 0.146718
0.152688 0.422568 0.152688
0.162891 0.450803 0.162891
0.174202 0.482149 0.174202
0.185382 0.513034 0.185382
0.198712 0.546499 0.197492
0.286613 0.578394 0.211889
0.414518 0.606563 0.228294
0.545512 0.630543 0.245523
0.647937 0.645216 0.258966
0.735330 0.652399 0.269650
0.803628 0.662858 0.279952
0.858061 0.670290 0.288139
0.910785 0.677171 0.296182
0.946127 0.680470 0.301336
0.143759 0.397878 0.143759
0.143727 0.397742 0.143727
0.146575 0.405685 0.146575
0.157092 0.434771 0.157092
0.170375 0.471521 0.170375
0.183152 0.506866 0.183152
0.194916 0.539409 0.194916
0.235483 0.572235 0.207702
0.351454 0.608074 0.225170
0.487317 0.641057 0.244563
0.604834 0.666472 0.261810
0.708414 0.687176 0.277537
0.794864 0.703561 0.291014
0.851424 0.713245 0.299795
0.905460 0.722304 0.308340
0.953757 0.730242 0.316071
0.147929 0.409434 0.147929
0.147928 0.409393 0.147928
0.147879 0.409261 0.147879
0.149976 0.415064 0.149976
0.164186 0.454430 0.164186
0.180468 0.499503 0.180468
0.195344 0.540672 0.195344
0.212519 0.582131 0.210401
0.304914 0.623147 0.228131
0.435356 0.658692 0.247005
0.570462 0.690536 0.266760
0.679282 0.714450 0.283322
0.778707 0.735529 0.298999
0.842362 0.748517 0.309245
0.898314 0.759902 0.318456
0.952134 0.771018 0.327528
0.154605 0.427908 0.154605
0.154601 0.427891 0.154601
0.154596 0.427876 0.154596
0.154519 0.427636 0.154519
0.161589 0.447205 0.161589
0.180382 0.499212 0.180382
0.197563 0.546785 0.197563
0.213875 0.591900 0.213874
0.259716 0.637793 0.231425
0.385329 0.676481 0.250210
0.531213 0.713203 0.271305
0.649443 0.740646 0.289106
0.755253 0.764167 0.305583
0.833265 0.781482 0.318265
0.890635 0.794168 0.327792
0.946138 0.806568 0.337216
0.160672 0.444675 0.160672
0.160667 0.444656 0.160667
0.160648 0.444589 0.160648
0.160624 0.444547 0.160624
0.160610 0.444495 0.160610
0.177889 0.492310 0.177889
0.199333 0.551707 0.199333
0.217495 0.601958 0.217495
0.237306 0.651402 0.235422
0.338949 0.696125 0.254737
0.487380 0.736269 0.276153
0.620201 0.768665 0.295849
0.732015 0.794786 0.313119
0.824118 0.816095 0.327970
0.884581 0.830645 0.338155
0.941450 0.844462 0.347997
0.165728 0.458693 0.165728
0.165721 0.458666 0.165721
0.165718 0.458656 0.165718
0.165709 0.458625 0.165709
0.165675 0.458550 0.165675
0.173066 0.478962 0.173066
0.198001 0.547986 0.198001
0.219120 0.606452 0.219120
0.238709 0.660641 0.238705
0.292176 0.711475 0.258224
0.441242 0.755545 0.280027
0.589935 0.794035 0.301957
0.709674 0.823887 0.320556
0.814635 0.849862 0.337592
0.878694 0.866612 0.348594
0.937770 0.882316 0.359061
0.010554 0.016525 0.069740
0.016780 0.020059 0.083523
0.062203 0.030054 0.102331
0.159225 0.055058 0.124977
0.293447 0.086018 0.154667
0.429149 0.111393 0.186081
0.541357 0.134122 0.214152
0.620685 0.155620 0.237062
0.689504 0.174913 0.256971
0.735716 0.185851 0.271905
0.771059 0.191618 0.283202
0.802281 0.193715 0.291974
0.824926 0.193888 0.297586
0.836194 0.192597 0.299635
0.835495 0.188341 0.293268
0.826017 0.181700 0.280550
0.018787 0.048707 0.061164
0.021294 0.053587 0.072195
0.051931 0.066971 0.094091
0.146965 0.089257 0.122568
0.282714 0.114131 0.153657
0.421827 0.137415 0.185836
0.541051 0.159068 0.214702
0.621858 0.178669 0.237606
0.692130 0.192452 0.257191
0.739919 0.200910 0.271942
0.774594 0.205633 0.282982
0.805510 0.206446 0.291550
0.829419 0.203981 0.297087
0.841848 0.198934 0.299009
0.841478 0.194030 0.292776
0.832129 0.186291 0.279990
0.043015 0.118148 0.065672
0.045221 0.124040 0.072545
0.056075 0.140261 0.091921
0.129659 0.162938 0.120056
0.258586 0.187134 0.153265
0.404049 0.209859 0.187182
0.533211 0.227701 0.217016
0.624300 0.240777 0.239584
0.692713 0.249799 0.257783
0.749850 0.255858 0.272821
0.785261 0.257875 0.283322
0.815512 0.256119 0.291190
0.841461 0.250540 0.296451
0.857527 0.241471 0.298256
0.858873 0.228206 0.292190
0.850655 0.211475 0.278919
0.069910 0.192916 0.086516
0.072018 0.198652 0.091305
0.078221 0.214529 0.105555
0.120056 0.236816 0.127444
0.234421 0.261963 0.155758
0.382754 0.286098 0.187795
0.510208 0.303075 0.216792
0.623156 0.316157 0.243003
0.691816 0.322327 0.259772
0.753176 0.325938 0.273755
0.798503 0.325846 0.283827
0.828154 0.322394 0.290565
0.854664 0.316566 0.295404
0.876558 0.308176 0.297780
0.883352 0.296373 0.293177
0.876311 0.280462 0.280125
0.094895 0.262158 0.108676
0.096695 0.267135 0.112134
0.102097 0.281885 0.122884
0.117173 0.302810 0.139430
0.207814 0.327683 0.162028
0.341129 0.351057 0.188142
0.478572 0.370163 0.214653
0.597610 0.383353 0.238732
0.685552 0.390631 0.258235
0.745792 0.392547 0.271858
0.801452 0.392239 0.281797
0.838483 0.388764 0.288010
0.864798 0.383014 0.291855
0.889783 0.375686 0.294597
0.906289 0.365968 0.293031
0.901543 0.351929 0.280277
0.114918 0.317716 0.125997
0.116574 0.322240 0.128700
0.121695 0.336290 0.137315
0.128997 0.356241 0.150308
0.180738 0.381134 0.168018
0.299424 0.405200 0.189372
0.441188 0.427467 0.213257
0.559514 0.441979 0.234351
0.666325 0.452813 0.253554
0.735738 0.456872 0.267187
0.792932 0.457917 0.277852
0.842530 0.457000 0.285216
0.874496 0.451538 0.288419
0.899423 0.443801 0.289851
0.922839 0.434930 0.290320
0.918556 0.420498 0.276545
0.130479 0.360872 0.138563
0.132086 0.365271 0.140839
0.137036 0.378938 0.148051
0.143991 0.398051 0.158697
0.160686 0.422393 0.172645
0.256908 0.447469 0.190150
0.387035 0.470021 0.209832
0.516362 0.488279 0.229594
0.628023 0.500775 0.247001
0.716876 0.508107 0.260968
0.777485 0.510188 0.270482
0.831866 0.510275 0.277930
0.877233 0.508333 0.282757
0.904143 0.503203 0.284026
0.929063 0.497020 0.283604
0.931702 0.486461 0.274158
0.141203 0.390616 0.146154
0.142811 0.395088 0.148189
0.148001 0.409424 0.154807
0.155400 0.429792 0.164501
0.164391 0.454593 0.176490
0.215179 0.481620 0.190879
0.331755 0.506195 0.207559
0.467353 0.528484 0.225956
