tools/decompiled/jadx/resources/res/raw/pacific.cube
LUT_3D_SIZE 6
0.016658 0.010260 0.006000
0.179919 0.002406 0.000190
0.400651 0.003647 0.000230
0.559693 0.004011 0.000325
0.680180 0.009532 0.009929
0.750651 0.027152 0.027576
0.007167 0.149587 0.000642
0.134962 0.178580 0.000047
0.374078 0.185943 0.000130
0.562809 0.174321 0.000237
0.723583 0.148656 0.000351
0.847452 0.123351 0.000523
0.002638 0.304167 0.006666
0.083589 0.344522 0.005257
0.339521 0.376762 0.000570
0.575298 0.382577 0.000165
0.750864 0.372710 0.000247
0.884839 0.342549 0.000348
0.000035 0.457668 0.041026
0.040159 0.511197 0.025478
0.304128 0.555272 0.007630
0.587894 0.589790 0.000316
0.791687 0.595642 0.000172
0.918176 0.593992 0.000810
0.000000 0.637789 0.075471
0.018526 0.680859 0.055371
0.292382 0.719624 0.023292
0.601470 0.757463 0.003911
0.818884 0.773494 0.010699
0.915080 0.772764 0.131633
0.000000 0.774694 0.117559
0.026666 0.810660 0.103516
0.351351 0.849224 0.062396
0.655668 0.882345 0.035163
0.836871 0.875291 0.200373
0.915998 0.879182 0.346571
0.000840 0.000704 0.161246
0.104772 0.003005 0.210053
0.323344 0.002726 0.214539
0.520192 0.003353 0.205774
0.692234 0.001015 0.188692
0.811313 0.007722 0.175131
0.003281 0.131130 0.184851
0.094511 0.188058 0.220163
0.324285 0.180594 0.184372
0.532512 0.174094 0.161610
0.716435 0.156467 0.134643
0.849195 0.134810 0.119737
0.000187 0.299846 0.241127
0.024448 0.350364 0.218523
0.310129 0.394847 0.192893
0.566694 0.392975 0.144327
0.758168 0.373813 0.104954
0.884133 0.360965 0.085782
0.000000 0.468027 0.271625
0.008721 0.521053 0.243571
0.256248 0.571715 0.207279
0.578374 0.611646 0.142473
0.792201 0.612240 0.074230
0.920607 0.613943 0.047241
0.000000 0.656026 0.284753
0.003109 0.696172 0.267061
0.252523 0.737011 0.228053
0.590782 0.775661 0.161794
0.816042 0.794323 0.093551
0.914906 0.791443 0.167301
0.000000 0.787413 0.321449
0.009837 0.825588 0.317152
0.339054 0.867630 0.280640
0.652537 0.900738 0.230649
0.844864 0.904461 0.285465
0.925588 0.897538 0.403714
0.000275 0.000721 0.359559
0.070267 0.001326 0.391522
0.260853 0.003845 0.420131
0.488125 0.005329 0.434065
0.678959 0.003366 0.431717
0.827764 0.001124 0.423595
0.000677 0.130264 0.350526
0.027731 0.141096 0.390103
0.243594 0.173571 0.419008
0.486532 0.178025 0.410988
0.702366 0.168664 0.398358
0.848446 0.148621 0.390031
0.000166 0.295273 0.394436
0.014106 0.348642 0.426938
0.291465 0.413297 0.448526
0.555003 0.407024 0.414508
0.750142 0.390466 0.386246
0.887891 0.381689 0.375237
0.000000 0.473658 0.436391
0.003378 0.526420 0.450456
0.197609 0.595559 0.440535
0.572363 0.633996 0.411992
0.790341 0.632919 0.368252
0.923415 0.638097 0.350047
0.000000 0.666801 0.480434
0.000162 0.707700 0.487703
0.193493 0.754435 0.466812
0.580477 0.795485 0.435003
0.816860 0.818347 0.393932
0.948672 0.824022 0.353494
0.000000 0.804411 0.528204
0.009368 0.846650 0.544406
0.337800 0.888083 0.535237
0.656399 0.919968 0.520557
0.852324 0.940968 0.505385
0.960528 0.941538 0.563328
0.000088 0.000202 0.496403
0.057623 0.000244 0.524646
0.219772 0.005581 0.555647
0.448880 0.012050 0.586791
0.665614 0.005852 0.611845
0.826807 0.004145 0.629440
0.000152 0.128597 0.483838
0.021380 0.137884 0.501284
0.161311 0.166892 0.545872
0.437385 0.186541 0.585371
0.684805 0.183031 0.610411
0.847281 0.166593 0.622594
0.000000 0.296696 0.523781
0.008539 0.327108 0.545922
0.161780 0.384353 0.622130
0.514487 0.410561 0.636762
0.732898 0.404837 0.632965
0.884278 0.406224 0.641073
0.000000 0.481271 0.584330
0.003725 0.533892 0.615234
0.142680 0.604395 0.654404
0.564955 0.657266 0.669802
0.787403 0.653856 0.651764
0.927753 0.669433 0.661552
0.000000 0.677877 0.635058
0.000136 0.716225 0.650556
0.168304 0.767642 0.676403
0.561143 0.819200 0.679498
0.816060 0.843257 0.675225
0.954339 0.849942 0.670332
0.006993 0.820818 0.691140
0.050683 0.849625 0.714051
0.356908 0.901791 0.734420
0.670353 0.937407 0.748358
0.854306 0.960004 0.752487
0.980269 0.972116 0.739799
0.000538 0.000793 0.619515
0.053035 0.000946 0.649400
0.205420 0.009157 0.679351
0.418214 0.016543 0.707078
0.634602 0.017659 0.727193
0.820612 0.005949 0.766995
0.000023 0.135426 0.622420
0.017061 0.147569 0.637601
0.134164 0.172615 0.673209
0.399594 0.195608 0.713754
0.662114 0.202425 0.749362
0.843467 0.189179 0.778662
0.000002 0.304040 0.658583
0.002727 0.327301 0.672954
0.107143 0.378124 0.723880
0.440032 0.406663 0.760686
0.706911 0.420507 0.787560
0.880108 0.431043 0.808597
0.000000 0.492430 0.693113
0.000537 0.533532 0.716821
0.108877 0.594383 0.771734
0.496509 0.649966 0.820587
0.770323 0.665812 0.827456
0.922427 0.693652 0.838069
0.000000 0.682700 0.753845
0.004087 0.726894 0.783063
0.186193 0.775978 0.814250
0.546126 0.827214 0.837906
0.819526 0.861809 0.853501
0.951951 0.872600 0.858388
0.037605 0.823836 0.794219
0.104029 0.843398 0.807012
0.413646 0.911180 0.852216
0.695286 0.945866 0.870782
0.871062 0.968128 0.890369
0.981827 0.983657 0.900394
0.007777 0.009217 0.676261
0.054024 0.003907 0.735086
0.198626 0.007904 0.778433
0.402491 0.014998 0.800480
0.622769 0.024742 0.827253
0.803510 0.026468 0.852937
0.000012 0.150406 0.735726
0.008618 0.162749 0.753784
0.121275 0.185968 0.787257
0.389511 0.212965 0.820910
0.644945 0.232651 0.853629
0.829279 0.227192 0.878952
0.000000 0.316475 0.767200
0.000375 0.348495 0.788659
0.101593 0.393703 0.821466
0.423001 0.428070 0.852743
0.687058 0.454615 0.881375
0.872709 0.470275 0.909809
0.000000 0.511013 0.798344
0.000255 0.552279 0.828522
0.134865 0.604343 0.861262
0.492221 0.656647 0.900902
0.745428 0.684858 0.917494
0.913095 0.715196 0.935744
0.000019 0.700046 0.859440
0.008971 0.745659 0.883946
0.295223 0.785956 0.899179
0.598904 0.827053 0.917925
0.807047 0.861868 0.939433
0.946499 0.886139 0.953433
0.089282 0.822087 0.861078
0.212222 0.856303 0.880988
0.503035 0.920517 0.931681
0.742241 0.952130 0.950791
0.896216 0.972425 0.965548
0.988856 0.991760 0.985135
