tools/decompiled/jadx/resources/res/raw/pacific.cube
LUT_3D_SIZE 16
0.016658 0.010260 0.006000
0.048035 0.006415 0.002783
0.104203 0.003130 0.001011
0.179919 0.002406 0.000190
0.263352 0.002382 0.000145
0.339291 0.003013 0.000191
0.400651 0.003647 0.000230
0.454910 0.004124 0.000260
0.506877 0.003140 0.000293
0.559693 0.004011 0.000325
0.609140 0.002223 0.000869
0.650691 0.004207 0.003585
0.680180 0.009532 0.009929
0.708564 0.016627 0.017041
0.733013 0.022747 0.023139
0.750651 0.027152 0.027576
0.009286 0.046494 0.000607
0.040873 0.055521 0.000161
0.100623 0.056706 0.000026
0.172027 0.055733 0.000070
0.246779 0.051709 0.000120
0.320037 0.050215 0.000159
0.384222 0.049774 0.000192
0.441563 0.049267 0.000223
0.496701 0.048750 0.000263
0.551332 0.046587 0.000298
0.603286 0.041618 0.000346
0.654272 0.033214 0.000539
0.696343 0.027549 0.003247
0.725741 0.027245 0.010977
0.750708 0.030135 0.018280
0.772877 0.036137 0.022579
0.008866 0.097050 0.000124
0.028889 0.105760 0.000320
0.078149 0.113260 0.000145
0.157679 0.115500 0.000049
0.236847 0.114316 0.000083
0.312756 0.112073 0.000125
0.379580 0.110330 0.000165
0.440549 0.109665 0.000197
0.499066 0.109610 0.000238
0.556831 0.108317 0.000269
0.611208 0.103293 0.000302
0.663858 0.094946 0.000341
0.712363 0.084691 0.000372
0.758179 0.076865 0.000674
0.795767 0.071781 0.002917
0.824937 0.071171 0.005387
0.007167 0.149587 0.000642
0.021944 0.159599 0.001456
0.057603 0.170259 0.000592
0.134962 0.178580 0.000047
0.218117 0.182465 0.000035
0.299952 0.184915 0.000084
0.374078 0.185943 0.000130
0.438672 0.185098 0.000161
0.501457 0.181288 0.000201
0.562809 0.174321 0.000237
0.619630 0.165888 0.000276
0.673895 0.157340 0.000313
0.723583 0.148656 0.000351
0.769671 0.139645 0.000380
0.812168 0.129984 0.000409
0.847452 0.123351 0.000523
0.005202 0.205900 0.002605
0.017787 0.215391 0.002259
0.042613 0.225896 0.001489
0.113674 0.235985 0.000628
0.196795 0.246245 0.000247
0.281906 0.251850 0.000084
0.363103 0.255313 0.000085
0.435496 0.256330 0.000125
0.503264 0.253933 0.000180
0.566396 0.246598 0.000207
0.625515 0.237632 0.000246
0.681949 0.229684 0.000286
0.733525 0.222890 0.000323
0.780113 0.214245 0.000352
0.824507 0.200502 0.000381
0.862332 0.189175 0.000410
0.004163 0.258187 0.004247
0.014721 0.268828 0.004027
0.034071 0.281450 0.003021
0.096867 0.292171 0.001497
0.177238 0.304458 0.000863
0.264769 0.314429 0.000350
0.350769 0.319853 0.000148
0.430973 0.322158 0.000109
0.504712 0.322036 0.000150
0.570534 0.318284 0.000182
0.631413 0.311206 0.000211
0.689217 0.305493 0.000248
0.741129 0.302249 0.000282
0.788711 0.293835 0.000315
0.836161 0.276828 0.000348
0.874635 0.263434 0.000377
0.002638 0.304167 0.006666
0.011453 0.316135 0.006384
0.029168 0.331185 0.006467
0.083589 0.344522 0.005257
0.161942 0.356891 0.003795
0.248508 0.368374 0.002093
0.339521 0.376762 0.000570
0.426007 0.382065 0.000096
0.506163 0.383890 0.000102
0.575298 0.382577 0.000165
0.639045 0.377666 0.000186
0.698772 0.373351 0.000219
0.750864 0.372710 0.000247
0.799053 0.367498 0.000282
0.847388 0.352717 0.000323
0.884839 0.342549 0.000348
0.001407 0.344876 0.014134
0.007218 0.361060 0.013414
0.021967 0.380590 0.012972
0.070306 0.396594 0.010112
0.147901 0.409596 0.006803
0.234017 0.421751 0.003952
0.326406 0.432301 0.001416
0.421558 0.440834 0.000506
0.507568 0.445879 0.000173
0.580954 0.447602 0.000115
0.648170 0.445674 0.000158
0.710708 0.443351 0.000193
0.763885 0.443512 0.000227
0.812832 0.439775 0.000256
0.860480 0.431653 0.000287
0.895798 0.426909 0.000307
0.000408 0.394550 0.023854
0.002937 0.412855 0.020709
0.015661 0.433815 0.018193
0.057184 0.451746 0.016116
0.132673 0.466806 0.013175
0.220130 0.480918 0.008682
0.314380 0.493486 0.004348
0.414111 0.504965 0.001314
0.507915 0.514736 0.000297
0.585732 0.520684 0.000092
0.656815 0.522709 0.000127
0.722311 0.521491 0.000167
0.777223 0.521116 0.000202
0.827217 0.518103 0.000227
0.873110 0.513362 0.000257
0.907302 0.512244 0.000272
0.000035 0.457668 0.041026
0.001307 0.474844 0.036109
0.009624 0.493456 0.029811
0.040159 0.511197 0.025478
0.115097 0.526651 0.019315
0.206758 0.541449 0.012496
0.304128 0.555272 0.007630
0.406972 0.568352 0.002850
0.505081 0.580249 0.000992
0.587894 0.589790 0.000316
0.663552 0.597231 0.000139
0.732621 0.598837 0.000134
0.791687 0.595642 0.000172
0.841850 0.593642 0.000200
0.885451 0.592377 0.000251
0.918176 0.593992 0.000810
0.000003 0.521335 0.055751
0.000558 0.536712 0.047857
0.004066 0.553570 0.039842
0.032423 0.570510 0.032020
0.095476 0.586429 0.025990
0.192865 0.601039 0.020478
0.295788 0.615223 0.013855
0.404165 0.629322 0.006667
0.503404 0.642013 0.002673
0.590022 0.652330 0.000926
0.669726 0.660983 0.000353
0.741697 0.666461 0.000195
0.803412 0.663157 0.000169
0.855134 0.661397 0.000419
0.896117 0.663126 0.002384
0.925503 0.666060 0.011696
0.000000 0.580967 0.065590
0.000102 0.595298 0.057756
0.002272 0.611248 0.051003
0.018794 0.627975 0.044816
0.085481 0.642806 0.036941
0.183078 0.656138 0.028948
0.290824 0.669586 0.018629
0.402126 0.683552 0.010690
0.504905 0.696223 0.006067
0.594366 0.707083 0.002892
0.676427 0.715721 0.001124
0.749185 0.721104 0.000368
0.812189 0.722633 0.000153
0.863912 0.722164 0.006679
0.899958 0.722589 0.027742
0.921513 0.724997 0.061940
0.000000 0.637789 0.075471
0.000017 0.650766 0.067626
0.001537 0.665507 0.061500
0.018526 0.680859 0.055371
0.078746 0.694294 0.046219
0.178295 0.706547 0.033810
0.292382 0.719624 0.023292
0.407700 0.733399 0.015589
0.510455 0.746340 0.008933
0.601470 0.757463 0.003911
0.685883 0.765736 0.001446
0.758429 0.771062 0.000474
0.818884 0.773494 0.010699
0.864902 0.773096 0.044634
0.894583 0.772063 0.088112
0.915080 0.772764 0.131633
0.000000 0.690672 0.085076
0.000000 0.702496 0.078219
0.000924 0.716181 0.072462
0.017815 0.730201 0.067559
0.075184 0.743084 0.059614
0.182089 0.754515 0.047967
0.302471 0.767121 0.033909
0.419055 0.780517 0.020458
0.523278 0.793237 0.009429
0.614241 0.803700 0.003989
0.698776 0.811610 0.003559
0.768363 0.815871 0.013997
0.822092 0.815688 0.053041
0.861905 0.813145 0.105935
0.890759 0.811392 0.156682
0.912362 0.811927 0.201800
0.000000 0.738130 0.099662
0.000049 0.748482 0.094049
0.001030 0.760833 0.088903
0.014591 0.774182 0.083981
0.082587 0.785555 0.075472
0.196952 0.796544 0.062560
0.321342 0.809090 0.045517
0.440594 0.822117 0.029608
0.542219 0.834561 0.018957
0.632671 0.844462 0.012718
0.714446 0.850189 0.019664
0.779802 0.850044 0.058424
0.827538 0.847025 0.119472
0.862544 0.844619 0.173626
0.890079 0.844437 0.223946
0.912976 0.847041 0.273733
0.000000 0.774694 0.117559
0.000000 0.784577 0.114141
0.001679 0.797112 0.109992
0.026666 0.810660 0.103516
0.101420 0.822835 0.093260
0.221549 0.835264 0.078632
0.351351 0.849224 0.062396
0.468139 0.862637 0.047664
0.566062 0.874322 0.036880
0.655668 0.882345 0.035163
0.732996 0.881485 0.073116
0.793086 0.877411 0.138490
0.836871 0.875291 0.200373
0.868149 0.874641 0.250758
0.893754 0.876143 0.298995
0.915998 0.879182 0.346571
0.007071 0.002983 0.024172
0.035830 0.002611 0.041116
0.086937 0.001913 0.043928
0.154700 0.002442 0.040117
0.232137 0.002210 0.036948
0.307372 0.001991 0.034640
0.375189 0.002354 0.031327
0.434037 0.001512 0.026158
0.489927 0.002623 0.024475
0.546786 0.002233 0.021274
0.600690 0.001294 0.014921
0.648510 0.002845 0.018017
0.683892 0.007331 0.023016
0.712788 0.015276 0.026219
0.737912 0.022583 0.029086
0.758316 0.027187 0.035869
0.007144 0.036199 0.033832
0.034777 0.053518 0.044427
0.083070 0.051496 0.036228
0.145394 0.046391 0.025141
0.218313 0.044790 0.019221
0.292623 0.043959 0.013928
0.362196 0.043301 0.012680
0.424616 0.043269 0.013621
0.483478 0.042625 0.011860
0.542172 0.040307 0.008604
0.597127 0.036558 0.008705
0.651258 0.031424 0.006857
0.697885 0.029168 0.006778
0.731966 0.030108 0.013732
0.759838 0.033026 0.021327
0.783320 0.038329 0.027280
0.006171 0.085783 0.037073
0.021869 0.096872 0.038453
0.064467 0.110431 0.033857
0.144388 0.112394 0.021276
0.220660 0.110554 0.014077
0.294446 0.107910 0.012274
0.364256 0.107060 0.009976
0.428317 0.106724 0.006815
0.489235 0.106048 0.007736
0.548956 0.104239 0.007795
0.604186 0.101013 0.005641
0.659770 0.095052 0.003701
0.711932 0.087543 0.003064
0.759402 0.081921 0.003639
0.799651 0.077540 0.005092
0.830317 0.075705 0.008895
0.004512 0.140836 0.042673
0.016713 0.150331 0.040153
0.042266 0.166266 0.036323
0.120317 0.178434 0.026728
0.207264 0.183164 0.017167
0.289424 0.184324 0.011766
0.362895 0.183048 0.009402
0.429767 0.181360 0.008437
0.494941 0.178412 0.006712
0.556770 0.173754 0.005456
0.613862 0.167393 0.003885
0.670001 0.160502 0.002329
0.723087 0.152481 0.001782
0.770495 0.143620 0.003286
0.813275 0.135045 0.002877
0.849041 0.128310 0.002654
0.002625 0.198635 0.052363
0.012633 0.206762 0.047225
0.031243 0.221373 0.041946
0.094199 0.235870 0.032745
0.182517 0.248584 0.024152
0.270947 0.253428 0.015966
0.354176 0.255119 0.011516
0.428024 0.254535 0.009788
0.497947 0.251632 0.007679
0.562963 0.245091 0.004526
0.623347 0.237268 0.002182
0.681381 0.229508 0.003261
0.734852 0.221963 0.002873
0.781843 0.213281 0.001905
0.824428 0.203561 0.001255
0.860664 0.195084 0.002455
0.001618 0.251672 0.062321
0.009353 0.260784 0.054649
0.023320 0.276953 0.048923
0.074105 0.292794 0.041141
0.160637 0.307268 0.033964
0.252684 0.318514 0.026211
0.341884 0.323350 0.016827
0.424378 0.324426 0.009121
0.500831 0.323187 0.007350
0.568873 0.318744 0.007065
0.631215 0.311099 0.004988
0.691676 0.302731 0.002574
0.746519 0.295323 0.001042
0.793300 0.287955 0.001930
0.836742 0.278335 0.002047
0.872469 0.269801 0.001748
0.000824 0.302352 0.068359
0.005638 0.312681 0.062509
0.017908 0.329323 0.058699
0.062676 0.346050 0.051793
0.142757 0.360380 0.043983
0.234140 0.373131 0.036458
0.329052 0.382630 0.027249
0.419350 0.387273 0.017869
0.502987 0.387958 0.010757
0.574477 0.386020 0.006399
0.639436 0.380753 0.004298
0.701456 0.373419 0.002882
0.756950 0.367265 0.002402
0.804948 0.361700 0.001574
0.849570 0.353611 0.000812
0.884417 0.347913 0.000511
0.000232 0.350534 0.083579
0.002197 0.362625 0.075737
0.012225 0.380872 0.070557
0.047351 0.398627 0.064146
0.126947 0.412971 0.055771
0.217966 0.426115 0.047538
0.314148 0.438295 0.037908
0.413819 0.448285 0.026139
0.503594 0.452326 0.013116
0.579667 0.452282 0.005554
0.648198 0.450187 0.002796
0.712756 0.446440 0.001919
0.768465 0.442892 0.001682
0.817345 0.439176 0.001211
0.862549 0.434280 0.000851
0.896924 0.431488 0.000787
0.000006 0.404696 0.100719
0.000869 0.418469 0.091131
0.006537 0.436857 0.083254
0.037385 0.455100 0.075872
0.109493 0.470984 0.067045
0.202091 0.485769 0.057103
0.300247 0.499738 0.045766
0.404024 0.512849 0.032444
0.503203 0.523263 0.021391
0.583864 0.527000 0.011067
0.656642 0.527186 0.005061
0.723331 0.525076 0.002804
0.779800 0.523081 0.001429
0.829764 0.520691 0.000872
0.874510 0.518483 0.000749
0.908726 0.518381 0.000681
0.000003 0.463540 0.116637
0.000136 0.478514 0.105120
0.003319 0.497271 0.096636
0.023925 0.515783 0.089122
0.089227 0.531868 0.079094
0.186325 0.546307 0.067662
0.288283 0.560930 0.054601
0.395413 0.574915 0.039843
0.497839 0.587470 0.026020
0.584997 0.596792 0.013539
0.662962 0.601291 0.004577
0.733554 0.601533 0.001152
0.792301 0.600248 0.000861
0.842665 0.599435 0.001018
0.886375 0.599098 0.000797
0.919761 0.600732 0.001274
0.000001 0.525727 0.129967
0.000023 0.541010 0.116693
0.001686 0.558164 0.107044
0.017328 0.575849 0.099313
0.070803 0.591929 0.089612
0.171529 0.606007 0.076034
0.279572 0.620419 0.059267
0.392076 0.634886 0.041283
0.495572 0.647827 0.026223
0.586343 0.658233 0.015039
0.668638 0.665703 0.007398
0.742471 0.669834 0.003387
0.803190 0.668931 0.001371
0.855280 0.668157 0.000914
0.896664 0.670024 0.003450
0.926222 0.672967 0.014691
0.000000 0.586849 0.135428
0.000010 0.600992 0.123145
0.000603 0.616542 0.114682
0.012056 0.633279 0.108136
0.065222 0.648325 0.099409
0.161294 0.661527 0.085449
0.275530 0.674966 0.068058
0.391922 0.689028 0.050985
0.497641 0.701660 0.035074
0.589917 0.712619 0.021749
0.673884 0.721339 0.011877
0.748318 0.726522 0.005291
0.811511 0.728782 0.001807
0.863159 0.728626 0.007958
0.898951 0.728932 0.032435
0.920815 0.731070 0.069383
0.000000 0.644852 0.140565
0.000003 0.657046 0.130745
0.000881 0.671213 0.123454
0.010516 0.686368 0.117295
0.057436 0.700344 0.109883
0.158823 0.712637 0.094883
0.278967 0.725690 0.076840
0.399087 0.739353 0.058520
0.504639 0.751964 0.039596
0.597117 0.762853 0.024422
0.683195 0.771226 0.014107
0.757114 0.776852 0.008004
0.817138 0.779755 0.015745
0.862688 0.779553 0.050487
0.892676 0.778136 0.095464
0.914123 0.778478 0.140548
0.000000 0.696877 0.147723
0.000000 0.707967 0.140145
0.000446 0.720937 0.133991
0.010904 0.735080 0.129147
0.057726 0.748866 0.121332
0.165562 0.760589 0.105573
0.291614 0.773176 0.085793
0.411643 0.786609 0.065237
0.518071 0.798741 0.046348
0.610519 0.809140 0.031939
0.696257 0.817016 0.022194
0.766849 0.821585 0.024996
0.820985 0.821566 0.061236
0.860313 0.818969 0.114675
0.889063 0.817025 0.164872
0.911491 0.817439 0.210969
0.000000 0.742920 0.160074
0.000005 0.752665 0.155240
0.000414 0.764552 0.151139
0.009866 0.778197 0.146874
0.071745 0.790807 0.138068
0.181972 0.802805 0.122747
0.313601 0.815668 0.101942
0.434968 0.828678 0.081256
0.538540 0.840402 0.062749
0.630059 0.850351 0.046713
0.712865 0.856446 0.041747
0.778669 0.855913 0.072473
0.827426 0.852319 0.131503
0.862320 0.849646 0.184312
0.889460 0.849308 0.233073
0.912419 0.851414 0.281625
0.000000 0.778144 0.179902
0.000001 0.787782 0.177510
0.002067 0.800373 0.174612
0.023025 0.814825 0.168904
0.088130 0.828956 0.159049
0.210843 0.841952 0.142251
0.345310 0.855421 0.123173
0.463953 0.868929 0.103946
0.562944 0.880151 0.085852
0.653471 0.888539 0.073126
0.731921 0.888987 0.096287
0.793276 0.884051 0.156129
0.837628 0.881114 0.215654
0.869501 0.879922 0.265170
0.894926 0.880485 0.310661
0.916094 0.882433 0.353676
0.001768 0.001061 0.085088
0.024110 0.000878 0.103865
0.064953 0.001519 0.122557
0.128295 0.001535 0.128414
0.200237 0.002560 0.125329
0.276129 0.002921 0.122844
0.348711 0.001769 0.120434
0.412827 0.002303 0.115719
0.473442 0.003115 0.110220
0.533875 0.002122 0.105922
0.591367 0.002624 0.102337
0.645840 0.001480 0.098327
0.695874 0.000920 0.093469
0.733882 0.005875 0.091437
0.761510 0.012812 0.090969
0.783012 0.018822 0.093141
0.003838 0.029780 0.085444
0.020138 0.036470 0.103066
0.056696 0.045183 0.117674
0.114059 0.042228 0.110544
0.184273 0.041266 0.105141
0.258381 0.040863 0.100601
0.333177 0.039699 0.097394
0.402302 0.041198 0.094574
0.465942 0.042482 0.092575
0.528575 0.042271 0.088912
0.587878 0.039264 0.083532
0.645672 0.034856 0.078716
0.698603 0.030854 0.075118
0.742711 0.028053 0.074271
0.776046 0.029117 0.073520
0.802188 0.032996 0.073225
0.005688 0.078051 0.097926
0.018658 0.090472 0.111302
0.054635 0.111591 0.125943
0.128988 0.111285 0.111379
0.193974 0.105436 0.096771
0.263919 0.103190 0.089429
0.336838 0.103289 0.084857
0.406343 0.103970 0.081621
0.471601 0.104653 0.078201
0.535581 0.103228 0.073790
0.594608 0.099726 0.068696
0.653044 0.094684 0.062686
0.708585 0.089209 0.057839
0.757904 0.083929 0.053860
0.800950 0.078666 0.051213
0.835429 0.076596 0.050851
0.004224 0.132490 0.106549
0.014175 0.141718 0.110647
0.032862 0.164451 0.113166
0.108451 0.182314 0.110974
0.195831 0.184677 0.097488
0.273286 0.182804 0.088269
0.346553 0.181066 0.081227
0.414948 0.179811 0.075355
0.481487 0.177037 0.071491
0.546100 0.173319 0.066765
0.605740 0.168058 0.061782
0.664418 0.161264 0.054985
0.719875 0.153768 0.049845
0.768675 0.146153 0.046558
0.812397 0.138327 0.043418
0.849562 0.132560 0.041824
0.002152 0.192180 0.127596
0.009824 0.198587 0.125590
0.023325 0.217062 0.119899
0.075249 0.237835 0.111924
0.169014 0.252237 0.103053
0.259766 0.256409 0.092624
0.344423 0.256638 0.084559
0.418617 0.254120 0.076910
0.489247 0.249752 0.069382
0.555666 0.243984 0.062328
0.617168 0.237419 0.055792
0.676653 0.229903 0.049811
0.732387 0.222824 0.044511
0.780581 0.215430 0.041042
0.823619 0.207286 0.036469
0.860385 0.199862 0.032150
0.000938 0.247164 0.148055
0.006126 0.254481 0.140762
0.015943 0.272577 0.131368
0.052135 0.293653 0.121479
0.141628 0.310152 0.111162
0.238983 0.322827 0.102310
0.332344 0.327359 0.089845
0.417149 0.328088 0.079494
0.494509 0.325167 0.070930
0.563895 0.319169 0.061778
0.627981 0.311919 0.052857
0.689958 0.303751 0.044503
0.745559 0.296023 0.038309
0.793311 0.288588 0.032915
0.836406 0.281718 0.028318
0.871995 0.276088 0.024904
0.000192 0.302375 0.160763
0.002630 0.311282 0.152434
0.010010 0.327556 0.142687
0.041042 0.346966 0.134237
0.118029 0.363329 0.124111
0.216638 0.377794 0.115448
0.318119 0.388498 0.104239
0.412169 0.392901 0.087618
0.497325 0.392928 0.073213
0.570645 0.389845 0.061685
0.637333 0.384421 0.051176
0.701310 0.376812 0.041276
0.758244 0.368823 0.033221
0.806435 0.362379 0.026161
0.849760 0.357334 0.020591
0.884331 0.354243 0.017733
0.000033 0.354805 0.175905
0.000508 0.365491 0.166052
0.005192 0.382161 0.155708
0.027028 0.401147 0.147917
0.101507 0.416617 0.137140
0.197806 0.430751 0.126798
0.300611 0.444115 0.115033
0.405428 0.455613 0.098179
0.498201 0.459448 0.077177
0.576673 0.458547 0.060040
0.646453 0.455687 0.048321
0.712381 0.451469 0.037298
0.769430 0.446811 0.027413
0.818965 0.441848 0.019513
0.863206 0.437845 0.014391
0.897302 0.436578 0.011407
0.000000 0.409516 0.189164
0.000091 0.421957 0.178402
0.001958 0.439110 0.166858
0.019404 0.458793 0.158393
0.083019 0.475641 0.147279
0.180934 0.490668 0.135074
0.285632 0.505400 0.121785
0.394080 0.520002 0.104335
0.497533 0.531622 0.083125
0.580798 0.535259 0.057984
0.654854 0.534059 0.038178
0.722758 0.530840 0.027129
0.780631 0.527875 0.021518
0.831153 0.524920 0.017332
0.875126 0.523367 0.013394
0.909370 0.523457 0.010010
0.000000 0.467592 0.200038
0.000023 0.482229 0.186760
0.000757 0.500344 0.175360
0.013678 0.519668 0.166889
0.066216 0.537034 0.156782
0.163497 0.551604 0.143855
0.272768 0.566479 0.128460
0.384474 0.581295 0.109560
0.491007 0.594868 0.088048
0.581525 0.604456 0.065787
0.661146 0.608061 0.042800
0.733058 0.607091 0.026901
0.792301 0.605700 0.019581
0.842831 0.605191 0.014555
0.886073 0.605688 0.009513
0.920258 0.607299 0.006677
0.000000 0.529717 0.206541
0.000000 0.544746 0.192636
0.000515 0.562352 0.181842
0.007860 0.580975 0.174470
0.053341 0.597650 0.165479
0.148602 0.611586 0.152031
0.263711 0.625910 0.133945
0.381432 0.640919 0.113249
0.488655 0.654369 0.092102
0.582319 0.665229 0.070985
0.666499 0.672575 0.049603
0.741487 0.675909 0.029254
0.802336 0.675363 0.013604
0.853913 0.675150 0.008043
0.895309 0.677072 0.009103
0.926079 0.679780 0.019957
0.000000 0.592523 0.208309
0.000002 0.606716 0.196701
0.000060 0.622159 0.187263
0.007724 0.638996 0.181396
0.047725 0.654248 0.173563
0.138654 0.667361 0.159287
0.260659 0.680586 0.139330
0.381952 0.694883 0.118138
0.490889 0.707924 0.095669
0.585518 0.719034 0.072415
0.671182 0.727697 0.049512
0.747051 0.732830 0.031116
0.810407 0.735481 0.018549
0.861618 0.735703 0.017156
0.896641 0.735828 0.039550
0.919600 0.737341 0.077273
0.000000 0.651249 0.211173
0.000000 0.663176 0.202774
0.000218 0.676787 0.195205
0.004691 0.691602 0.189737
0.042450 0.705703 0.182759
0.140016 0.718536 0.168242
0.265737 0.731638 0.148087
0.390420 0.745608 0.126272
0.499639 0.758337 0.103224
0.593555 0.769066 0.081083
0.680733 0.777516 0.060379
0.755655 0.783388 0.043452
0.816232 0.786626 0.038729
0.862290 0.786607 0.063714
0.890715 0.784774 0.104199
0.912898 0.784399 0.149300
0.000000 0.702110 0.217344
0.000000 0.712714 0.211078
0.000111 0.725386 0.205150
0.005527 0.739275 0.201094
0.044755 0.753432 0.194411
0.150358 0.766114 0.179624
0.282039 0.779104 0.158964
0.405600 0.792717 0.137301
0.513928 0.804900 0.115682
0.607585 0.815190 0.094461
0.694058 0.823108 0.073607
0.765665 0.828251 0.061520
0.821026 0.828623 0.082287
0.860443 0.825411 0.129052
0.888374 0.823251 0.176354
0.910777 0.822723 0.220082
0.000000 0.746770 0.229570
0.000000 0.756155 0.225963
0.000010 0.767984 0.222157
0.009913 0.781619 0.218897
0.061749 0.795471 0.211379
0.166716 0.808979 0.196456
0.306217 0.821967 0.175232
0.430591 0.835168 0.154312
0.535714 0.846592 0.133523
0.628121 0.856112 0.112016
0.711313 0.863216 0.094956
0.778512 0.864379 0.107458
0.829181 0.860744 0.154884
0.864101 0.857065 0.204044
0.890757 0.855907 0.249599
0.912337 0.855965 0.290860
0.000000 0.782360 0.249055
0.000000 0.791953 0.247897
0.001884 0.804518 0.245598
0.017285 0.819335 0.241880
0.076846 0.834588 0.233533
0.202748 0.848077 0.217001
0.341704 0.861382 0.198594
0.462785 0.874784 0.179996
0.562402 0.885964 0.160751
0.652088 0.894975 0.141996
0.731121 0.899437 0.141967
0.794645 0.895329 0.189163
0.840744 0.891202 0.245253
0.873605 0.889008 0.293086
0.899032 0.888152 0.334968
0.918312 0.887645 0.368954
0.000840 0.000704 0.161246
0.018284 0.000422 0.174143
0.050065 0.000619 0.196503
0.104772 0.003005 0.210053
0.174340 0.003467 0.214801
0.247095 0.002607 0.215062
0.323344 0.002726 0.214539
0.392668 0.003214 0.212275
0.456664 0.002473 0.209702
0.520192 0.003353 0.205774
0.580356 0.002890 0.200694
0.637857 0.001458 0.194293
0.692234 0.001015 0.188692
0.742818 0.000965 0.182933
0.783230 0.002953 0.178276
0.811313 0.007722 0.175131
0.002004 0.027942 0.150860
0.013117 0.027469 0.154663
0.035632 0.034803 0.181345
0.083453 0.038555 0.195040
0.154392 0.038897 0.194365
0.227381 0.039817 0.192386
0.303722 0.040583 0.191805
0.378519 0.041786 0.191335
0.447772 0.043252 0.190470
0.515600 0.044564 0.186345
0.578541 0.042616 0.180283
0.638445 0.038094 0.174516
0.694584 0.033137 0.168818
0.745208 0.029885 0.163723
0.788005 0.027265 0.158751
0.821221 0.026940 0.153257
0.003957 0.075109 0.161792
0.014406 0.079669 0.169654
0.033749 0.093566 0.202595
0.095537 0.105678 0.209200
0.164334 0.103208 0.196981
0.228669 0.100756 0.188165
0.302201 0.101172 0.184559
0.378988 0.102895 0.182697
0.451097 0.105061 0.179349
0.520990 0.105539 0.173635
0.585113 0.103020 0.165081
0.645832 0.098396 0.156653
0.703674 0.093172 0.148834
0.755214 0.087902 0.143108
0.800605 0.080772 0.137959
0.838639 0.075805 0.133433
0.003281 0.131130 0.184851
0.012745 0.139126 0.191778
0.025804 0.160407 0.210585
0.094511 0.188058 0.220163
0.186854 0.190135 0.206172
0.255574 0.184797 0.193781
0.324285 0.180594 0.184372
0.393434 0.178521 0.176635
0.462650 0.176784 0.169795
0.532512 0.174094 0.161610
0.596768 0.169466 0.152305
0.658337 0.163305 0.142525
0.716435 0.156467 0.134643
0.766755 0.149321 0.129318
0.811187 0.141090 0.124352
0.849195 0.134810 0.119737
0.001859 0.187737 0.203089
0.008098 0.192847 0.205925
0.018160 0.212673 0.209340
0.057619 0.243118 0.212127
0.161688 0.261181 0.207075
0.252476 0.262781 0.195737
0.332844 0.258447 0.184581
0.406002 0.254146 0.173531
0.476155 0.249833 0.163063
0.545096 0.244992 0.152928
0.609704 0.239364 0.143028
0.671889 0.232929 0.134215
0.729742 0.225960 0.126111
0.779048 0.219010 0.120965
0.822421 0.211267 0.115898
0.859813 0.204093 0.110623
0.000614 0.242805 0.224922
0.005066 0.249268 0.222668
0.012781 0.269105 0.219924
0.037511 0.297443 0.213883
0.127158 0.318384 0.207885
0.229316 0.330420 0.200650
0.325866 0.332443 0.187422
0.410189 0.331203 0.174176
0.487044 0.327172 0.159697
0.557251 0.320693 0.146217
0.623238 0.313765 0.134788
0.686449 0.307014 0.124761
0.743726 0.299945 0.115853
0.792491 0.292932 0.110461
0.835531 0.286810 0.105015
0.871793 0.281573 0.099151
0.000187 0.299846 0.241127
0.002747 0.307896 0.236260
0.006691 0.325500 0.229226
0.024448 0.350364 0.218523
0.095387 0.369878 0.211319
0.201908 0.384348 0.203317
0.310129 0.394847 0.192893
0.406629 0.398210 0.175623
0.492221 0.397067 0.159633
0.566694 0.392975 0.144327
0.634793 0.387328 0.129700
0.700380 0.380664 0.115735
0.758168 0.373813 0.104954
0.806693 0.367597 0.098482
0.849220 0.363471 0.092167
0.884133 0.360965 0.085782
0.000022 0.354543 0.252818
0.000198 0.364319 0.245961
0.002188 0.380826 0.238450
0.014587 0.403425 0.226886
0.076472 0.420994 0.217081
0.177655 0.436103 0.207271
0.287927 0.449866 0.196633
0.398507 0.462121 0.181249
