tools/decompiled/jadx/resources/res/raw/rush.cube
LUT_3D_SIZE 16
0.005249 0.003617 0.004090
0.107348 0.014866 0.009950
0.253525 0.035807 0.018705
0.425678 0.059377 0.028227
0.542177 0.084161 0.053031
0.635881 0.110553 0.085734
0.699715 0.138299 0.124880
0.750483 0.168257 0.164592
0.787228 0.196757 0.201195
0.819726 0.226601 0.236202
0.848915 0.250211 0.268633
0.864771 0.264727 0.297717
0.880095 0.279432 0.326576
0.892139 0.293987 0.355707
0.902403 0.309078 0.382749
0.912894 0.326136 0.409869
0.001271 0.022609 0.006798
0.013022 0.030265 0.008827
0.177207 0.068450 0.018060
0.369652 0.102994 0.027493
0.528614 0.128610 0.049605
0.630740 0.148451 0.081158
0.702876 0.171640 0.120760
0.756362 0.195285 0.161640
0.792504 0.220242 0.199133
0.823763 0.244654 0.234738
0.849449 0.258673 0.267193
0.865911 0.272341 0.296768
0.881718 0.286315 0.326110
0.893840 0.300239 0.355459
0.904303 0.315884 0.382225
0.914430 0.332310 0.409527
0.000000 0.054446 0.009621
0.000571 0.061731 0.011349
0.083191 0.101936 0.019470
0.259795 0.149816 0.029681
0.465339 0.195444 0.046869
0.601583 0.222157 0.074347
0.700181 0.240944 0.112544
0.758052 0.253565 0.155757
0.796285 0.264371 0.194604
0.825194 0.275060 0.230801
0.850448 0.285857 0.262977
0.869155 0.297222 0.293703
0.887195 0.310484 0.324435
0.900214 0.324676 0.353277
0.910644 0.338864 0.380622
0.920302 0.353464 0.408496
0.000000 0.094414 0.012770
0.000000 0.099950 0.014476
0.026219 0.133604 0.022153
0.196459 0.181190 0.036250
0.369299 0.225644 0.053166
0.550558 0.264091 0.077376
0.661166 0.284525 0.113099
0.743140 0.300692 0.154228
0.792669 0.313072 0.192076
0.827695 0.323262 0.226532
0.853969 0.332717 0.258355
0.876432 0.342797 0.289021
0.896998 0.353757 0.319589
0.910178 0.365376 0.349612
0.921526 0.379773 0.378439
0.931748 0.397151 0.407180
0.000062 0.137760 0.020032
0.000000 0.144534 0.022419
0.000079 0.169132 0.031000
0.150445 0.216504 0.044953
0.309350 0.263317 0.062230
0.497739 0.312046 0.086302
0.625674 0.342990 0.119609
0.721871 0.364408 0.156427
0.788979 0.380904 0.189964
0.834453 0.394162 0.223612
0.862236 0.403758 0.253762
0.886782 0.414452 0.283350
0.909660 0.426481 0.313303
0.926342 0.439655 0.344178
0.939700 0.452069 0.374510
0.949465 0.465576 0.404825
0.000000 0.186762 0.029178
0.000086 0.191642 0.030823
0.000097 0.216665 0.039985
0.100402 0.262908 0.057363
0.271052 0.311776 0.076624
0.444104 0.364228 0.098705
0.595836 0.407014 0.126382
0.699465 0.434339 0.156262
0.781741 0.455151 0.187983
0.833812 0.470961 0.220713
0.869298 0.481950 0.249333
0.894589 0.490669 0.278101
0.917684 0.500002 0.308231
0.936786 0.508938 0.339994
0.953056 0.518717 0.372070
0.962995 0.528679 0.404002
0.000000 0.234673 0.043001
0.000000 0.241784 0.046110
0.000120 0.268030 0.057018
0.067172 0.309369 0.072188
0.242453 0.355740 0.090249
0.404070 0.405504 0.112424
0.568852 0.454108 0.136469
0.675023 0.485059 0.164340
0.766203 0.508863 0.193608
0.824597 0.526328 0.221397
0.868139 0.540106 0.249327
0.896159 0.549200 0.278561
0.919108 0.557308 0.309214
0.941109 0.566022 0.341583
0.960012 0.575447 0.374723
0.972011 0.585059 0.407298
0.000000 0.288323 0.063771
0.000000 0.294947 0.066504
0.000000 0.317791 0.075638
0.052897 0.352983 0.089666
0.223016 0.396357 0.108848
0.379249 0.443214 0.130489
0.543372 0.492027 0.153537
0.655527 0.525627 0.180037
0.741123 0.549257 0.203904
0.812461 0.569508 0.227998
0.861121 0.585832 0.255693
0.894171 0.597478 0.285651
0.918498 0.607175 0.318221
0.940951 0.616543 0.351140
0.961580 0.625484 0.383830
0.977119 0.634405 0.415950
0.000152 0.339854 0.087522
0.000154 0.344788 0.089794
0.000163 0.363506 0.098100
0.028528 0.397148 0.112921
0.213980 0.435283 0.131006
0.367363 0.478283 0.151778
0.525632 0.525082 0.174433
0.641385 0.561143 0.195152
0.721809 0.583772 0.215469
0.797372 0.604855 0.238301
0.850587 0.621997 0.265377
0.888737 0.635771 0.297171
0.915859 0.646597 0.331112
0.938460 0.656520 0.366270
0.960457 0.666289 0.396870
0.978927 0.676078 0.427664
0.000000 0.383819 0.112740
0.000000 0.388757 0.115159
0.001319 0.406267 0.123723
0.050200 0.436183 0.138247
0.221392 0.469844 0.155715
0.369934 0.510025 0.174320
0.519762 0.552513 0.192603
0.633082 0.586647 0.212275
0.708994 0.609306 0.231809
0.785001 0.631436 0.253868
0.842496 0.650699 0.281676
0.882926 0.666485 0.314283
0.913169 0.679131 0.349460
0.936341 0.689451 0.381464
0.958558 0.699686 0.413055
0.979044 0.709835 0.444465
0.000000 0.432140 0.142949
0.000000 0.437229 0.145380
0.000000 0.454729 0.153681
0.105944 0.476948 0.164953
0.252540 0.507396 0.179463
0.389725 0.543923 0.195931
0.528943 0.583461 0.213532
0.632271 0.615268 0.232698
0.704303 0.637736 0.253433
0.778725 0.660696 0.277577
0.838372 0.681130 0.307131
0.879911 0.698299 0.340741
0.911518 0.711966 0.373475
0.935035 0.722921 0.404636
0.957494 0.733770 0.435479
0.979253 0.744587 0.466358
0.000000 0.486691 0.177412
0.007957 0.490103 0.179210
0.065254 0.501575 0.185242
0.164518 0.521933 0.195692
0.296498 0.550286 0.209772
0.424852 0.584930 0.226888
0.551279 0.621114 0.244980
0.637248 0.648811 0.264967
0.706174 0.671027 0.286365
0.778695 0.694257 0.311840
0.837953 0.715413 0.343091
0.879870 0.733321 0.375518
0.911615 0.747032 0.406761
0.935020 0.757981 0.435802
0.957538 0.769052 0.464604
0.979550 0.780293 0.494644
0.071582 0.539714 0.217094
0.081653 0.542729 0.218622
0.141207 0.553682 0.224340
0.252185 0.572639 0.234289
0.356872 0.598721 0.248304
0.474570 0.631310 0.265862
0.576194 0.661789 0.284214
0.648017 0.685814 0.305916
0.714838 0.707919 0.331754
0.785620 0.730562 0.360077
0.841434 0.750665 0.388434
0.883501 0.768035 0.416351
0.913446 0.781408 0.443125
0.936494 0.791559 0.470566
0.958761 0.801983 0.498026
0.980679 0.812603 0.523329
0.211617 0.597034 0.262929
0.230701 0.599575 0.264446
0.271108 0.609396 0.270307
0.343982 0.626786 0.281686
0.437799 0.651894 0.298274
0.530656 0.677956 0.316911
0.607968 0.702559 0.338617
0.666576 0.721903 0.359470
0.731641 0.743152 0.382789
0.801937 0.764236 0.405885
0.849532 0.780769 0.431147
0.890674 0.796914 0.458518
0.916157 0.808193 0.484678
0.938704 0.818864 0.507702
0.960941 0.828103 0.530869
0.982809 0.837363 0.553774
0.350946 0.655253 0.324963
0.360737 0.657813 0.326731
0.395699 0.666930 0.333389
0.456734 0.682852 0.345210
0.519857 0.700914 0.359329
0.583790 0.720497 0.375487
0.638136 0.736411 0.391705
0.694921 0.753369 0.409981
0.758182 0.772089 0.430876
0.820447 0.791374 0.454266
0.861531 0.806685 0.477764
0.897560 0.819403 0.500190
0.920895 0.828637 0.520752
0.942928 0.837438 0.541857
0.964956 0.846483 0.564297
0.986730 0.856079 0.588247
0.485326 0.713154 0.391517
0.491382 0.714820 0.392819
0.513447 0.720503 0.397233
0.549556 0.730024 0.405092
0.589831 0.741837 0.416059
0.631523 0.754331 0.428812
0.679044 0.769077 0.444238
0.734137 0.784922 0.460919
0.796348 0.801898 0.479501
0.840756 0.816023 0.499692
0.879489 0.829620 0.520872
0.906143 0.839879 0.540850
0.928843 0.848836 0.561456
0.951002 0.858400 0.583608
0.973747 0.868198 0.606352
0.995062 0.878101 0.626070
0.000124 0.005018 0.102547
0.064324 0.013137 0.088564
0.229697 0.034622 0.071983
0.414658 0.058810 0.081389
0.536906 0.083469 0.100344
0.633470 0.109664 0.126458
0.698770 0.137543 0.158152
0.750084 0.167668 0.191122
0.786797 0.196535 0.222638
0.819304 0.226678 0.254274
0.848448 0.250033 0.282119
0.864532 0.264635 0.309485
0.879961 0.279320 0.337208
0.892105 0.293915 0.365244
0.902329 0.309008 0.391375
0.912829 0.325947 0.418266
0.000118 0.022257 0.011940
0.006752 0.030476 0.020165
0.161758 0.067283 0.045596
0.355503 0.102157 0.067450
0.523621 0.128273 0.090942
0.627890 0.148168 0.119623
0.701798 0.171331 0.153208
0.755868 0.195091 0.187851
0.792046 0.220364 0.220371
0.823492 0.244723 0.252498
0.848839 0.258523 0.280545
0.865611 0.272285 0.308431
0.881593 0.286237 0.336728
0.893683 0.300184 0.365002
0.904341 0.315747 0.390781
0.914539 0.332095 0.417879
0.000000 0.055757 0.012782
0.000000 0.062066 0.014896
0.072916 0.101902 0.030390
0.252660 0.150618 0.051336
0.459482 0.195950 0.074611
0.598911 0.223289 0.107144
0.699296 0.241790 0.142440
0.757324 0.254040 0.179858
0.795852 0.264707 0.214666
0.824763 0.275197 0.246786
0.849986 0.285881 0.275872
0.869017 0.297290 0.305383
0.887169 0.310472 0.334753
0.900011 0.324544 0.362526
0.910477 0.338672 0.388982
0.920049 0.353125 0.416560
0.000000 0.095189 0.015898
0.000000 0.101220 0.018806
0.017030 0.134588 0.031446
0.190702 0.181975 0.049712
0.364401 0.226237 0.072284
0.548145 0.265094 0.102634
0.659201 0.285302 0.138384
0.741976 0.301116 0.174269
0.791961 0.313160 0.208313
0.827053 0.323184 0.240813
0.853327 0.332503 0.270202
0.875933 0.342599 0.299721
0.896569 0.353450 0.329285
0.909960 0.365048 0.358331
0.921359 0.379422 0.386473
0.931536 0.396961 0.414948
0.000000 0.139223 0.024322
0.000000 0.145553 0.027035
0.000076 0.169581 0.037043
0.143741 0.217037 0.054937
0.305616 0.264035 0.078166
0.494813 0.312268 0.105718
0.623719 0.343217 0.139454
0.720398 0.364206 0.171091
0.788063 0.380695 0.203737
0.833589 0.393857 0.235737
0.861568 0.403506 0.264222
0.886211 0.414159 0.293112
0.909136 0.426379 0.322600
0.925906 0.439486 0.352887
0.939456 0.451903 0.382552
0.949368 0.465578 0.412328
0.000000 0.187226 0.033207
0.000000 0.191869 0.035727
0.000000 0.217373 0.047954
0.093210 0.263539 0.066822
0.267877 0.312254 0.087156
0.441256 0.364483 0.111510
0.594234 0.407331 0.139285
0.698064 0.434698 0.169193
0.780927 0.455392 0.200364
0.832959 0.470931 0.230444
0.868597 0.482026 0.258591
0.894096 0.490859 0.287055
0.917400 0.500150 0.317393
0.936522 0.509149 0.348546
0.952755 0.518869 0.380050
0.962677 0.528808 0.411130
0.000000 0.235422 0.047813
0.000108 0.242557 0.051145
0.000120 0.268685 0.062711
0.062502 0.309849 0.079046
0.239263 0.356183 0.098692
0.401411 0.406155 0.122369
0.567350 0.454554 0.147305
0.673761 0.485405 0.175474
0.765000 0.509093 0.203742
0.823891 0.526518 0.229728
0.867658 0.540384 0.258240
0.895721 0.549417 0.287107
0.918780 0.557617 0.317923
0.940819 0.566299 0.349716
0.959624 0.575690 0.382089
0.971627 0.585268 0.414082
0.000000 0.289106 0.068225
0.000000 0.295630 0.071053
0.000000 0.318179 0.080680
0.047750 0.353697 0.096321
0.219621 0.397085 0.116332
0.376919 0.443735 0.138793
0.541620 0.492398 0.162724
0.654335 0.525982 0.189332
0.740047 0.549430 0.211162
0.811744 0.569807 0.235438
0.860485 0.586168 0.263251
0.893581 0.597912 0.293973
0.917892 0.607601 0.326357
0.940502 0.616992 0.358900
0.961366 0.625859 0.390537
0.976779 0.634729 0.421832
0.000000 0.340353 0.091958
0.000000 0.345267 0.094323
0.000000 0.363968 0.102954
0.024053 0.397725 0.118362
0.210730 0.435892 0.137174
0.365361 0.478839 0.158633
0.524196 0.525478 0.180780
0.640316 0.561538 0.201082
0.720689 0.584088 0.221577
0.796581 0.605171 0.244613
0.850092 0.622416 0.272306
0.888235 0.636204 0.304304
0.915484 0.647064 0.338418
0.938233 0.656871 0.372190
0.960346 0.666578 0.402421
0.978660 0.676279 0.433068
0.000000 0.384170 0.116739
0.000000 0.389132 0.119266
0.000824 0.406744 0.128078
0.045748 0.436783 0.143088
0.218628 0.470408 0.160852
0.368315 0.510364 0.178771
0.518570 0.552845 0.197492
0.632222 0.586948 0.217314
0.708154 0.609562 0.237024
0.784174 0.631833 0.259470
0.842020 0.651045 0.287598
0.882626 0.666931 0.320994
0.912607 0.679493 0.355312
0.936124 0.689755 0.387052
0.958433 0.699954 0.418342
0.978620 0.709978 0.449275
0.000000 0.432412 0.146150
0.000000 0.437535 0.148599
0.000000 0.455094 0.157028
0.102822 0.477357 0.168431
0.250373 0.507710 0.183167
0.388300 0.544177 0.199895
0.527912 0.583707 0.217783
0.631428 0.615671 0.238061
0.703542 0.638187 0.259089
0.777969 0.661094 0.283508
0.837869 0.681660 0.313235
0.879401 0.698669 0.346604
0.911263 0.712421 0.379005
0.934664 0.723160 0.409887
0.957116 0.733976 0.440282
0.979082 0.744978 0.470844
0.000219 0.486991 0.181161
0.005422 0.490496 0.182898
0.062311 0.501999 0.189031
0.160581 0.522336 0.199708
0.294377 0.550730 0.214084
0.423284 0.585337 0.231294
0.550230 0.621519 0.249650
0.636304 0.649231 0.270025
0.705452 0.671512 0.291553
0.778036 0.694720 0.317583
0.837615 0.715917 0.348946
0.879567 0.733692 0.381020
0.911356 0.747461 0.411889
0.934705 0.758232 0.440213
0.957275 0.769207 0.468865
0.979504 0.780603 0.498735
0.068031 0.540087 0.220339
0.077867 0.543142 0.222038
0.137007 0.554063 0.227763
0.250023 0.573001 0.237818
0.355038 0.599120 0.252150
0.473443 0.631762 0.269964
0.575250 0.662167 0.288577
0.647114 0.686437 0.311568
0.713962 0.708406 0.337386
0.785156 0.730995 0.365244
0.841203 0.750992 0.392958
0.883265 0.768533 0.420351
0.913134 0.781666 0.447056
0.936107 0.791984 0.474646
0.958578 0.802233 0.501287
0.980534 0.812734 0.526522
0.209117 0.597431 0.265977
0.228322 0.600071 0.267646
0.269297 0.609870 0.273945
0.342576 0.627269 0.285462
0.436910 0.652308 0.302226
0.529875 0.678443 0.321019
0.607401 0.702953 0.342706
0.666026 0.722334 0.363636
0.731282 0.743637 0.386780
0.801546 0.764691 0.409377
0.849247 0.781184 0.434747
0.890545 0.797279 0.462157
0.916074 0.808603 0.487579
0.938574 0.819043 0.510628
0.960649 0.828368 0.533302
0.982801 0.837660 0.556144
0.349888 0.655774 0.328401
0.359629 0.658349 0.330264
0.394599 0.667443 0.336908
0.456015 0.683327 0.348829
0.519028 0.701348 0.363035
0.583370 0.720740 0.378421
0.637696 0.736864 0.394740
0.694539 0.753681 0.413090
0.757854 0.772484 0.434037
0.820456 0.791663 0.457533
0.861383 0.806962 0.480302
0.897405 0.819673 0.502513
0.920797 0.828751 0.523056
0.942890 0.837540 0.544078
0.964682 0.846596 0.566491
0.986692 0.856044 0.590360
0.484878 0.713340 0.393993
0.491132 0.714994 0.395284
0.513037 0.720688 0.399681
0.549150 0.730454 0.407558
0.589492 0.742180 0.418555
0.631184 0.754789 0.431388
0.678698 0.769204 0.446503
0.733980 0.785182 0.463156
0.796086 0.802101 0.481755
0.840623 0.816275 0.501925
0.879482 0.829741 0.523052
0.906067 0.839938 0.542971
0.928580 0.849154 0.563554
0.950755 0.858473 0.585692
0.973606 0.868271 0.607769
0.995015 0.878261 0.627488
0.000435 0.004659 0.168583
0.034281 0.005139 0.208538
0.201240 0.026122 0.214085
0.386453 0.052037 0.217572
0.522645 0.078278 0.223095
0.624662 0.105710 0.233089
0.694525 0.134047 0.248203
0.747443 0.165118 0.265308
0.784638 0.194831 0.284001
0.817331 0.225529 0.305631
0.846610 0.249392 0.327395
0.863779 0.264097 0.350088
0.879761 0.278849 0.374049
0.892007 0.293527 0.398271
0.902246 0.308530 0.422367
0.912618 0.325213 0.447637
0.000000 0.030314 0.074979
0.000336 0.037161 0.098906
0.135679 0.068476 0.155381
0.325188 0.100079 0.184808
0.508826 0.126159 0.207161
0.618422 0.146368 0.222758
0.697290 0.169551 0.241554
0.753485 0.193758 0.261544
0.789990 0.219556 0.281861
0.821219 0.243814 0.304067
0.847189 0.258100 0.325484
0.864766 0.271885 0.348741
0.881315 0.285841 0.373085
0.893623 0.299858 0.397416
0.903935 0.315188 0.421468
0.914020 0.331327 0.446904
0.000000 0.064491 0.038847
0.000000 0.070644 0.045617
0.041888 0.107724 0.086855
0.234860 0.155159 0.130345
0.443124 0.198611 0.168901
0.590070 0.225411 0.197742
0.694768 0.242848 0.222640
0.754338 0.254554 0.248187
0.793556 0.264833 0.271963
0.822607 0.275114 0.295386
0.848253 0.285920 0.319364
0.868144 0.297311 0.344406
0.886708 0.310118 0.369419
0.899526 0.323965 0.393937
0.909987 0.337882 0.418835
0.919515 0.352201 0.444792
0.000000 0.101356 0.034500
0.000000 0.108039 0.041065
0.000333 0.139295 0.066377
0.172885 0.186096 0.101697
0.350211 0.229116 0.137629
0.540402 0.267532 0.173751
0.652452 0.286853 0.203059
0.737975 0.301750 0.231429
0.789063 0.313118 0.258285
0.824677 0.322714 0.284406
0.851140 0.331838 0.310136
0.874264 0.341715 0.336155
0.895557 0.352306 0.362347
0.909142 0.363737 0.388534
0.920547 0.378359 0.415165
0.931028 0.396089 0.441934
0.000000 0.144208 0.042928
0.000000 0.149654 0.047415
0.000078 0.173199 0.064242
0.122125 0.219963 0.093154
0.294658 0.265683 0.124215
0.486395 0.312499 0.158406
0.617442 0.342725 0.190189
0.715328 0.363409 0.219564
0.784638 0.379751 0.246495
0.830671 0.392851 0.273835
0.859106 0.402623 0.300103
0.884403 0.413661 0.327406
0.907939 0.426024 0.355095
0.924816 0.439178 0.383062
0.938839 0.451901 0.410801
0.948712 0.465590 0.438722
0.000000 0.189853 0.051592
0.000087 0.193563 0.054087
0.000098 0.219092 0.069883
0.072367 0.265201 0.094438
0.257130 0.314250 0.122438
0.432074 0.365999 0.152420
0.588610 0.408644 0.182631
0.693026 0.435543 0.211437
0.777683 0.455820 0.236532
0.830498 0.471288 0.264181
0.866701 0.482467 0.291943
0.892537 0.491439 0.320464
0.915934 0.500883 0.349129
0.935379 0.509742 0.378093
0.952038 0.519316 0.406969
0.961840 0.529311 0.436297
0.000000 0.238278 0.063942
0.000000 0.245240 0.067935
0.000000 0.270990 0.082461
0.046690 0.312038 0.104055
0.227630 0.358884 0.129037
0.392539 0.408048 0.155989
0.561949 0.456306 0.184212
0.669240 0.486538 0.209502
0.760636 0.509687 0.233513
0.821469 0.527303 0.260466
0.865379 0.541195 0.289583
0.894069 0.550499 0.319064
0.917113 0.558546 0.348182
0.939469 0.567198 0.377904
0.958723 0.576530 0.407436
0.970865 0.586065 0.437601
0.000131 0.292535 0.085634
0.000000 0.298649 0.088996
0.000000 0.320463 0.100462
0.032247 0.356053 0.118713
0.208092 0.399422 0.141724
0.369124 0.445590 0.166669
0.536184 0.493657 0.190944
0.650564 0.526854 0.213749
0.736269 0.550206 0.236134
0.809070 0.570645 0.261397
0.858509 0.587425 0.291150
0.892087 0.599454 0.323044
0.916397 0.609112 0.354747
0.939258 0.618155 0.384344
0.960410 0.626874 0.412998
0.976103 0.635638 0.442922
0.000000 0.342001 0.107169
0.000000 0.347079 0.109879
0.000000 0.365746 0.119693
0.009652 0.399852 0.137339
0.199706 0.437959 0.158622
0.358533 0.480456 0.179451
0.519391 0.526783 0.200436
0.637011 0.562788 0.221786
0.717410 0.585179 0.242806
0.793911 0.606368 0.266980
0.848274 0.623943 0.296503
0.886639 0.637757 0.329427
0.913915 0.648588 0.362524
0.937199 0.658116 0.392862
0.959525 0.667713 0.422285
0.977728 0.677353 0.452087
0.000000 0.385303 0.130584
0.000000 0.390357 0.133356
0.000000 0.408101 0.142974
0.032753 0.438321 0.158350
0.209018 0.471803 0.175268
0.362458 0.511576 0.194332
0.514337 0.553947 0.214327
0.629128 0.588056 0.235079
0.705332 0.610667 0.255330
0.781754 0.633153 0.280148
0.840402 0.652688 0.310675
0.881091 0.668499 0.344175
0.911557 0.680840 0.376222
0.934848 0.690960 0.406440
0.957420 0.701050 0.436455
0.977682 0.710956 0.466567
0.000195 0.433582 0.157738
0.000000 0.438614 0.160377
0.000000 0.456330 0.169346
0.091795 0.478656 0.181448
0.241558 0.509121 0.197434
0.382613 0.545584 0.216084
0.523631 0.585191 0.236061
0.628245 0.617209 0.257319
0.700625 0.639705 0.278883
0.775558 0.662652 0.304319
0.836299 0.683264 0.334736
0.878100 0.700177 0.367479
0.910182 0.713802 0.398561
0.933484 0.724573 0.428176
0.956143 0.735099 0.457294
0.978022 0.745791 0.486785
0.000000 0.488366 0.194345
0.000221 0.491987 0.196281
0.051581 0.503490 0.202661
0.147029 0.523820 0.213628
0.286857 0.552106 0.228490
0.417966 0.586779 0.246927
0.546223 0.622928 0.266407
0.633357 0.650719 0.287511
0.702689 0.672978 0.310241
0.775904 0.696452 0.338735
0.836083 0.717682 0.369341
0.878372 0.735216 0.400623
0.910226 0.748545 0.428613
0.933793 0.759247 0.455748
0.956418 0.770329 0.484084
0.978716 0.781274 0.510840
0.056157 0.541385 0.231847
0.064800 0.544442 0.233627
0.121398 0.555343 0.239712
0.242242 0.574355 0.250459
0.349078 0.600499 0.265655
0.469216 0.633200 0.284668
0.572247 0.664222 0.307526
0.644312 0.688370 0.331550
0.711856 0.709851 0.355458
0.783497 0.732436 0.381445
0.840020 0.752273 0.407851
0.882135 0.769534 0.434638
0.912026 0.782699 0.461432
0.935229 0.792974 0.488700
0.957620 0.802996 0.512549
0.979557 0.813568 0.537585
0.199563 0.599125 0.278475
0.219271 0.601795 0.280271
0.262792 0.611523 0.286725
0.337674 0.628981 0.298601
0.433611 0.653999 0.316143
0.527158 0.680147 0.335429
0.605302 0.704585 0.357354
0.664173 0.724046 0.378422
0.729815 0.744853 0.399081
0.800190 0.765636 0.422032
0.848142 0.782369 0.447499
0.889746 0.798434 0.475203
0.915000 0.809621 0.498098
0.937800 0.819841 0.519739
0.959933 0.829094 0.541742
0.982062 0.838318 0.564359
0.345673 0.657473 0.340599
0.355779 0.660126 0.342577
0.391106 0.669105 0.349411
0.453387 0.685005 0.360888
0.516987 0.702714 0.373520
0.581662 0.721860 0.389016
0.636195 0.737878 0.405479
0.693069 0.754901 0.424102
0.756519 0.773563 0.444876
0.819469 0.792714 0.466884
0.860628 0.807741 0.488680
0.896625 0.820325 0.510860
0.920091 0.829414 0.531232
0.942075 0.838257 0.552087
0.964300 0.847328 0.574336
0.986079 0.856649 0.598159
0.483422 0.714638 0.402760
0.489518 0.716120 0.404084
0.511479 0.721793 0.408446
0.547879 0.731513 0.416427
0.588254 0.743271 0.427439
0.629928 0.755865 0.440228
0.677617 0.770211 0.454571
0.732817 0.785993 0.471241
0.795303 0.802833 0.489830
0.839826 0.816999 0.509785
0.878735 0.830594 0.530761
0.905462 0.840717 0.550579
0.927908 0.849651 0.570879
0.950141 0.859100 0.593095
0.973110 0.868527 0.612969
0.994645 0.878642 0.632593
0.000000 0.003663 0.215647
0.027040 0.004903 0.267554
0.189019 0.014009 0.331519
0.354924 0.031678 0.350005
0.507712 0.064669 0.352123
0.613095 0.095393 0.351279
0.687727 0.125282 0.355999
0.743584 0.159056 0.363942
0.781777 0.190577 0.374100
0.815082 0.222751 0.387956
0.844733 0.247028 0.402595
0.862671 0.262210 0.418958
0.879236 0.277264 0.437432
0.891570 0.292296 0.457020
0.901926 0.307599 0.476954
0.911939 0.323933 0.494702
0.000000 0.035545 0.169018
0.000035 0.040852 0.198249
0.121390 0.063622 0.274797
0.300311 0.092035 0.308221
0.490700 0.118357 0.329596
0.604247 0.139710 0.338291
0.689872 0.164359 0.347486
0.748711 0.189493 0.358912
0.786848 0.216656 0.371021
0.818579 0.241398 0.384913
0.845012 0.256131 0.399112
0.863795 0.270271 0.416485
0.880837 0.284515 0.435369
0.893143 0.298818 0.455506
0.903655 0.314162 0.475641
0.913524 0.329928 0.493927
0.000000 0.078622 0.109667
0.000041 0.084026 0.118582
0.017172 0.116775 0.176951
0.215600 0.158943 0.231699
0.421332 0.198272 0.274668
0.577142 0.224722 0.302606
0.684616 0.241676 0.321672
0.748577 0.253364 0.339882
0.789630 0.263891 0.356037
0.819800 0.274247 0.371866
0.846133 0.285154 0.388828
0.866737 0.296652 0.407851
0.885925 0.309239 0.428953
0.898893 0.322665 0.450274
0.909163 0.336351 0.471562
0.918548 0.350456 0.491230
0.000000 0.112609 0.082279
0.000000 0.120018 0.093630
0.000000 0.148565 0.130882
0.149740 0.192016 0.180254
0.332846 0.232205 0.222498
0.529014 0.269296 0.261320
0.641796 0.287770 0.286876
0.730496 0.301722 0.311209
0.784705 0.312576 0.334226
0.821440 0.321756 0.355474
0.848305 0.330531 0.375670
0.872101 0.340049 0.396807
0.893941 0.350329 0.419417
0.907694 0.361622 0.442617
0.919373 0.376350 0.465597
0.929839 0.394541 0.487611
0.000069 0.152981 0.082442
0.000000 0.157641 0.088310
0.000000 0.179917 0.112372
0.090097 0.225397 0.154768
0.279193 0.268586 0.192591
0.472480 0.312287 0.230673
0.607374 0.341585 0.261604
0.706474 0.361760 0.288150
0.778898 0.378171 0.314855
0.826400 0.391527 0.340453
0.855925 0.401644 0.363437
0.881556 0.412832 0.386744
0.905700 0.425256 0.410658
0.923159 0.438828 0.435273
0.937531 0.451592 0.459812
0.947344 0.465335 0.483642
0.000088 0.195299 0.083857
0.000089 0.198743 0.087122
0.000000 0.224313 0.110169
0.045288 0.270240 0.145503
0.239921 0.318354 0.179019
0.417868 0.368005 0.211806
0.579779 0.410178 0.242783
0.684685 0.436265 0.270244
0.772064 0.456884 0.298432
0.826194 0.472541 0.326841
0.863275 0.483824 0.353276
0.889516 0.492811 0.378161
0.913527 0.501964 0.402557
0.933371 0.510600 0.427751
0.950685 0.520179 0.453522
0.960712 0.529878 0.478794
0.000000 0.245405 0.095576
0.000000 0.252098 0.100823
0.000124 0.276606 0.118970
0.025081 0.316622 0.146443
0.209304 0.363047 0.175528
0.379287 0.410784 0.203964
0.552616 0.458004 0.232315
0.661872 0.488004 0.258469
0.753323 0.510944 0.285496
0.817311 0.529043 0.315849
0.861740 0.543196 0.346748
0.891169 0.552351 0.373414
0.914654 0.560054 0.397857
0.937251 0.568468 0.423270
0.956976 0.577739 0.450031
0.969519 0.587074 0.476860
0.000134 0.298351 0.114556
0.000000 0.303741 0.118294
0.000146 0.324223 0.131730
0.013465 0.359840 0.153798
0.189747 0.402934 0.179201
0.357101 0.447658 0.204471
0.527277 0.495129 0.230503
0.643887 0.528315 0.255145
