tools/decompiled/jadx/resources/res/raw/rush.cube
LUT_3D_SIZE 6
0.005249 0.003617 0.004090
0.425678 0.059377 0.028227
0.699715 0.138299 0.124880
0.819726 0.226601 0.236202
0.880095 0.279432 0.326576
0.912894 0.326136 0.409869
0.000000 0.094414 0.012770
0.196459 0.181190 0.036250
0.661166 0.284525 0.113099
0.827695 0.323262 0.226532
0.896998 0.353757 0.319589
0.931748 0.397151 0.407180
0.000000 0.234673 0.043001
0.067172 0.309369 0.072188
0.568852 0.454108 0.136469
0.824597 0.526328 0.221397
0.919108 0.557308 0.309214
0.972011 0.585059 0.407298
0.000000 0.383819 0.112740
0.050200 0.436183 0.138247
0.519762 0.552513 0.192603
0.785001 0.631436 0.253868
0.913169 0.679131 0.349460
0.979044 0.709835 0.444465
0.071582 0.539714 0.217094
0.252185 0.572639 0.234289
0.576194 0.661789 0.284214
0.785620 0.730562 0.360077
0.913446 0.781408 0.443125
0.980679 0.812603 0.523329
0.485326 0.713154 0.391517
0.549556 0.730024 0.405092
0.679044 0.769077 0.444238
0.840756 0.816023 0.499692
0.928843 0.848836 0.561456
0.995062 0.878101 0.626070
0.000000 0.003663 0.215647
0.354924 0.031678 0.350005
0.687727 0.125282 0.355999
0.815082 0.222751 0.387956
0.879236 0.277264 0.437432
0.911939 0.323933 0.494702
0.000000 0.112609 0.082279
0.149740 0.192016 0.180254
0.641796 0.287770 0.286876
0.821440 0.321756 0.355474
0.893941 0.350329 0.419417
0.929839 0.394541 0.487611
0.000000 0.245405 0.095576
0.025081 0.316622 0.146443
0.552616 0.458004 0.232315
0.817311 0.529043 0.315849
0.914654 0.560054 0.397857
0.969519 0.587074 0.476860
0.000174 0.387334 0.153411
0.015465 0.441197 0.184083
0.506316 0.556569 0.247700
0.777420 0.636095 0.320560
0.909337 0.683257 0.412794
0.976213 0.712709 0.497195
0.038318 0.543721 0.251628
0.227547 0.576895 0.272799
0.567783 0.667330 0.337005
0.780754 0.734541 0.407704
0.910418 0.784631 0.486330
0.978362 0.814699 0.554676
0.480571 0.716623 0.418518
0.545609 0.733438 0.431883
0.675789 0.772042 0.469223
0.838713 0.818450 0.523916
0.926774 0.850834 0.584253
0.994163 0.879472 0.641768
0.011796 0.013899 0.351072
0.309188 0.032830 0.485308
0.671598 0.100502 0.570762
0.807478 0.207889 0.598750
0.875894 0.267299 0.612472
0.908343 0.315377 0.624962
0.000000 0.152096 0.299055
0.131725 0.207839 0.429969
0.620616 0.283718 0.551092
0.810917 0.312989 0.587515
0.885669 0.338970 0.606115
0.924383 0.384786 0.625839
0.000131 0.283969 0.259231
0.000000 0.339853 0.330176
0.521963 0.469285 0.469690
0.801887 0.533936 0.549293
0.903661 0.561651 0.590180
0.962274 0.586788 0.619952
0.000000 0.403621 0.272095
0.000000 0.460690 0.325367
0.474362 0.573491 0.424872
0.760465 0.648909 0.503123
0.899179 0.691264 0.566293
0.968405 0.717176 0.613777
0.000255 0.560318 0.365551
0.156132 0.593529 0.392557
0.551304 0.679844 0.457998
0.768515 0.743274 0.521295
0.902379 0.790687 0.584196
0.972312 0.819562 0.630734
0.471451 0.726951 0.492384
0.536811 0.743261 0.505307
0.667638 0.780180 0.541552
0.833770 0.825290 0.592990
0.922389 0.855318 0.638140
0.992175 0.882509 0.680227
0.119506 0.057739 0.471923
0.324228 0.081094 0.554836
0.662757 0.138417 0.649116
0.804654 0.212147 0.689946
0.873004 0.264118 0.704284
0.906765 0.310043 0.711651
0.000000 0.179927 0.444117
0.214714 0.220145 0.540517
0.620147 0.279074 0.653329
0.804812 0.307050 0.692159
0.879403 0.332416 0.703922
0.921396 0.378687 0.715092
0.000153 0.318258 0.414220
0.000489 0.364979 0.482306
0.528427 0.471405 0.602563
0.791816 0.527671 0.661893
0.895115 0.555546 0.690854
0.956544 0.582070 0.712053
0.000000 0.440412 0.420329
0.000000 0.486331 0.470393
0.470885 0.586972 0.568680
0.751097 0.653803 0.629015
0.891394 0.692790 0.668903
0.962293 0.717494 0.697524
0.000000 0.581884 0.484479
0.134429 0.612912 0.513079
0.542517 0.691985 0.579445
0.760566 0.750789 0.627588
0.895887 0.794386 0.667075
0.967122 0.822504 0.699415
0.473861 0.742887 0.585562
0.534625 0.757417 0.596850
0.665891 0.790115 0.624061
0.832478 0.832197 0.660943
0.919657 0.860261 0.696483
0.990277 0.887732 0.737790
0.223680 0.118581 0.560709
0.374187 0.142392 0.611827
0.666774 0.193552 0.691409
0.805272 0.237421 0.726663
0.871701 0.274018 0.741600
0.907249 0.314446 0.752307
0.106808 0.212849 0.556139
0.293207 0.236431 0.609449
0.631317 0.284791 0.695384
0.802149 0.310856 0.731857
0.876563 0.334735 0.747508
0.922193 0.385314 0.763075
0.000000 0.352735 0.528223
0.056607 0.392054 0.585742
0.562223 0.477109 0.689727
0.791590 0.525124 0.745400
0.891431 0.552979 0.769529
0.953604 0.580833 0.784350
0.000224 0.474252 0.526081
0.005496 0.512971 0.569431
0.507990 0.599591 0.654117
0.756379 0.657468 0.711037
0.888133 0.693997 0.750934
0.958352 0.719133 0.777510
0.001898 0.609003 0.577482
0.217120 0.635754 0.600258
0.558973 0.702297 0.653776
0.767259 0.756888 0.700433
0.893332 0.797426 0.741308
0.963771 0.825718 0.772898
0.507330 0.760455 0.652076
0.554520 0.771006 0.661483
0.679755 0.800449 0.688510
0.837214 0.840192 0.727572
0.918857 0.866593 0.762942
0.990633 0.894867 0.802455
0.249045 0.158947 0.586656
0.392195 0.183800 0.634989
0.668880 0.231432 0.714932
0.807467 0.261107 0.755549
0.872950 0.290937 0.771675
0.910478 0.328378 0.782624
0.222090 0.233448 0.605055
0.360553 0.254807 0.647655
0.649647 0.297347 0.723720
0.805656 0.322532 0.761011
0.877173 0.346198 0.776718
0.926421 0.405436 0.794916
0.019393 0.390125 0.617856
0.251733 0.418631 0.657048
0.598244 0.485165 0.735660
0.798416 0.527099 0.777184
0.891805 0.555290 0.798579
0.953098 0.584219 0.813580
0.000245 0.514550 0.619665
0.137614 0.542737 0.651527
0.558038 0.614073 0.723465
0.771080 0.662763 0.771861
0.889472 0.695978 0.800438
0.958147 0.720926 0.817104
0.205164 0.640802 0.658417
0.357630 0.664296 0.679324
0.589374 0.714917 0.724230
0.783961 0.765057 0.768014
0.894666 0.800846 0.799305
0.964491 0.828626 0.819774
0.550358 0.777327 0.720291
0.587993 0.785644 0.728746
0.707429 0.813281 0.754444
0.846944 0.848757 0.788047
0.922806 0.872994 0.814234
1.000000 0.905978 0.842872
