tools/decompiled/jadx/resources/res/raw/steel.cube
LUT_3D_SIZE 16
0.000000 0.000000 0.000000
0.028715 0.000100 0.000000
0.075387 0.003867 0.000019
0.148624 0.015230 0.002870
0.236600 0.028310 0.038955
0.330887 0.039943 0.080825
0.422159 0.051140 0.105764
0.505871 0.060348 0.121053
0.584679 0.068497 0.131980
0.657408 0.075009 0.139493
0.724469 0.079916 0.144735
0.788157 0.083555 0.148218
0.847315 0.086012 0.150152
0.899334 0.087660 0.151973
0.946703 0.089253 0.153096
0.993489 0.090340 0.154133
0.000000 0.052036 0.000000
0.028724 0.052884 0.000000
0.075373 0.058255 0.000000
0.146701 0.068821 0.004205
0.237924 0.082002 0.051344
0.337545 0.093781 0.090290
0.435040 0.104445 0.114202
0.521847 0.112788 0.128283
0.598947 0.119239 0.137183
0.669356 0.124445 0.143234
0.737724 0.129575 0.148438
0.800947 0.133047 0.151382
0.852772 0.136291 0.154078
0.900398 0.138611 0.156312
0.947271 0.140183 0.157767
0.993940 0.141347 0.158707
0.000139 0.113725 0.000000
0.029156 0.114632 0.000000
0.076454 0.119066 0.000330
0.148223 0.129027 0.013690
0.242351 0.141751 0.070058
0.346268 0.154000 0.104180
0.448651 0.164531 0.125359
0.543914 0.174265 0.139858
0.632882 0.183062 0.150739
0.704900 0.190413 0.158046
0.756097 0.195733 0.163317
0.804888 0.198813 0.166637
0.852904 0.200413 0.168792
0.900760 0.201539 0.170007
0.947551 0.202243 0.171042
0.994109 0.203264 0.172045
0.003763 0.181650 0.002606
0.035374 0.183841 0.003271
0.080117 0.187479 0.008800
0.150817 0.195244 0.041574
0.247610 0.208062 0.092137
0.354984 0.220871 0.119816
0.461756 0.231295 0.137845
0.561067 0.240877 0.151421
0.648404 0.249356 0.161269
0.707717 0.256633 0.169473
0.756507 0.262121 0.175760
0.805274 0.265565 0.179878
0.853411 0.267934 0.182733
0.901001 0.269637 0.184787
0.947995 0.270819 0.186375
0.994602 0.271534 0.187332
0.009528 0.251746 0.036046
0.043663 0.255596 0.044206
0.086742 0.262058 0.056691
0.155223 0.267755 0.081248
0.252222 0.280126 0.116177
0.361621 0.293250 0.136714
0.468527 0.304292 0.151890
0.569079 0.314128 0.163876
0.654092 0.322672 0.174121
0.708267 0.329791 0.183162
0.757392 0.334861 0.189820
0.805882 0.337557 0.193864
0.854045 0.338795 0.196302
0.901708 0.339390 0.197853
0.948757 0.339568 0.199079
0.994999 0.339500 0.199694
0.017037 0.324709 0.078842
0.053094 0.329189 0.084249
0.096339 0.338607 0.094524
0.159940 0.344087 0.108020
0.256176 0.353751 0.134483
0.366277 0.366078 0.153127
0.473874 0.377737 0.166106
0.572759 0.387630 0.176722
0.655268 0.396270 0.187483
0.709087 0.403418 0.197350
0.758021 0.408473 0.204451
0.806499 0.410992 0.208559
0.854683 0.411665 0.210526
0.902508 0.411494 0.211704
0.949478 0.411168 0.212418
0.995502 0.410495 0.212722
0.024113 0.394242 0.103448
0.061568 0.399069 0.107774
0.105629 0.409653 0.116059
0.164098 0.417212 0.125573
0.257768 0.425468 0.146724
0.369355 0.436882 0.166262
0.476916 0.448079 0.178311
0.575145 0.458175 0.188579
0.653952 0.467290 0.203491
0.706140 0.474110 0.215147
0.754952 0.478548 0.222095
0.803512 0.480822 0.226242
0.851806 0.481695 0.228337
0.899648 0.481624 0.229221
0.946768 0.481251 0.229539
0.993577 0.480568 0.229549
0.030354 0.459949 0.119329
0.068956 0.465476 0.123316
0.113610 0.475994 0.130416
0.167459 0.485234 0.137939
0.257086 0.491562 0.154053
0.369375 0.501031 0.173907
0.477706 0.511821 0.186559
0.575148 0.521985 0.197475
0.650773 0.531746 0.218322
0.702539 0.538587 0.233138
0.751292 0.542531 0.239780
0.800130 0.544908 0.244008
0.848401 0.546152 0.246478
0.896046 0.546671 0.247841
0.943416 0.546791 0.248572
0.990160 0.546569 0.248797
0.035201 0.521384 0.129698
0.074905 0.527950 0.134013
0.119837 0.537536 0.140262
0.172028 0.548132 0.148165
0.255738 0.553033 0.160501
0.366965 0.561031 0.178737
0.476476 0.571512 0.192458
0.573599 0.581370 0.204238
0.647929 0.591173 0.229664
0.700126 0.598200 0.248081
0.749107 0.602056 0.254978
0.797667 0.604588 0.259475
0.845962 0.606188 0.262386
0.893841 0.607095 0.264231
0.940850 0.607483 0.265171
0.987852 0.607519 0.265547
0.038674 0.577862 0.136036
0.079161 0.584788 0.140756
0.124737 0.594626 0.147641
0.175981 0.605657 0.155585
0.254599 0.610292 0.165435
0.363826 0.617057 0.181918
0.474106 0.626861 0.196432
0.571294 0.636523 0.208708
0.645418 0.646069 0.236964
0.698541 0.653461 0.259230
0.747585 0.657462 0.266533
0.796330 0.660169 0.271381
0.844568 0.662125 0.274677
0.892366 0.663342 0.276953
0.939398 0.663995 0.278356
0.986253 0.664217 0.278979
0.041219 0.631309 0.140954
0.082486 0.638584 0.146184
0.128466 0.648787 0.153139
0.178910 0.659741 0.160440
0.253805 0.664088 0.168866
0.360886 0.669992 0.184005
0.471629 0.678984 0.198881
0.568858 0.688177 0.211171
0.643650 0.697296 0.240674
0.697560 0.705071 0.266053
0.746743 0.709131 0.274088
0.795593 0.712073 0.279130
0.843745 0.713920 0.282715
0.891665 0.715464 0.285211
0.938967 0.716217 0.286829
0.985473 0.716643 0.287797
0.043441 0.682963 0.144760
0.084862 0.690591 0.150111
0.131398 0.701161 0.157187
0.181253 0.711887 0.164069
0.253318 0.716240 0.171660
0.358496 0.720956 0.185667
0.469581 0.729430 0.200806
0.566722 0.738280 0.212716
0.641790 0.747047 0.242510
0.696955 0.754651 0.270243
0.746390 0.759067 0.279233
0.795202 0.762112 0.284610
0.843392 0.764118 0.288317
0.891474 0.765454 0.291047
0.938472 0.766310 0.292805
0.985229 0.766897 0.293856
0.044921 0.732563 0.147378
0.086662 0.740571 0.152693
0.133398 0.751669 0.159943
0.183058 0.762280 0.166772
0.252546 0.766600 0.173674
0.355844 0.770734 0.186918
0.467345 0.778510 0.202158
0.564877 0.787176 0.213718
0.640285 0.795694 0.243575
0.696450 0.803155 0.273050
0.746044 0.807886 0.283078
0.795026 0.810868 0.288725
0.843205 0.812930 0.292608
0.891213 0.814271 0.295294
0.938231 0.815348 0.297222
0.984943 0.816003 0.298564
0.046183 0.782028 0.149721
0.088019 0.790175 0.155133
0.134866 0.801191 0.162106
0.184362 0.811359 0.168564
0.251817 0.815706 0.175132
0.353271 0.819624 0.187695
0.464873 0.826828 0.202706
0.562777 0.835146 0.214147
0.638866 0.843448 0.243493
0.695979 0.850930 0.274536
0.745961 0.855940 0.285581
0.794886 0.858774 0.291567
0.843124 0.861037 0.295505
0.891105 0.862501 0.298362
0.938230 0.863505 0.300453
0.984713 0.864316 0.301981
0.047811 0.832194 0.152617
0.090384 0.841119 0.158440
0.136908 0.851540 0.164836
0.185894 0.860821 0.170858
0.252441 0.864816 0.176841
0.351892 0.868133 0.188582
0.462970 0.874607 0.203397
0.561224 0.882806 0.214791
0.637733 0.890536 0.243496
0.695451 0.898188 0.275650
0.745851 0.903172 0.287533
0.794609 0.906186 0.293627
0.843027 0.908432 0.297694
0.890857 0.910044 0.300752
0.938228 0.911184 0.302857
0.984705 0.911827 0.304488
0.049258 0.881922 0.155071
0.093324 0.894157 0.162605
0.139626 0.903877 0.168664
0.188455 0.911430 0.173765
0.255994 0.914863 0.179466
0.353963 0.917385 0.190432
0.463298 0.923440 0.204629
0.561039 0.931291 0.216115
0.637231 0.938362 0.244943
0.695234 0.945605 0.277722
0.745661 0.950742 0.289631
0.794645 0.953635 0.295698
0.843045 0.955853 0.299846
0.890796 0.957422 0.302777
0.938180 0.958455 0.305067
0.984704 0.959231 0.306607
0.000022 0.000050 0.140199
0.028658 0.000330 0.135094
0.073110 0.005131 0.120988
0.147125 0.015225 0.122776
0.238863 0.028705 0.144020
0.337766 0.041984 0.167432
0.432970 0.054136 0.183421
0.518855 0.063999 0.193901
0.600583 0.073093 0.202622
0.675851 0.080232 0.208475
0.743803 0.084771 0.211633
0.802140 0.088230 0.213881
0.852840 0.091147 0.216122
0.900406 0.093232 0.217603
0.947271 0.095051 0.219110
0.993940 0.096221 0.219878
0.000000 0.053426 0.136915
0.028716 0.056535 0.126075
0.075644 0.061096 0.121365
0.150249 0.071551 0.124294
0.249671 0.085584 0.151191
0.354413 0.098189 0.174140
0.453863 0.109041 0.189768
0.541821 0.117814 0.199908
0.620920 0.125067 0.206665
0.695734 0.131394 0.211705
0.755585 0.136445 0.215440
0.804704 0.140614 0.218488
0.852871 0.143443 0.220718
0.900425 0.145712 0.222388
0.947363 0.147545 0.223702
0.994016 0.148919 0.224469
0.000584 0.119646 0.128816
0.030275 0.121501 0.124566
0.077886 0.123500 0.121480
0.153798 0.132422 0.128039
0.255142 0.145874 0.160168
0.363852 0.158628 0.182611
0.468607 0.169511 0.197636
0.566050 0.179728 0.208941
0.650235 0.188609 0.216855
0.707125 0.196076 0.223015
0.756453 0.201045 0.227243
0.804894 0.202888 0.229143
0.852860 0.202720 0.229523
0.900684 0.203231 0.230089
0.947538 0.203840 0.230760
0.994142 0.203745 0.230719
0.005311 0.190062 0.133708
0.037284 0.191054 0.129520
0.082353 0.192368 0.126329
0.156507 0.198604 0.142093
0.257924 0.211039 0.172242
0.368303 0.223395 0.191577
0.475751 0.233432 0.204984
0.575735 0.242912 0.215610
0.655014 0.251183 0.223450
0.707710 0.258246 0.230235
0.756544 0.263476 0.235185
0.805483 0.266601 0.238302
0.853522 0.268567 0.240446
0.901013 0.269412 0.241679
0.948090 0.269880 0.242638
0.994542 0.270334 0.243228
0.012114 0.261875 0.149817
0.045865 0.262373 0.146729
0.088611 0.266305 0.148812
0.159461 0.270490 0.163796
0.259230 0.281779 0.187442
0.369879 0.293580 0.202497
0.476084 0.303286 0.213975
0.575674 0.311827 0.223379
0.655645 0.319272 0.231288
0.708212 0.325724 0.238477
0.757105 0.330520 0.243807
0.805918 0.333135 0.247133
0.853887 0.334363 0.249163
0.901640 0.334637 0.250304
0.948679 0.334370 0.250994
0.995114 0.334161 0.251447
0.019559 0.333456 0.166493
0.054815 0.334293 0.166343
0.097360 0.340760 0.170933
0.161686 0.344041 0.179837
0.258988 0.352305 0.199425
0.369119 0.363214 0.213320
0.475038 0.373046 0.223318
0.572751 0.381802 0.231711
0.654697 0.389817 0.240382
0.708935 0.396684 0.248376
0.757974 0.401606 0.254490
0.806505 0.403891 0.257938
0.854685 0.404504 0.259650
0.902348 0.404146 0.260602
0.949242 0.403299 0.261013
0.995674 0.402614 0.261140
0.026468 0.401617 0.180518
0.063076 0.403226 0.181368
0.106084 0.410742 0.185748
0.164266 0.415517 0.191775
0.257628 0.421716 0.207868
0.367955 0.431747 0.223097
0.474913 0.442238 0.232966
0.573008 0.451834 0.241171
0.653940 0.460198 0.251967
0.707637 0.466633 0.261291
0.756310 0.471017 0.267410
0.805005 0.473347 0.271037
0.853105 0.473858 0.272782
0.900925 0.473814 0.273511
0.948329 0.473385 0.273821
0.994909 0.472567 0.273869
0.032237 0.465864 0.190878
0.069876 0.468059 0.191827
0.113400 0.475464 0.195828
0.166592 0.482235 0.200811
0.255764 0.487475 0.213549
0.367101 0.496330 0.229660
0.474910 0.506714 0.240039
0.572417 0.516354 0.248819
0.651111 0.525754 0.264498
0.703624 0.532424 0.277133
0.752456 0.536589 0.283161
0.801163 0.539078 0.286971
0.849387 0.540177 0.289144
0.897199 0.540526 0.290190
0.944475 0.540438 0.290797
0.991100 0.540109 0.290798
0.036965 0.526295 0.198226
0.075424 0.528924 0.199546
0.119360 0.536375 0.203339
0.170374 0.545440 0.208858
0.253625 0.549274 0.218563
0.364230 0.556819 0.233773
0.473300 0.566801 0.245182
0.570989 0.576511 0.254755
0.648214 0.586135 0.274289
0.700938 0.593267 0.291126
0.749788 0.597345 0.297399
0.798504 0.599921 0.301398
0.846922 0.601407 0.303938
0.894530 0.602171 0.305459
0.941749 0.602450 0.306341
0.988364 0.602407 0.306641
0.039941 0.581324 0.202670
0.079400 0.585338 0.204803
0.124020 0.593166 0.209075
0.174424 0.603148 0.214965
0.251823 0.607033 0.222748
0.360531 0.613555 0.236599
0.470910 0.623347 0.248905
0.568740 0.633048 0.259136
0.645346 0.642559 0.281502
0.698813 0.650076 0.302216
0.747949 0.654133 0.309038
0.796620 0.656975 0.313439
0.844955 0.658724 0.316459
0.892844 0.659889 0.318437
0.939777 0.660500 0.319616
0.986566 0.660594 0.320083
0.041966 0.633059 0.205572
0.082216 0.638143 0.208468
0.127500 0.646620 0.213244
0.177459 0.657192 0.219087
0.250873 0.661553 0.225790
0.357426 0.667169 0.238667
0.468334 0.676318 0.251450
0.566380 0.685569 0.261719
0.643353 0.694890 0.285719
0.697966 0.702713 0.309537
0.747101 0.707016 0.316956
0.795769 0.709956 0.321728
0.843993 0.711865 0.324973
0.891825 0.713143 0.327297
0.939066 0.713958 0.328751
0.985690 0.714377 0.329617
0.043776 0.683728 0.208106
0.084333 0.689152 0.211059
0.130269 0.699009 0.216557
0.180047 0.709527 0.222360
0.250518 0.714096 0.228195
0.354672 0.718932 0.240119
0.466103 0.727150 0.253135
0.564150 0.736073 0.263358
0.641392 0.745110 0.287716
0.697213 0.753035 0.313957
0.746546 0.757517 0.322319
0.795234 0.760442 0.327336
0.843674 0.762479 0.330804
0.891447 0.763887 0.333212
0.938560 0.764748 0.334956
0.985458 0.765389 0.336085
0.045027 0.733055 0.209977
0.086147 0.739436 0.213472
0.132580 0.749735 0.219183
0.182183 0.760468 0.224707
0.250105 0.764774 0.230300
0.352325 0.769074 0.241422
0.463993 0.776883 0.254454
0.562340 0.785567 0.264444
0.639707 0.794016 0.288901
0.696485 0.801726 0.316622
0.746099 0.806474 0.326230
0.795147 0.809638 0.331540
0.843311 0.811767 0.335129
0.891175 0.813155 0.337754
0.938478 0.814106 0.339543
0.985155 0.814786 0.340726
0.046116 0.781870 0.211386
0.087557 0.788711 0.215189
0.134099 0.799271 0.220861
0.183482 0.809764 0.226326
0.249339 0.814496 0.231621
0.349566 0.818206 0.242162
0.461429 0.825439 0.255090
0.560256 0.833888 0.265065
0.638191 0.842073 0.289250
0.695734 0.849903 0.318351
0.746047 0.854939 0.329045
0.794838 0.857912 0.334552
0.843233 0.860169 0.338421
0.891184 0.861789 0.340940
0.938230 0.862625 0.342901
0.984702 0.863292 0.344271
0.047333 0.830875 0.213109
0.089212 0.838615 0.217232
0.135879 0.849032 0.222703
0.184814 0.858822 0.227904
0.249277 0.863497 0.232901
0.347670 0.866642 0.242730
0.459127 0.873185 0.255640
0.558443 0.881571 0.265669
0.636833 0.889492 0.289063
0.695241 0.897026 0.319217
0.745848 0.902350 0.330888
0.794695 0.905433 0.336615
0.843032 0.907653 0.340561
0.890946 0.909171 0.343293
0.938226 0.910313 0.345349
0.984705 0.910992 0.346890
0.048790 0.880586 0.215154
0.092007 0.891079 0.220518
0.138302 0.900656 0.225573
0.187036 0.909088 0.230113
0.251739 0.913060 0.234832
0.348356 0.915632 0.244082
0.458491 0.921769 0.256395
0.557592 0.929586 0.266353
0.636047 0.937100 0.289626
0.695100 0.944447 0.320682
0.745625 0.949837 0.332699
0.794632 0.952762 0.338439
0.843081 0.955055 0.342403
0.890776 0.956681 0.345303
0.938226 0.957894 0.347448
0.984704 0.958601 0.348948
0.000000 0.001456 0.242613
0.028881 0.002168 0.243275
0.074972 0.006996 0.232427
0.143432 0.016648 0.227144
0.232143 0.029536 0.236794
0.332127 0.042940 0.248938
0.429151 0.055273 0.258609
0.518815 0.065975 0.265672
0.603240 0.075730 0.271270
0.681389 0.083546 0.275440
0.749049 0.089281 0.278045
0.803604 0.093683 0.279957
0.852524 0.096902 0.281573
0.900374 0.099084 0.282095
0.947228 0.100782 0.282745
0.993636 0.102021 0.283767
0.000047 0.061665 0.255337
0.028776 0.063646 0.254606
0.075661 0.067934 0.246358
0.145129 0.075157 0.237003
0.244352 0.087526 0.246183
0.353617 0.100109 0.255905
0.457680 0.111178 0.261689
0.549175 0.120908 0.266264
0.630765 0.128858 0.269934
0.703098 0.136748 0.274016
0.755955 0.142683 0.276832
0.804665 0.146838 0.278740
0.852911 0.150000 0.280255
0.900455 0.152479 0.281576
0.947368 0.154575 0.282487
0.994180 0.156174 0.283326
0.000999 0.129956 0.265638
0.031138 0.131360 0.260876
0.078302 0.134153 0.251725
0.151387 0.139399 0.240178
0.255335 0.150605 0.247389
0.369614 0.163240 0.257190
0.481093 0.175030 0.265316
0.584101 0.186776 0.272512
0.656766 0.196897 0.277936
0.707242 0.204254 0.281994
0.756455 0.208140 0.284383
0.804857 0.208451 0.284978
0.853036 0.207409 0.284375
0.900796 0.208424 0.285083
0.947875 0.208824 0.285306
0.994178 0.207711 0.284518
0.006282 0.203908 0.264643
0.038868 0.204810 0.257638
0.083235 0.208489 0.248518
0.157244 0.209377 0.238653
0.263056 0.219585 0.247908
0.379214 0.231416 0.258312
0.491061 0.241506 0.266729
0.590704 0.250711 0.273598
0.658138 0.258956 0.279992
0.707770 0.266352 0.285941
0.756829 0.271426 0.290170
0.805480 0.273818 0.292538
0.853516 0.274623 0.293822
0.901160 0.274680 0.294483
0.948098 0.275190 0.295180
0.994606 0.275450 0.295660
0.015205 0.282319 0.265102
0.050629 0.284316 0.258391
0.094102 0.290921 0.252307
0.162222 0.288872 0.244958
0.266450 0.294435 0.254200
0.382403 0.303967 0.263217
0.492360 0.313410 0.271969
0.592422 0.322571 0.280091
0.659098 0.330211 0.287641
0.708503 0.336262 0.294005
0.757534 0.340349 0.298430
0.806097 0.342149 0.301000
0.854147 0.342018 0.302115
0.901686 0.341003 0.302682
0.948701 0.340225 0.302981
0.995212 0.339673 0.303235
0.025586 0.360747 0.266686
0.062902 0.362326 0.261021
0.106602 0.368890 0.256768
0.166819 0.365729 0.251524
0.267283 0.365966 0.260773
0.384027 0.375769 0.272118
0.493153 0.385286 0.280266
0.590735 0.394157 0.288287
0.659523 0.401704 0.296919
0.709074 0.407693 0.303789
0.757947 0.411482 0.308423
0.806505 0.412904 0.310852
0.854747 0.412627 0.311952
0.902547 0.410998 0.312073
0.949467 0.409025 0.311851
0.995474 0.407533 0.311770
0.035728 0.434501 0.269713
0.073905 0.434957 0.264453
0.116882 0.438947 0.260844
0.169901 0.435404 0.256905
0.266611 0.436642 0.267135
0.383423 0.444723 0.280008
0.492303 0.454322 0.288327
0.588305 0.463343 0.296929
0.656515 0.471211 0.309365
0.706136 0.476391 0.316717
0.755066 0.479491 0.321120
0.803918 0.480693 0.323472
0.852445 0.480439 0.324286
0.900576 0.478984 0.323896
0.947889 0.476646 0.322954
0.994750 0.475046 0.322162
0.043044 0.499145 0.271749
0.080530 0.496413 0.265314
0.122084 0.496602 0.261981
0.172936 0.500832 0.263210
0.263977 0.500862 0.271434
0.380933 0.507864 0.284998
0.490348 0.517121 0.294038
0.585159 0.526171 0.303783
0.652774 0.534774 0.321493
0.702533 0.539921 0.330236
0.751617 0.542731 0.334424
0.800439 0.544000 0.336753
0.848873 0.543907 0.337667
0.896894 0.543145 0.337689
0.944248 0.541541 0.336607
0.991285 0.540125 0.335853
0.046507 0.553354 0.270664
0.083503 0.549236 0.265032
0.127428 0.554264 0.266120
0.176833 0.560594 0.268863
0.260915 0.561251 0.275505
0.377023 0.566665 0.288248
0.487393 0.575681 0.298238
0.581549 0.584185 0.308331
0.649698 0.592677 0.329955
0.700321 0.598021 0.341011
0.749358 0.600951 0.345437
0.798162 0.602450 0.348156
0.846635 0.602952 0.349477
0.894498 0.602804 0.349717
0.941863 0.601766 0.349132
0.988856 0.600747 0.348542
0.049633 0.606759 0.271948
0.087526 0.604349 0.268421
0.131090 0.608256 0.269301
0.180385 0.616835 0.273200
0.257692 0.618059 0.278538
0.371934 0.622373 0.290441
0.483235 0.630735 0.301123
0.577395 0.638824 0.311371
0.647062 0.647023 0.335253
0.698780 0.652805 0.349461
0.747899 0.655842 0.354398
0.796721 0.657747 0.357459
0.844872 0.658835 0.359322
0.892836 0.659121 0.360274
0.940042 0.659007 0.360365
0.986875 0.658389 0.360114
0.051231 0.656446 0.272330
0.089366 0.654484 0.269701
0.134119 0.660949 0.272291
0.182762 0.669116 0.275858
0.255324 0.671205 0.280675
0.366254 0.674321 0.291529
0.478204 0.681929 0.302585
0.573030 0.689892 0.312622
0.644725 0.697942 0.336982
0.697802 0.704351 0.355025
0.747055 0.707724 0.360651
0.795771 0.709832 0.364141
0.844299 0.711252 0.366446
0.891967 0.712299 0.368012
0.939144 0.712672 0.369048
0.985827 0.712830 0.369500
0.051241 0.702440 0.271494
0.091010 0.704456 0.271216
0.136123 0.711565 0.274228
0.184456 0.719523 0.277793
0.253292 0.721835 0.281930
0.360704 0.724265 0.291985
0.472823 0.731076 0.303190
0.568639 0.738929 0.312731
0.642365 0.746730 0.336357
0.697276 0.753616 0.358052
0.746599 0.757519 0.364733
0.795517 0.759933 0.368752
0.843768 0.761648 0.371608
0.891454 0.762967 0.373725
0.938657 0.763903 0.375132
0.985390 0.764228 0.375922
0.051648 0.749460 0.271503
0.092160 0.752991 0.272297
0.137229 0.759978 0.275242
0.185631 0.768032 0.278865
0.251064 0.770731 0.282722
0.355006 0.772752 0.291911
0.467427 0.779103 0.303409
0.564275 0.786981 0.312472
0.640269 0.794519 0.334886
0.696477 0.801658 0.359459
0.746237 0.805973 0.367740
0.795242 0.808958 0.372420
0.843307 0.810881 0.375692
0.891304 0.812232 0.378096
0.938350 0.813375 0.379602
0.985155 0.813929 0.380575
0.052349 0.797468 0.272145
0.092634 0.800218 0.272630
0.137678 0.807222 0.275659
0.186066 0.815386 0.279447
0.249083 0.818618 0.283075
0.349707 0.820281 0.291603
0.461789 0.826476 0.303031
0.560148 0.834116 0.311961
0.638178 0.841692 0.333333
0.695765 0.849375 0.360275
0.746058 0.854443 0.370228
0.794863 0.857262 0.375309
0.843309 0.859375 0.378811
0.891188 0.861002 0.381250
0.938265 0.862032 0.382959
0.984712 0.862655 0.384252
0.053266 0.845781 0.273286
0.093312 0.847971 0.273382
0.138307 0.854456 0.276329
0.186460 0.862167 0.279858
0.248166 0.865625 0.283481
0.345797 0.867246 0.291460
0.457460 0.873159 0.302809
0.557165 0.881111 0.311938
0.636501 0.888996 0.332475
0.695240 0.896350 0.360747
0.745844 0.901663 0.371875
0.794837 0.904645 0.377297
0.843033 0.907056 0.381011
0.891008 0.908601 0.383637
0.938224 0.909675 0.385480
0.984710 0.910549 0.386963
0.054944 0.895950 0.275833
0.095430 0.898949 0.275758
0.139668 0.903595 0.277585
0.187511 0.910579 0.280862
0.249248 0.913776 0.284387
0.345106 0.915581 0.292117
0.455597 0.921009 0.303168
0.555621 0.928853 0.312251
0.635281 0.936233 0.332244
0.694923 0.943747 0.361464
0.745883 0.948986 0.373390
0.794611 0.952071 0.378944
0.843013 0.954749 0.382689
0.891017 0.955956 0.385501
0.938256 0.957302 0.387583
0.984704 0.958035 0.388898
0.000051 0.008665 0.323544
0.028774 0.009499 0.325091
0.076207 0.012372 0.321966
0.145244 0.021917 0.319261
0.229968 0.034572 0.321862
0.326297 0.047074 0.328491
0.422635 0.058751 0.334421
0.513555 0.069210 0.339508
0.598975 0.079391 0.343911
0.677281 0.087755 0.347315
0.744428 0.094430 0.349557
0.802117 0.098945 0.350660
0.851641 0.101871 0.350993
0.899423 0.103858 0.350676
0.946464 0.105716 0.350699
0.992889 0.107180 0.352111
0.000000 0.073057 0.349384
0.028690 0.075193 0.351192
0.074438 0.077594 0.349643
0.145345 0.081909 0.342310
0.239688 0.092403 0.339473
0.345486 0.103291 0.340808
0.447710 0.113073 0.339041
0.539243 0.121976 0.338524
0.623136 0.131225 0.340147
0.698801 0.140588 0.343475
0.754975 0.147134 0.345277
0.803901 0.151793 0.346056
0.852179 0.155165 0.346871
0.899937 0.157842 0.347626
0.946773 0.159801 0.347848
0.993419 0.161258 0.348219
0.000243 0.142544 0.364334
0.029774 0.143784 0.361584
0.075040 0.146826 0.359657
0.147629 0.149798 0.352980
0.247511 0.156397 0.345618
0.360970 0.166778 0.345782
0.475554 0.179066 0.348403
0.580129 0.191739 0.350696
0.655116 0.203202 0.353314
0.706514 0.211877 0.355361
0.755621 0.216916 0.355553
0.804333 0.216157 0.352307
0.852636 0.215059 0.349601
0.900551 0.215890 0.349040
0.947352 0.215931 0.348224
0.993859 0.214981 0.346803
0.005602 0.218889 0.369987
0.038108 0.219564 0.364963
0.081233 0.224477 0.360351
0.153024 0.226431 0.352536
0.257620 0.229804 0.343594
0.376242 0.239015 0.343296
0.492180 0.249919 0.346065
0.595002 0.261788 0.349489
0.657862 0.271792 0.352527
0.707434 0.280214 0.355524
0.756583 0.286058 0.357774
0.805406 0.288703 0.358792
0.853478 0.289356 0.358880
0.901016 0.288989 0.358481
0.948081 0.288589 0.357885
0.994623 0.288130 0.356971
0.016380 0.300792 0.369656
0.052143 0.302555 0.364064
0.095784 0.310915 0.359743
0.160839 0.312795 0.348718
0.266065 0.310710 0.338768
0.387304 0.320367 0.341382
0.499978 0.329415 0.343987
0.598673 0.339190 0.348298
0.659108 0.346865 0.352316
0.708642 0.352731 0.355713
0.757426 0.355466 0.357599
0.806165 0.355722 0.358173
0.854140 0.353701 0.357746
0.901776 0.351507 0.357191
0.948703 0.349712 0.356735
0.995009 0.348578 0.356095
0.028692 0.380821 0.369597
0.066565 0.383064 0.363840
0.112063 0.392920 0.359951
0.170001 0.397092 0.349052
0.268353 0.392581 0.338986
0.390822 0.397983 0.341067
0.500624 0.405638 0.343788
0.596929 0.413437 0.348978
0.659026 0.418044 0.354381
0.708487 0.420697 0.357606
0.757424 0.421772 0.359621
0.806199 0.421740 0.360710
0.854462 0.420475 0.360919
0.902292 0.418639 0.360849
0.949494 0.416121 0.360179
0.995699 0.413826 0.359206
0.041555 0.457134 0.370194
0.081160 0.459840 0.363952
0.127897 0.470020 0.359920
0.181154 0.477160 0.351906
0.270366 0.470430 0.340515
0.389876 0.469951 0.341513
0.498562 0.472605 0.344145
0.591757 0.477091 0.350540
0.655269 0.482809 0.362803
0.704615 0.486250 0.367689
0.753716 0.488194 0.370637
0.802652 0.488288 0.371852
0.851287 0.487224 0.371863
0.899434 0.485212 0.371068
0.946787 0.482695 0.369947
0.994229 0.480681 0.368855
0.051729 0.525436 0.369884
0.092629 0.528862 0.363271
0.140116 0.538446 0.359108
0.192071 0.547203 0.353404
0.271211 0.538001 0.341114
0.385392 0.529186 0.340567
0.495378 0.530953 0.345088
0.588133 0.537255 0.354654
