tools/decompiled/jadx/resources/res/raw/steel.cube
LUT_3D_SIZE 6
0.000000 0.000000 0.000000
0.148624 0.015230 0.002870
0.422159 0.051140 0.105764
0.657408 0.075009 0.139493
0.847315 0.086012 0.150152
0.993489 0.090340 0.154133
0.003763 0.181650 0.002606
0.150817 0.195244 0.041574
0.461756 0.231295 0.137845
0.707717 0.256633 0.169473
0.853411 0.267934 0.182733
0.994602 0.271534 0.187332
0.024113 0.394242 0.103448
0.164098 0.417212 0.125573
0.476916 0.448079 0.178311
0.706140 0.474110 0.215147
0.851806 0.481695 0.228337
0.993577 0.480568 0.229549
0.038674 0.577862 0.136036
0.175981 0.605657 0.155585
0.474106 0.626861 0.196432
0.698541 0.653461 0.259230
0.844568 0.662125 0.274677
0.986253 0.664217 0.278979
0.044921 0.732563 0.147378
0.183058 0.762280 0.166772
0.467345 0.778510 0.202158
0.696450 0.803155 0.273050
0.843205 0.812930 0.292608
0.984943 0.816003 0.298564
0.049258 0.881922 0.155071
0.188455 0.911430 0.173765
0.463298 0.923440 0.204629
0.695234 0.945605 0.277722
0.843045 0.955853 0.299846
0.984704 0.959231 0.306607
0.000051 0.008665 0.323544
0.145244 0.021917 0.319261
0.422635 0.058751 0.334421
0.677281 0.087755 0.347315
0.851641 0.101871 0.350993
0.992889 0.107180 0.352111
0.005602 0.218889 0.369987
0.153024 0.226431 0.352536
0.492180 0.249919 0.346065
0.707434 0.280214 0.355524
0.853478 0.289356 0.358880
0.994623 0.288130 0.356971
0.041555 0.457134 0.370194
0.181154 0.477160 0.351906
0.498562 0.472605 0.344145
0.704615 0.486250 0.367689
0.851287 0.487224 0.371863
0.994229 0.480681 0.368855
0.065542 0.645087 0.366716
0.200869 0.658017 0.346745
0.487277 0.639535 0.348628
0.697887 0.660638 0.399338
0.844356 0.665959 0.408025
0.986309 0.663926 0.406918
0.072595 0.797532 0.362103
0.199593 0.793205 0.339728
0.473680 0.787954 0.350694
0.696477 0.808751 0.409801
0.843178 0.815325 0.421469
0.985258 0.816221 0.423461
0.076672 0.943952 0.366567
0.199646 0.930519 0.338668
0.457087 0.928039 0.349226
0.694937 0.947221 0.407312
0.843009 0.955545 0.423916
0.984704 0.958078 0.428354
0.000108 0.036674 0.518606
0.151990 0.048224 0.528830
0.424209 0.079691 0.532974
0.663867 0.108801 0.540074
0.845793 0.124573 0.541588
0.993038 0.130233 0.542123
0.009440 0.255287 0.604389
0.153015 0.264849 0.606175
0.462873 0.279486 0.586311
0.706678 0.309236 0.576879
0.852911 0.317802 0.572638
0.993489 0.314709 0.566439
0.060305 0.495281 0.600346
0.206891 0.517801 0.599155
0.484856 0.518722 0.580424
0.711066 0.530394 0.573552
0.856637 0.528567 0.571268
0.997101 0.520432 0.568348
0.102667 0.680111 0.593814
0.284824 0.696126 0.592946
0.492508 0.703021 0.573280
0.704307 0.707397 0.590667
0.850154 0.707266 0.590634
0.990627 0.702114 0.581656
0.126745 0.828795 0.589710
0.307869 0.841221 0.592788
0.499881 0.851985 0.578823
0.704172 0.853797 0.603669
0.850839 0.853408 0.604430
0.990181 0.848301 0.593100
0.134139 0.969429 0.589446
0.309378 0.979994 0.592104
0.493325 0.989278 0.577343
0.702488 0.991325 0.600736
0.849577 0.988146 0.597398
0.987865 0.979151 0.577675
0.000277 0.048697 0.660494
0.155629 0.062998 0.677542
0.426480 0.092524 0.682759
0.661525 0.121930 0.686267
0.839930 0.137668 0.686894
0.992670 0.143745 0.687154
0.014277 0.270087 0.745706
0.161852 0.281520 0.745705
0.457673 0.297874 0.745678
0.701806 0.324995 0.745623
0.854316 0.330544 0.737808
0.995134 0.325363 0.725526
0.073128 0.506057 0.745253
0.234615 0.527091 0.739285
0.485795 0.532372 0.745681
0.704803 0.544383 0.743770
0.858969 0.545970 0.741441
0.999300 0.540358 0.741410
0.143518 0.686446 0.729295
0.325339 0.701517 0.727551
0.513518 0.709866 0.739191
0.709350 0.717992 0.741983
0.859093 0.720075 0.741542
1.000034 0.716627 0.739948
0.175116 0.836901 0.726952
0.337412 0.843070 0.729503
0.523589 0.852205 0.736928
0.711436 0.861227 0.742801
0.858458 0.861150 0.742946
0.999081 0.860931 0.742328
0.183667 0.977946 0.727095
0.339940 0.981837 0.729978
0.520298 0.989700 0.736377
0.710434 0.999259 0.741704
0.858167 0.999075 0.742284
0.998485 0.998485 0.740281
0.000723 0.058236 0.803315
0.167181 0.073919 0.823143
0.445494 0.106044 0.827377
0.676270 0.137559 0.827246
0.849131 0.153054 0.827376
0.994206 0.158018 0.827253
0.017837 0.277132 0.867861
0.171052 0.287098 0.867799
0.460932 0.304741 0.867782
0.698555 0.331813 0.867861
0.854720 0.337595 0.866672
0.995535 0.334007 0.860327
0.076239 0.506500 0.867487
0.239581 0.527525 0.862596
0.489230 0.531869 0.867861
0.702816 0.544540 0.867861
0.859154 0.548450 0.867544
0.999790 0.544194 0.867725
0.150011 0.688404 0.850652
0.332462 0.703220 0.849954
0.518725 0.710962 0.862124
0.708197 0.718974 0.867861
0.859504 0.721946 0.867861
1.000034 0.720142 0.867861
0.186660 0.840275 0.848706
0.345352 0.844827 0.852073
0.529579 0.853536 0.859970
0.712198 0.861672 0.867497
0.859504 0.862169 0.867861
1.000034 0.862169 0.867861
0.191612 0.979774 0.849369
0.348418 0.983710 0.852752
0.527325 0.991091 0.859347
0.712013 0.999562 0.867318
0.859504 1.000034 0.867861
1.000034 1.000034 0.867861
0.009768 0.122182 1.000034
0.217977 0.143425 0.999118
0.510589 0.177838 1.000034
0.709322 0.203220 1.000034
0.855344 0.208732 1.000034
0.996224 0.207788 1.000034
0.031284 0.300042 1.000034
0.193399 0.311951 1.000034
0.482972 0.333692 1.000034
0.705067 0.360872 1.000034
0.856369 0.370140 1.000034
0.997320 0.370591 1.000034
0.079264 0.508067 1.000034
0.240674 0.526743 0.996241
0.492181 0.530414 1.000034
0.703283 0.544069 1.000034
0.858907 0.548558 1.000034
0.999809 0.546493 1.000034
0.149654 0.688086 0.982489
0.332600 0.703101 0.981345
0.518383 0.710099 0.995081
0.707778 0.717517 1.000034
0.859504 0.720776 1.000034
1.000034 0.719609 1.000034
0.189900 0.841139 0.980035
0.348245 0.845632 0.983938
0.534343 0.854465 0.992833
0.712542 0.861718 0.999781
0.859504 0.862169 1.000034
1.000034 0.862169 1.000034
0.194695 0.980719 0.980777
0.352020 0.984537 0.984685
0.533798 0.992770 0.992794
0.712676 0.999824 1.000034
0.859504 1.000034 1.000034
1.000034 1.000034 1.000034
